; generated by PrusaSlicer 2.3.1+win64 on 2022-11-06 at 21:35:49 UTC

; 

; external perimeters extrusion width = 0.45mm
; perimeters extrusion width = 0.45mm
; infill extrusion width = 0.45mm
; solid infill extrusion width = 0.45mm
; top infill extrusion width = 0.40mm
; first layer extrusion width = 0.42mm

M73 P0 R15
M73 Q0 S15
M201 X1000 Y1000 Z200 E5000 ; sets maximum accelerations, mm/sec^2
M203 X200 Y200 Z12 E120 ; sets maximum feedrates, mm/sec
M204 P1250 R1250 T1250 ; sets acceleration (P, T) and retract acceleration (R), mm/sec^2
M205 X8.00 Y8.00 Z0.40 E4.50 ; sets the jerk limits, mm/sec
M205 S0 T0 ; sets the minimum extruding and travel feed rate, mm/sec
M107
;TYPE:Custom
M862.3 P "MK3S" ; printer model check
M862.1 P0.4 ; nozzle diameter check
M115 U3.9.3 ; tell printer latest fw version
G90 ; use absolute coordinates
M83 ; extruder relative mode
M104 S205 ; set extruder temp
M140 S67 ; set bed temp
M190 S67 ; wait for bed temp
M109 S205 ; wait for extruder temp
G28 W ; home all without mesh bed level
G80 ; mesh bed leveling
G1 Y-3.0 F1000.0 ; go outside print area
G92 E0.0
G1 X60.0 E9.0 F1000.0 ; intro line
G1 X100.0 E12.5 F1000.0 ; intro line
G92 E0.0
M221 S95

; Don't change E values below. Excessive value can damage the printer.
M907 E430 ; set extruder motor current
G21 ; set units to millimeters
G90 ; use absolute coordinates
M83 ; use relative distances for extrusion
M900 K0.05 ; Filament gcode LA 1.5
M900 K30 ; Filament gcode LA 1.0
;LAYER_CHANGE
;Z:0.2
;HEIGHT:0.2
;BEFORE_LAYER_CHANGE
G92 E0.0
;0.2


G1 E-1.20000 F2400.000
G1 Z0.400 F10800.000
;AFTER_LAYER_CHANGE
;0.2
; printing object bobbin1.stl id:0 copy 0
G1 X211.681 Y22.995
G1 Z0.200
G1 E1.20000 F2400.000
M204 S1000
;TYPE:Perimeter
;WIDTH:0.42
G1 F1200.000
G1 X211.523 Y22.873 E0.00627
G1 X211.170 Y22.467 E0.01686
G1 X210.838 Y21.883 E0.02108
G1 X210.670 Y21.372 E0.01686
G1 X210.587 Y20.680 E0.02186
G1 X210.666 Y20.003 E0.02137
G1 X210.836 Y19.476 E0.01735
G1 X211.170 Y18.889 E0.02120
G1 X211.505 Y18.503 E0.01602
G1 X211.897 Y18.176 E0.01602
G1 X212.488 Y17.855 E0.02108
G1 X213.000 Y17.698 E0.01680
G1 X213.651 Y17.631 E0.02052
G1 X214.176 Y17.680 E0.01651
G1 X214.671 Y17.811 E0.01608
G1 X215.259 Y18.098 E0.02052
G1 X215.679 Y18.417 E0.01651
G1 X216.032 Y18.792 E0.01614
G1 X216.400 Y19.384 E0.02186
G1 X216.615 Y20.031 E0.02137
G1 X216.684 Y20.578 E0.01729
G1 X216.633 Y21.234 E0.02064
G1 X216.492 Y21.741 E0.01651
G1 X216.274 Y22.208 E0.01614
G1 X215.859 Y22.769 E0.02186
G1 X215.593 Y22.992 E0.01091
G1 X215.673 Y23.118 E0.00468
G1 X215.814 Y23.445 E0.01116
G1 X215.923 Y23.921 E0.01531
G1 X215.923 Y24.432 E0.01602
G1 X215.826 Y24.868 E0.01398
G1 X215.695 Y25.199 E0.01116
G1 X215.435 Y25.612 E0.01532
G1 X215.074 Y25.974 E0.01602
G1 X214.698 Y26.213 E0.01398
G1 X214.371 Y26.355 E0.01116
G1 X213.895 Y26.464 E0.01532
G1 X213.406 Y26.464 E0.01532
G1 X213.056 Y26.398 E0.01117
G1 X212.636 Y26.248 E0.01397
G1 X212.204 Y25.976 E0.01602
G1 X211.858 Y25.631 E0.01532
G1 X211.657 Y25.337 E0.01116
G1 X211.466 Y24.934 E0.01398
G1 X211.352 Y24.436 E0.01602
G1 X211.352 Y23.948 E0.01531
G1 X211.417 Y23.598 E0.01116
G1 X211.567 Y23.178 E0.01399
G1 X211.649 Y23.046 E0.00487
G1 X212.135 Y22.981 F10800.000
M73 Q1 S15
G1 F1200.000
G1 X212.199 Y22.918 E0.00282
G1 X211.783 Y22.597 E0.01646
G1 X211.479 Y22.248 E0.01450
G1 X211.184 Y21.729 E0.01872
G1 X211.039 Y21.290 E0.01450
G1 X210.966 Y20.679 E0.01928
G1 X211.036 Y20.084 E0.01880
G1 X211.183 Y19.629 E0.01498
G1 X211.479 Y19.108 E0.01881
G1 X211.770 Y18.773 E0.01390
G1 X212.110 Y18.489 E0.01390
G1 X212.635 Y18.204 E0.01872
G1 X213.076 Y18.069 E0.01446
G1 X213.653 Y18.010 E0.01820
M73 P1 R15
G1 X214.109 Y18.052 E0.01437
G1 X214.539 Y18.166 E0.01394
G1 X215.061 Y18.421 E0.01820
G1 X215.425 Y18.698 E0.01437
G1 X215.731 Y19.023 E0.01398
G1 X216.056 Y19.545 E0.01928
G1 X216.245 Y20.114 E0.01880
G1 X216.305 Y20.587 E0.01493
G1 X216.260 Y21.168 E0.01829
G1 X216.137 Y21.610 E0.01437
G1 X215.948 Y22.014 E0.01398
G1 X215.582 Y22.509 E0.01928
G1 X215.078 Y22.919 E0.02041
G1 X215.137 Y22.979 E0.00265
G1 X215.339 Y23.296 E0.01176
G1 X215.455 Y23.563 E0.00913
G1 X215.546 Y23.964 E0.01288
G1 X215.546 Y24.391 E0.01339
G1 X215.464 Y24.757 E0.01176
G1 X215.357 Y25.028 E0.00913
G1 X215.139 Y25.376 E0.01289
G1 X214.837 Y25.678 E0.01339
G1 X214.520 Y25.879 E0.01175
G1 X214.253 Y25.995 E0.00914
G1 X213.852 Y26.086 E0.01289
G1 X213.441 Y26.086 E0.01289
G1 X213.155 Y26.033 E0.00914
G1 X212.802 Y25.907 E0.01175
G1 X212.440 Y25.680 E0.01339
G1 X212.149 Y25.389 E0.01289
G1 X211.985 Y25.149 E0.00913
G1 X211.824 Y24.810 E0.01175
G1 X211.729 Y24.394 E0.01339
G1 X211.729 Y23.983 E0.01288
G1 X211.782 Y23.696 E0.00913
G1 X211.908 Y23.343 E0.01176
G1 X212.103 Y23.032 E0.01151
G1 X212.894 Y22.837 F10800.000
G1 F1200.000
G1 X212.793 Y22.806 E0.00330
G1 X212.456 Y22.640 E0.01177
G1 X212.043 Y22.322 E0.01636
G1 X211.788 Y22.029 E0.01214
G1 X211.531 Y21.576 E0.01636
G1 X211.409 Y21.208 E0.01214
G1 X211.346 Y20.679 E0.01671
G1 X211.406 Y20.164 E0.01624
G1 X211.530 Y19.782 E0.01260
G1 X211.788 Y19.327 E0.01642
G1 X212.035 Y19.043 E0.01177
G1 X212.323 Y18.803 E0.01177
G1 X212.782 Y18.554 E0.01636
G1 X213.151 Y18.440 E0.01212
G1 X213.655 Y18.389 E0.01587
G1 X214.043 Y18.425 E0.01223
G1 X214.407 Y18.521 E0.01180
G1 X214.862 Y18.743 E0.01587
G1 X215.172 Y18.980 E0.01223
G1 X215.431 Y19.254 E0.01183
G1 X215.713 Y19.707 E0.01671
G1 X215.876 Y20.198 E0.01624
G1 X215.926 Y20.596 E0.01258
G1 X215.887 Y21.103 E0.01593
G1 X215.782 Y21.478 E0.01223
G1 X215.622 Y21.820 E0.01183
G1 X215.306 Y22.249 E0.01671
G1 X214.909 Y22.582 E0.01624
G1 X214.567 Y22.770 E0.01223
G1 X214.367 Y22.840 E0.00665
G1 X214.587 Y22.962 E0.00787
G1 X214.841 Y23.216 E0.01129
G1 X215.005 Y23.473 E0.00954
G1 X215.095 Y23.681 E0.00710
G1 X215.169 Y24.006 E0.01045
G1 X215.169 Y24.349 E0.01076
G1 X215.103 Y24.646 E0.00953
G1 X215.020 Y24.857 E0.00710
G1 X214.842 Y25.139 E0.01046
G1 X214.599 Y25.382 E0.01077
G1 X214.343 Y25.545 E0.00952
G1 X214.135 Y25.635 E0.00711
G1 X213.810 Y25.709 E0.01046
G1 X213.476 Y25.709 E0.01046
G1 X213.253 Y25.668 E0.00711
G1 X212.967 Y25.566 E0.00952
G1 X212.677 Y25.383 E0.01077
G1 X212.441 Y25.147 E0.01046
G1 X212.313 Y24.960 E0.00711
G1 X212.182 Y24.686 E0.00953
G1 X212.106 Y24.351 E0.01076
G1 X212.106 Y24.018 E0.01045
G1 X212.148 Y23.795 E0.00710
G1 X212.249 Y23.508 E0.00953
G1 X212.432 Y23.218 E0.01076
G1 X212.676 Y22.974 E0.01082
G1 X212.843 Y22.869 E0.00618
G1 X213.675 Y22.589 F10800.000
;TYPE:External perimeter
G1 F1200.000
G1 X213.227 Y22.545 E0.01414
G1 X212.932 Y22.454 E0.00965
G1 X212.656 Y22.318 E0.00965
G1 X212.302 Y22.046 E0.01400
G1 X212.098 Y21.810 E0.00978
G1 X211.877 Y21.422 E0.01400
G1 X211.779 Y21.126 E0.00978
G1 X211.726 Y20.678 E0.01413
G1 X211.776 Y20.245 E0.01368
G1 X211.877 Y19.935 E0.01023
G1 X212.098 Y19.546 E0.01402
G1 X212.300 Y19.313 E0.00965
G1 X212.536 Y19.116 E0.00965
G1 X212.928 Y18.903 E0.01400
G1 X213.226 Y18.812 E0.00977
G1 X213.656 Y18.767 E0.01355
G1 X213.977 Y18.798 E0.01009
G1 X214.275 Y18.876 E0.00966
G1 X214.663 Y19.066 E0.01355
G1 X214.919 Y19.261 E0.01009
G1 X215.131 Y19.485 E0.00967
G1 X215.369 Y19.868 E0.01413
G1 X215.506 Y20.282 E0.01368
G1 X215.547 Y20.605 E0.01022
G1 X215.514 Y21.037 E0.01357
G1 X215.427 Y21.347 E0.01009
G1 X215.297 Y21.626 E0.00967
G1 X215.029 Y21.989 E0.01413
G1 X214.695 Y22.269 E0.01368
G1 X214.413 Y22.424 E0.01009
G1 X214.122 Y22.527 E0.00967
G1 X213.735 Y22.581 E0.01225
G1 X213.478 Y22.937 F10800.000
G1 X213.732 Y23.024
G1 F1200.000
G1 X214.027 Y23.083 E0.00943
G1 X214.358 Y23.266 E0.01185
G1 X214.545 Y23.454 E0.00832
G1 X214.670 Y23.650 E0.00731
G1 X214.735 Y23.799 E0.00507
G1 X214.792 Y24.048 E0.00802
G1 X214.792 Y24.308 E0.00814
G1 X214.741 Y24.535 E0.00730
G1 X214.682 Y24.686 E0.00508
G1 X214.545 Y24.902 E0.00802
G1 X214.362 Y25.086 E0.00814
G1 X214.165 Y25.211 E0.00730
G1 X214.017 Y25.275 E0.00508
G1 X213.767 Y25.332 E0.00803
G1 X213.511 Y25.332 E0.00803
G1 X213.352 Y25.302 E0.00508
G1 X213.133 Y25.224 E0.00730
G1 X212.913 Y25.086 E0.00814
G1 X212.732 Y24.905 E0.00803
G1 X212.641 Y24.772 E0.00508
G1 X212.541 Y24.561 E0.00730
G1 X212.483 Y24.308 E0.00814
G1 X212.483 Y24.052 E0.00802
G1 X212.513 Y23.893 E0.00507
G1 X212.591 Y23.674 E0.00731
G1 X212.729 Y23.454 E0.00814
G1 X212.913 Y23.270 E0.00815
G1 X213.133 Y23.132 E0.00816
G1 X213.375 Y23.047 E0.00803
G1 X213.672 Y23.023 E0.00936
G1 X213.901 Y22.775 F10800.000
;WIPE_START
G1 F8640.000
G1 X214.027 Y23.083 E-0.09496
G1 X214.358 Y23.266 E-0.09973
G1 X214.545 Y23.454 E-0.07005
G1 X214.670 Y23.650 E-0.06150
G1 X214.735 Y23.799 E-0.04269
G1 X214.792 Y24.048 E-0.06754
G1 X214.792 Y24.308 E-0.06847
G1 X214.741 Y24.535 E-0.06147
G1 X214.682 Y24.686 E-0.04272
G1 X214.545 Y24.902 E-0.06754
G1 X214.362 Y25.086 E-0.06847
G1 X214.165 Y25.211 E-0.06143
G1 X214.017 Y25.275 E-0.04275
G1 X213.767 Y25.332 E-0.06755
G1 X213.511 Y25.332 E-0.06755
G1 X213.352 Y25.302 E-0.04276
G1 X213.133 Y25.224 E-0.06142
G1 X212.968 Y25.121 E-0.05140
;WIPE_END
G1 E-0.06000 F2400.000
G1 Z0.600 F10800.000
G1 X213.715 Y27.985
G1 Z0.200
G1 E1.20000 F2400.000
;TYPE:Perimeter
G1 F1200.000
G1 X213.041 Y27.953 E0.02116
G1 X212.423 Y27.850 E0.01967
G1 X211.996 Y27.736 E0.01385
G1 X211.406 Y27.518 E0.01971
G1 X210.843 Y27.239 E0.01971
G1 X210.303 Y26.896 E0.02004
G1 X209.786 Y26.488 E0.02067
G1 X209.212 Y25.921 E0.02528
G1 X208.775 Y25.380 E0.02181
G1 X208.393 Y24.804 E0.02166
G1 X208.059 Y24.179 E0.02225
G1 X207.729 Y23.375 E0.02722
G1 X207.521 Y22.668 E0.02311
G1 X207.378 Y21.955 E0.02282
G1 X207.298 Y21.228 E0.02294
G1 X207.282 Y20.495 E0.02299
G1 X207.330 Y19.764 E0.02297
G1 X207.442 Y19.042 E0.02289
G1 X207.616 Y18.338 E0.02273
G1 X207.849 Y17.659 E0.02252
G1 X208.140 Y17.012 E0.02225
G1 X208.492 Y16.390 E0.02243
G1 X208.978 Y15.711 E0.02615
G1 X209.431 Y15.203 E0.02135
G1 X209.917 Y14.757 E0.02070
G1 X210.450 Y14.358 E0.02086
G1 X211.114 Y13.973 E0.02407
G1 X211.711 Y13.715 E0.02040
G1 X212.423 Y13.506 E0.02325
G1 X213.031 Y13.405 E0.01934
G1 X213.652 Y13.371 E0.01950
G1 X214.242 Y13.404 E0.01851
G1 X214.843 Y13.504 E0.01911
G1 X215.434 Y13.670 E0.01925
G1 X216.011 Y13.902 E0.01949
G1 X216.569 Y14.197 E0.01979
G1 X217.102 Y14.555 E0.02013
G1 X217.611 Y14.978 E0.02077
G1 X217.954 Y15.318 E0.01512
G1 X218.397 Y15.839 E0.02145
G1 X218.790 Y16.403 E0.02157
G1 X219.138 Y17.019 E0.02217
G1 X219.355 Y17.487 E0.01618
G1 X219.606 Y18.166 E0.02269
G1 X219.795 Y18.864 E0.02268
G1 X219.924 Y19.589 E0.02308
G1 X219.977 Y20.121 E0.01675
G1 X219.993 Y20.869 E0.02345
G1 X219.963 Y21.410 E0.01701
G1 X219.898 Y21.948 E0.01697
G1 X219.752 Y22.676 E0.02328
G1 X219.609 Y23.183 E0.01653
G1 X219.358 Y23.862 E0.02269
G1 X219.053 Y24.500 E0.02217
G1 X218.692 Y25.105 E0.02209
G1 X218.402 Y25.511 E0.01565
G1 X217.954 Y26.039 E0.02171
M73 P1 R14
G1 X217.441 Y26.533 E0.02234
G1 X217.269 Y26.362 E0.00760
G1 X216.841 Y26.082 E0.01605
G1 X216.446 Y25.946 E0.01307
G1 X215.932 Y25.886 E0.01625
G1 X215.438 Y25.934 E0.01555
G1 X214.970 Y26.096 E0.01553
G1 X214.667 Y26.268 E0.01093
G1 X214.295 Y26.578 E0.01519
G1 X213.985 Y26.986 E0.01604
G1 X213.836 Y27.312 E0.01125
G1 X213.745 Y27.635 E0.01052
G1 X213.721 Y27.926 E0.00914
G1 X214.097 Y28.346 F10800.000
G1 F1200.000
G1 X214.103 Y28.364 E0.00060
G1 X213.485 Y28.362 E0.01939
G1 X212.997 Y28.328 E0.01531
G1 X212.343 Y28.219 E0.02080
G1 X211.881 Y28.096 E0.01498
G1 X211.256 Y27.865 E0.02090
G1 X210.658 Y27.568 E0.02096
G1 X210.085 Y27.204 E0.02127
G1 X209.539 Y26.774 E0.02180
G1 X209.158 Y26.414 E0.01644
G1 X208.928 Y26.169 E0.01053
G1 X208.470 Y25.604 E0.02280
G1 X208.069 Y24.998 E0.02278
G1 X207.719 Y24.343 E0.02328
G1 X207.496 Y23.831 E0.01752
G1 X207.371 Y23.494 E0.01126
G1 X207.155 Y22.759 E0.02403
G1 X207.005 Y22.013 E0.02386
G1 X206.921 Y21.252 E0.02398
G1 X206.905 Y20.486 E0.02403
G1 X206.955 Y19.722 E0.02401
G1 X207.072 Y18.968 E0.02393
G1 X207.254 Y18.232 E0.02378
G1 X207.498 Y17.520 E0.02358
G1 X207.803 Y16.842 E0.02333
G1 X208.170 Y16.192 E0.02339
G1 X208.362 Y15.904 E0.01086
G1 X208.686 Y15.472 E0.01692
G1 X209.162 Y14.938 E0.02243
G1 X209.676 Y14.466 E0.02188
G1 X210.235 Y14.047 E0.02192
G1 X210.506 Y13.875 E0.01005
G1 X210.948 Y13.634 E0.01580
G1 X211.576 Y13.363 E0.02143
G1 X211.869 Y13.263 E0.00971
G1 X212.343 Y13.137 E0.01538
G1 X212.990 Y13.029 E0.02056
G1 X213.653 Y12.994 E0.02081
G1 X214.283 Y13.029 E0.01980
G1 X214.925 Y13.136 E0.02040
G1 X215.556 Y13.313 E0.02053
G1 X216.170 Y13.559 E0.02075
G1 X216.763 Y13.873 E0.02103
G1 X217.328 Y14.253 E0.02135
G1 X217.865 Y14.699 E0.02189
G1 X218.231 Y15.061 E0.01614
G1 X218.696 Y15.609 E0.02253
G1 X219.110 Y16.202 E0.02269
G1 X219.474 Y16.847 E0.02320
G1 X219.704 Y17.342 E0.01713
G1 X219.966 Y18.051 E0.02370
G1 X220.164 Y18.782 E0.02374
G1 X220.298 Y19.538 E0.02406
G1 X220.353 Y20.098 E0.01766
G1 X220.370 Y20.875 E0.02436
G1 X220.339 Y21.443 E0.01785
G1 X220.271 Y22.007 E0.01781
G1 X220.119 Y22.764 E0.02420
G1 X219.968 Y23.300 E0.01745
G1 X219.705 Y24.008 E0.02369
G1 X219.386 Y24.678 E0.02326
G1 X219.008 Y25.311 E0.02313
G1 X218.700 Y25.743 E0.01663
G1 X218.231 Y26.295 E0.02271
G1 X217.851 Y26.671 E0.01675
G1 X217.402 Y27.075 E0.01896
G1 X217.347 Y26.972 E0.00365
G1 X217.030 Y26.657 E0.01403
G1 X216.673 Y26.423 E0.01337
G1 X216.362 Y26.316 E0.01033
G1 X215.928 Y26.265 E0.01371
G1 X215.519 Y26.305 E0.01288
G1 X215.126 Y26.441 E0.01304
G1 X214.882 Y26.579 E0.00879
G1 X214.569 Y26.840 E0.01279
G1 X214.311 Y27.180 E0.01339
G1 X214.191 Y27.442 E0.00902
G1 X214.118 Y27.703 E0.00849
G1 X214.088 Y28.052 E0.01098
G1 X214.095 Y28.286 E0.00734
G1 X214.602 Y28.678 F10800.000
G1 F1200.000
G1 X214.685 Y28.762 E0.00370
G1 X214.420 Y28.742 E0.00834
G1 X213.471 Y28.739 E0.02975
G1 X212.953 Y28.703 E0.01626
G1 X212.263 Y28.588 E0.02193
G1 X211.767 Y28.456 E0.01610
G1 X211.107 Y28.212 E0.02209
G1 X210.472 Y27.897 E0.02221
G1 X209.867 Y27.512 E0.02249
G1 X209.293 Y27.059 E0.02293
G1 X208.890 Y26.680 E0.01733
G1 X208.643 Y26.417 E0.01133
G1 X208.166 Y25.827 E0.02380
G1 X207.745 Y25.191 E0.02390
G1 X207.379 Y24.508 E0.02431
G1 X207.146 Y23.972 E0.01833
G1 X207.013 Y23.613 E0.01199
M73 Q2 S15
G1 X206.788 Y22.849 E0.02496
G1 X206.632 Y22.070 E0.02491
G1 X206.545 Y21.277 E0.02502
G1 X206.527 Y20.478 E0.02506
G1 X206.580 Y19.681 E0.02505
G1 X206.702 Y18.894 E0.02497
G1 X206.892 Y18.125 E0.02484
G1 X207.147 Y17.381 E0.02465
M73 P2 R14
G1 X207.467 Y16.671 E0.02441
G1 X207.849 Y15.995 E0.02435
G1 X208.053 Y15.686 E0.01163
G1 X208.394 Y15.233 E0.01777
G1 X208.893 Y14.673 E0.02351
G1 X209.435 Y14.176 E0.02306
G1 X210.021 Y13.737 E0.02297
G1 X210.314 Y13.551 E0.01089
G1 X210.783 Y13.295 E0.01673
G1 X211.440 Y13.011 E0.02245
G1 X211.760 Y12.902 E0.01059
G1 X212.263 Y12.768 E0.01635
G1 X212.949 Y12.654 E0.02179
G1 X213.653 Y12.616 E0.02211
G1 X214.325 Y12.654 E0.02110
G1 X215.007 Y12.767 E0.02168
G1 X215.677 Y12.955 E0.02182
G1 X216.329 Y13.216 E0.02202
G1 X216.957 Y13.549 E0.02227
G1 X217.554 Y13.950 E0.02257
G1 X218.119 Y14.419 E0.02301
G1 X218.508 Y14.805 E0.01717
G1 X218.995 Y15.378 E0.02360
G1 X219.429 Y16.001 E0.02382
G1 X219.810 Y16.674 E0.02423
G1 X220.052 Y17.197 E0.01807
G1 X220.325 Y17.936 E0.02470
G1 X220.532 Y18.700 E0.02479
G1 X220.672 Y19.486 E0.02505
G1 X220.730 Y20.075 E0.01857
G1 X220.748 Y20.881 E0.02527
G1 X220.715 Y21.476 E0.01869
G1 X220.643 Y22.067 E0.01866
G1 X220.486 Y22.853 E0.02512
G1 X220.326 Y23.417 E0.01838
G1 X220.053 Y24.155 E0.02469
G1 X219.719 Y24.856 E0.02434
G1 X219.324 Y25.518 E0.02416
G1 X218.997 Y25.975 E0.01762
G1 X218.508 Y26.551 E0.02371
G1 X218.110 Y26.945 E0.01754
G1 X217.518 Y27.478 E0.02499
G1 X217.246 Y27.755 E0.01215
G1 X217.232 Y27.562 E0.00606
G1 X217.041 Y27.199 E0.01287
G1 X216.792 Y26.951 E0.01102
G1 X216.506 Y26.765 E0.01069
G1 X216.278 Y26.686 E0.00758
G1 X215.924 Y26.645 E0.01117
G1 X215.600 Y26.676 E0.01021
G1 X215.282 Y26.786 E0.01054
G1 X215.098 Y26.891 E0.00666
G1 X214.843 Y27.103 E0.01038
G1 X214.636 Y27.375 E0.01074
G1 X214.546 Y27.572 E0.00678
G1 X214.491 Y27.770 E0.00645
G1 X214.466 Y28.062 E0.00919
G1 X214.472 Y28.280 E0.00684
G1 X214.584 Y28.621 E0.01124
