; generated by PrusaSlicer 2.3.1+win64 on 2022-11-06 at 20:36:18 UTC

; 

; external perimeters extrusion width = 0.45mm
; perimeters extrusion width = 0.45mm
; infill extrusion width = 0.45mm
; solid infill extrusion width = 0.45mm
; top infill extrusion width = 0.40mm
; first layer extrusion width = 0.42mm

M73 P0 R5
M73 Q0 S5
M201 X1000 Y1000 Z200 E5000 ; sets maximum accelerations, mm/sec^2
M203 X200 Y200 Z12 E120 ; sets maximum feedrates, mm/sec
M204 P1250 R1250 T1250 ; sets acceleration (P, T) and retract acceleration (R), mm/sec^2
M205 X8.00 Y8.00 Z0.40 E4.50 ; sets the jerk limits, mm/sec
M205 S0 T0 ; sets the minimum extruding and travel feed rate, mm/sec
M107
;TYPE:Custom
M862.3 P "MK3S" ; printer model check
M862.1 P0.4 ; nozzle diameter check
M115 U3.9.3 ; tell printer latest fw version
G90 ; use absolute coordinates
M83 ; extruder relative mode
M104 S205 ; set extruder temp
M140 S67 ; set bed temp
M190 S67 ; wait for bed temp
M109 S205 ; wait for extruder temp
G28 W ; home all without mesh bed level
G80 ; mesh bed leveling
G1 Y-3.0 F1000.0 ; go outside print area
G92 E0.0
G1 X60.0 E9.0 F1000.0 ; intro line
M73 P1 R5
M73 Q1 S5
G1 X100.0 E12.5 F1000.0 ; intro line
G92 E0.0
M221 S95

; Don't change E values below. Excessive value can damage the printer.
M907 E430 ; set extruder motor current
G21 ; set units to millimeters
G90 ; use absolute coordinates
M83 ; use relative distances for extrusion
M900 K0.05 ; Filament gcode LA 1.5
M900 K30 ; Filament gcode LA 1.0
;LAYER_CHANGE
;Z:0.2
;HEIGHT:0.2
;BEFORE_LAYER_CHANGE
G92 E0.0
;0.2


M73 P2 R5
M73 Q2 S5
G1 E-1.20000 F2400.000
G1 Z0.400 F10800.000
;AFTER_LAYER_CHANGE
;0.2
; printing object bobbin1.stl id:0 copy 0
G1 X210.632 Y24.045
G1 Z0.200
G1 E1.20000 F2400.000
M204 S1000
;TYPE:Perimeter
;WIDTH:0.42
G1 F1200.000
G1 X210.473 Y23.923 E0.00627
G1 X210.120 Y23.517 E0.01686
G1 X209.788 Y22.933 E0.02108
G1 X209.620 Y22.422 E0.01686
G1 X209.537 Y21.730 E0.02186
G1 X209.616 Y21.053 E0.02137
G1 X209.786 Y20.526 E0.01735
G1 X210.120 Y19.938 E0.02120
G1 X210.456 Y19.553 E0.01602
G1 X210.848 Y19.225 E0.01602
G1 X211.439 Y18.905 E0.02108
G1 X211.951 Y18.747 E0.01680
G1 X212.602 Y18.680 E0.02052
G1 X213.126 Y18.730 E0.01651
G1 X213.622 Y18.861 E0.01608
G1 X214.210 Y19.148 E0.02052
G1 X214.629 Y19.467 E0.01651
G1 X214.982 Y19.842 E0.01614
G1 X215.350 Y20.434 E0.02186
G1 X215.565 Y21.080 E0.02137
G1 X215.634 Y21.627 E0.01729
G1 X215.584 Y22.284 E0.02064
G1 X215.442 Y22.791 E0.01651
G1 X215.224 Y23.257 E0.01614
G1 X214.810 Y23.818 E0.02186
G1 X214.543 Y24.042 E0.01091
G1 X214.623 Y24.168 E0.00468
G1 X214.765 Y24.495 E0.01116
G1 X214.873 Y24.971 E0.01531
G1 X214.873 Y25.482 E0.01602
G1 X214.776 Y25.917 E0.01398
G1 X214.646 Y26.248 E0.01116
G1 X214.386 Y26.662 E0.01532
G1 X214.024 Y27.023 E0.01602
G1 X213.648 Y27.263 E0.01398
G1 X213.322 Y27.405 E0.01116
G1 X212.845 Y27.513 E0.01532
G1 X212.356 Y27.513 E0.01532
G1 X212.006 Y27.448 E0.01117
G1 X211.587 Y27.298 E0.01397
G1 X211.154 Y27.026 E0.01602
G1 X210.808 Y26.681 E0.01532
G1 X210.607 Y26.387 E0.01116
G1 X210.416 Y25.984 E0.01398
G1 X210.302 Y25.486 E0.01602
G1 X210.302 Y24.997 E0.01531
G1 X210.367 Y24.648 E0.01116
G1 X210.517 Y24.227 E0.01399
G1 X210.600 Y24.096 E0.00487
G1 X211.086 Y24.031 F10800.000
G1 F1200.000
G1 X211.149 Y23.967 E0.00282
G1 X210.733 Y23.647 E0.01646
G1 X210.430 Y23.298 E0.01450
G1 X210.134 Y22.779 E0.01872
G1 X209.990 Y22.340 E0.01450
G1 X209.917 Y21.729 E0.01928
G1 X209.986 Y21.133 E0.01880
G1 X210.133 Y20.679 E0.01498
G1 X210.430 Y20.157 E0.01881
G1 X210.720 Y19.823 E0.01390
G1 X211.060 Y19.539 E0.01390
G1 X211.585 Y19.254 E0.01872
M73 Q3 S5
G1 X212.026 Y19.119 E0.01446
G1 X212.603 Y19.059 E0.01820
G1 X213.060 Y19.102 E0.01437
G1 X213.490 Y19.216 E0.01394
G1 X214.011 Y19.471 E0.01820
G1 X214.376 Y19.748 E0.01437
G1 X214.682 Y20.073 E0.01398
G1 X215.007 Y20.595 E0.01928
G1 X215.196 Y21.164 E0.01880
G1 X215.255 Y21.637 E0.01493
G1 X215.211 Y22.218 E0.01829
G1 X215.087 Y22.660 E0.01437
M73 P3 R5
G1 X214.898 Y23.064 E0.01398
G1 X214.533 Y23.558 E0.01928
G1 X214.028 Y23.969 E0.02041
G1 X214.088 Y24.029 E0.00265
G1 X214.289 Y24.345 E0.01176
G1 X214.405 Y24.613 E0.00913
G1 X214.496 Y25.013 E0.01288
G1 X214.496 Y25.440 E0.01339
G1 X214.415 Y25.806 E0.01176
G1 X214.308 Y26.077 E0.00913
G1 X214.089 Y26.425 E0.01289
G1 X213.787 Y26.727 E0.01339
G1 X213.471 Y26.929 E0.01175
G1 X213.203 Y27.045 E0.00914
G1 X212.803 Y27.136 E0.01289
G1 X212.392 Y27.136 E0.01289
G1 X212.105 Y27.082 E0.00914
G1 X211.752 Y26.957 E0.01175
G1 X211.390 Y26.729 E0.01339
G1 X211.100 Y26.439 E0.01289
G1 X210.935 Y26.198 E0.00913
G1 X210.774 Y25.860 E0.01175
G1 X210.679 Y25.443 E0.01339
G1 X210.679 Y25.032 E0.01288
G1 X210.733 Y24.746 E0.00913
G1 X210.858 Y24.393 E0.01176
G1 X211.054 Y24.082 E0.01151
G1 X211.844 Y23.886 F10800.000
G1 F1200.000
G1 X211.743 Y23.855 E0.00330
G1 X211.406 Y23.690 E0.01177
G1 X210.993 Y23.371 E0.01636
G1 X210.739 Y23.079 E0.01214
G1 X210.481 Y22.625 E0.01636
G1 X210.360 Y22.258 E0.01214
G1 X210.296 Y21.728 E0.01671
G1 X210.356 Y21.214 E0.01624
G1 X210.480 Y20.831 E0.01260
G1 X210.739 Y20.376 E0.01642
G1 X210.985 Y20.093 E0.01177
G1 X211.273 Y19.852 E0.01177
G1 X211.732 Y19.603 E0.01636
G1 X212.101 Y19.490 E0.01212
G1 X212.605 Y19.438 E0.01587
G1 X212.993 Y19.475 E0.01223
G1 X213.357 Y19.571 E0.01180
G1 X213.812 Y19.793 E0.01587
G1 X214.123 Y20.029 E0.01223
G1 X214.381 Y20.304 E0.01183
G1 X214.663 Y20.756 E0.01671
G1 X214.826 Y21.248 E0.01624
G1 X214.876 Y21.646 E0.01258
G1 X214.837 Y22.152 E0.01593
G1 X214.732 Y22.528 E0.01223
G1 X214.573 Y22.870 E0.01183
G1 X214.256 Y23.298 E0.01671
G1 X213.859 Y23.631 E0.01624
G1 X213.518 Y23.820 E0.01223
G1 X213.318 Y23.890 E0.00665
G1 X213.537 Y24.011 E0.00787
G1 X213.792 Y24.266 E0.01129
G1 X213.955 Y24.523 E0.00954
G1 X214.045 Y24.731 E0.00710
G1 X214.119 Y25.056 E0.01045
G1 X214.119 Y25.399 E0.01076
G1 X214.053 Y25.696 E0.00953
G1 X213.970 Y25.906 E0.00710
G1 X213.792 Y26.189 E0.01046
G1 X213.550 Y26.431 E0.01077
G1 X213.293 Y26.595 E0.00952
G1 X213.085 Y26.685 E0.00711
G1 X212.760 Y26.759 E0.01046
G1 X212.427 Y26.759 E0.01046
G1 X212.204 Y26.717 E0.00711
G1 X211.918 Y26.615 E0.00952
G1 X211.627 Y26.433 E0.01077
G1 X211.391 Y26.197 E0.01046
G1 X211.263 Y26.010 E0.00711
G1 X211.133 Y25.735 E0.00953
G1 X211.056 Y25.401 E0.01076
G1 X211.056 Y25.067 E0.01045
G1 X211.098 Y24.845 E0.00710
G1 X211.200 Y24.558 E0.00953
G1 X211.382 Y24.267 E0.01076
G1 X211.626 Y24.023 E0.01082
G1 X211.793 Y23.918 E0.00618
G1 X212.626 Y23.639 F10800.000
;TYPE:External perimeter
G1 F1200.000
G1 X212.177 Y23.594 E0.01414
G1 X211.883 Y23.504 E0.00965
G1 X211.607 Y23.368 E0.00965
G1 X211.253 Y23.095 E0.01400
G1 X211.048 Y22.860 E0.00978
G1 X210.827 Y22.472 E0.01400
G1 X210.730 Y22.175 E0.00978
G1 X210.676 Y21.728 E0.01413
G1 X210.727 Y21.295 E0.01368
G1 X210.827 Y20.984 E0.01023
G1 X211.048 Y20.595 E0.01402
G1 X211.250 Y20.363 E0.00965
G1 X211.486 Y20.166 E0.00965
G1 X211.879 Y19.953 E0.01400
G1 X212.177 Y19.861 E0.00977
G1 X212.607 Y19.817 E0.01355
G1 X212.927 Y19.847 E0.01009
G1 X213.225 Y19.926 E0.00966
G1 X213.613 Y20.116 E0.01355
G1 X213.870 Y20.311 E0.01009
G1 X214.081 Y20.535 E0.00967
G1 X214.319 Y20.918 E0.01413
G1 X214.457 Y21.332 E0.01368
G1 X214.497 Y21.655 E0.01022
G1 X214.464 Y22.086 E0.01357
G1 X214.378 Y22.396 E0.01009
G1 X214.247 Y22.676 E0.00967
G1 X213.979 Y23.038 E0.01413
G1 X213.645 Y23.319 E0.01368
G1 X213.363 Y23.474 E0.01009
G1 X213.072 Y23.576 E0.00967
G1 X212.685 Y23.631 E0.01225
G1 X212.428 Y23.987 F10800.000
G1 X212.683 Y24.073
G1 F1200.000
G1 X212.977 Y24.133 E0.00943
G1 X213.308 Y24.316 E0.01185
G1 X213.496 Y24.503 E0.00832
G1 X213.621 Y24.700 E0.00731
G1 X213.685 Y24.848 E0.00507
G1 X213.742 Y25.098 E0.00802
G1 X213.742 Y25.357 E0.00814
G1 X213.691 Y25.585 E0.00730
G1 X213.632 Y25.735 E0.00508
G1 X213.496 Y25.952 E0.00802
G1 X213.312 Y26.136 E0.00814
G1 X213.116 Y26.260 E0.00730
G1 X212.967 Y26.325 E0.00508
G1 X212.718 Y26.382 E0.00803
G1 X212.462 Y26.382 E0.00803
G1 X212.302 Y26.352 E0.00508
G1 X212.083 Y26.274 E0.00730
G1 X211.863 Y26.136 E0.00814
G1 X211.682 Y25.955 E0.00803
G1 X211.591 Y25.821 E0.00508
G1 X211.491 Y25.611 E0.00730
G1 X211.433 Y25.358 E0.00814
G1 X211.433 Y25.102 E0.00802
G1 X211.463 Y24.943 E0.00507
G1 X211.541 Y24.724 E0.00731
G1 X211.679 Y24.504 E0.00814
G1 X211.863 Y24.320 E0.00815
G1 X212.083 Y24.181 E0.00816
G1 X212.325 Y24.097 E0.00803
G1 X212.623 Y24.073 E0.00936
G1 X212.852 Y23.824 F10800.000
;WIPE_START
G1 F8640.000
G1 X212.977 Y24.133 E-0.09496
M73 Q4 S5
G1 X213.308 Y24.316 E-0.09973
G1 X213.496 Y24.503 E-0.07005
G1 X213.621 Y24.700 E-0.06150
G1 X213.685 Y24.848 E-0.04269
G1 X213.742 Y25.098 E-0.06754
G1 X213.742 Y25.357 E-0.06847
G1 X213.691 Y25.585 E-0.06147
G1 X213.632 Y25.735 E-0.04272
G1 X213.496 Y25.952 E-0.06754
G1 X213.312 Y26.136 E-0.06847
G1 X213.116 Y26.260 E-0.06143
G1 X212.967 Y26.325 E-0.04275
G1 X212.718 Y26.382 E-0.06755
G1 X212.462 Y26.382 E-0.06755
G1 X212.302 Y26.352 E-0.04276
G1 X212.083 Y26.274 E-0.06142
G1 X211.918 Y26.170 E-0.05140
;WIPE_END
G1 E-0.06000 F2400.000
G1 Z0.600 F10800.000
G1 X212.666 Y29.035
G1 Z0.200
M73 P4 R5
G1 E1.20000 F2400.000
;TYPE:Perimeter
G1 F1200.000
G1 X211.992 Y29.003 E0.02116
G1 X211.373 Y28.900 E0.01967
G1 X210.946 Y28.786 E0.01385
G1 X210.356 Y28.568 E0.01971
G1 X209.793 Y28.288 E0.01971
G1 X209.254 Y27.946 E0.02004
G1 X208.736 Y27.538 E0.02067
G1 X208.163 Y26.971 E0.02528
G1 X207.725 Y26.430 E0.02181
G1 X207.344 Y25.854 E0.02166
G1 X207.009 Y25.228 E0.02225
G1 X206.680 Y24.425 E0.02722
G1 X206.471 Y23.718 E0.02311
G1 X206.328 Y23.004 E0.02282
G1 X206.248 Y22.277 E0.02294
G1 X206.232 Y21.544 E0.02299
G1 X206.280 Y20.813 E0.02297
G1 X206.392 Y20.092 E0.02289
G1 X206.566 Y19.388 E0.02273
G1 X206.800 Y18.709 E0.02252
G1 X207.090 Y18.062 E0.02225
G1 X207.442 Y17.439 E0.02243
G1 X207.928 Y16.761 E0.02615
G1 X208.381 Y16.253 E0.02135
G1 X208.867 Y15.806 E0.02070
G1 X209.400 Y15.408 E0.02086
G1 X210.064 Y15.023 E0.02407
G1 X210.662 Y14.764 E0.02040
G1 X211.373 Y14.556 E0.02325
G1 X211.981 Y14.454 E0.01934
G1 X212.603 Y14.421 E0.01950
G1 X213.192 Y14.454 E0.01851
G1 X213.793 Y14.554 E0.01911
G1 X214.385 Y14.720 E0.01925
G1 X214.962 Y14.951 E0.01949
G1 X215.519 Y15.247 E0.01979
G1 X216.052 Y15.605 E0.02013
G1 X216.562 Y16.028 E0.02077
G1 X216.904 Y16.367 E0.01512
G1 X217.347 Y16.889 E0.02145
G1 X217.741 Y17.453 E0.02157
G1 X218.089 Y18.069 E0.02217
G1 X218.305 Y18.537 E0.01618
G1 X218.556 Y19.216 E0.02269
G1 X218.746 Y19.914 E0.02268
G1 X218.874 Y20.639 E0.02308
G1 X218.927 Y21.171 E0.01675
G1 X218.943 Y21.918 E0.02345
G1 X218.914 Y22.460 E0.01701
G1 X218.848 Y22.997 E0.01697
G1 X218.702 Y23.725 E0.02328
G1 X218.559 Y24.233 E0.01653
G1 X218.308 Y24.911 E0.02269
G1 X218.004 Y25.549 E0.02217
G1 X217.643 Y26.155 E0.02209
G1 X217.353 Y26.561 E0.01565
G1 X216.904 Y27.088 E0.02171
G1 X216.391 Y27.583 E0.02234
G1 X216.219 Y27.412 E0.00760
G1 X215.791 Y27.132 E0.01605
G1 X215.397 Y26.996 E0.01307
G1 X214.882 Y26.936 E0.01625
G1 X214.388 Y26.983 E0.01555
G1 X213.920 Y27.146 E0.01553
G1 X213.617 Y27.318 E0.01093
G1 X213.245 Y27.628 E0.01519
G1 X212.935 Y28.035 E0.01604
G1 X212.786 Y28.362 E0.01125
G1 X212.696 Y28.685 E0.01052
G1 X212.671 Y28.975 E0.00914
G1 X213.047 Y29.395 F10800.000
G1 F1200.000
G1 X213.053 Y29.414 E0.00060
G1 X212.435 Y29.411 E0.01939
G1 X211.948 Y29.378 E0.01531
G1 X211.293 Y29.269 E0.02080
G1 X210.832 Y29.146 E0.01498
G1 X210.207 Y28.915 E0.02090
G1 X209.608 Y28.617 E0.02096
G1 X209.035 Y28.254 E0.02127
G1 X208.489 Y27.823 E0.02180
G1 X208.108 Y27.464 E0.01644
G1 X207.878 Y27.219 E0.01053
G1 X207.421 Y26.653 E0.02280
G1 X207.020 Y26.047 E0.02278
M73 Q5 S5
G1 X206.669 Y25.393 E0.02328
G1 X206.446 Y24.880 E0.01752
G1 X206.322 Y24.544 E0.01126
G1 X206.105 Y23.809 E0.02403
G1 X205.955 Y23.062 E0.02386
G1 X205.872 Y22.302 E0.02398
G1 X205.855 Y21.536 E0.02403
G1 X205.905 Y20.772 E0.02401
G1 X206.022 Y20.018 E0.02393
M73 P5 R5
G1 X206.204 Y19.281 E0.02378
G1 X206.449 Y18.570 E0.02358
G1 X206.754 Y17.892 E0.02333
G1 X207.121 Y17.242 E0.02339
G1 X207.312 Y16.953 E0.01086
G1 X207.636 Y16.522 E0.01692
G1 X208.112 Y15.988 E0.02243
G1 X208.626 Y15.516 E0.02188
G1 X209.186 Y15.097 E0.02192
G1 X209.456 Y14.925 E0.01005
G1 X209.899 Y14.683 E0.01580
G1 X210.526 Y14.412 E0.02143
G1 X210.819 Y14.313 E0.00971
G1 X211.293 Y14.187 E0.01538
G1 X211.940 Y14.079 E0.02056
G1 X212.603 Y14.044 E0.02081
G1 X213.234 Y14.079 E0.01980
G1 X213.875 Y14.185 E0.02040
G1 X214.506 Y14.362 E0.02053
G1 X215.120 Y14.609 E0.02075
G1 X215.713 Y14.923 E0.02103
G1 X216.278 Y15.302 E0.02135
G1 X216.815 Y15.748 E0.02189
G1 X217.181 Y16.111 E0.01614
G1 X217.646 Y16.658 E0.02253
G1 X218.060 Y17.252 E0.02269
G1 X218.424 Y17.896 E0.02320
G1 X218.654 Y18.392 E0.01713
G1 X218.916 Y19.101 E0.02370
G1 X219.114 Y19.832 E0.02374
G1 X219.248 Y20.587 E0.02406
G1 X219.304 Y21.148 E0.01766
G1 X219.321 Y21.925 E0.02436
G1 X219.289 Y22.493 E0.01785
G1 X219.221 Y23.057 E0.01781
G1 X219.069 Y23.814 E0.02420
G1 X218.918 Y24.349 E0.01745
G1 X218.656 Y25.058 E0.02369
G1 X218.336 Y25.728 E0.02326
G1 X217.959 Y26.361 E0.02313
G1 X217.650 Y26.793 E0.01663
G1 X217.181 Y27.345 E0.02271
G1 X216.802 Y27.721 E0.01675
G1 X216.352 Y28.125 E0.01896
G1 X216.298 Y28.022 E0.00365
G1 X215.981 Y27.706 E0.01403
G1 X215.624 Y27.473 E0.01337
G1 X215.312 Y27.366 E0.01033
G1 X214.878 Y27.315 E0.01371
G1 X214.469 Y27.354 E0.01288
G1 X214.077 Y27.491 E0.01304
G1 X213.833 Y27.629 E0.00879
G1 X213.519 Y27.890 E0.01279
G1 X213.261 Y28.230 E0.01339
G1 X213.141 Y28.492 E0.00902
G1 X213.068 Y28.752 E0.00849
G1 X213.039 Y29.101 E0.01098
G1 X213.046 Y29.335 E0.00734
G1 X213.553 Y29.727 F10800.000
G1 F1200.000
G1 X213.635 Y29.812 E0.00370
G1 X213.370 Y29.792 E0.00834
G1 X212.421 Y29.788 E0.02975
G1 X211.904 Y29.752 E0.01626
G1 X211.214 Y29.638 E0.02193
G1 X210.718 Y29.506 E0.01610
G1 X210.057 Y29.261 E0.02209
G1 X209.423 Y28.946 E0.02221
G1 X208.817 Y28.562 E0.02249
G1 X208.243 Y28.109 E0.02293
G1 X207.841 Y27.730 E0.01733
G1 X207.594 Y27.466 E0.01133
G1 X207.116 Y26.876 E0.02380
G1 X206.695 Y26.241 E0.02390
G1 X206.330 Y25.557 E0.02431
G1 X206.096 Y25.021 E0.01833
G1 X205.964 Y24.663 E0.01199
G1 X205.738 Y23.899 E0.02496
G1 X205.582 Y23.120 E0.02491
G1 X205.495 Y22.327 E0.02502
G1 X205.477 Y21.528 E0.02506
G1 X205.530 Y20.731 E0.02505
G1 X205.652 Y19.943 E0.02497
G1 X205.842 Y19.174 E0.02484
G1 X206.098 Y18.431 E0.02465
G1 X206.417 Y17.721 E0.02441
G1 X206.799 Y17.045 E0.02435
G1 X207.004 Y16.736 E0.01163
G1 X207.344 Y16.283 E0.01777
G1 X207.843 Y15.723 E0.02351
G1 X208.385 Y15.225 E0.02306
G1 X208.971 Y14.786 E0.02297
M73 Q6 S5
G1 X209.265 Y14.600 E0.01089
G1 X209.733 Y14.344 E0.01673
G1 X210.390 Y14.060 E0.02245
G1 X210.710 Y13.952 E0.01059
G1 X211.214 Y13.817 E0.01635
G1 X211.899 Y13.704 E0.02179
G1 X212.604 Y13.666 E0.02211
G1 X213.275 Y13.703 E0.02110
G1 X213.958 Y13.817 E0.02168
G1 X214.627 Y14.005 E0.02182
M73 P6 R5
G1 X215.279 Y14.266 E0.02202
G1 X215.907 Y14.599 E0.02227
G1 X216.505 Y15.000 E0.02257
G1 X217.069 Y15.469 E0.02301
G1 X217.458 Y15.854 E0.01717
G1 X217.946 Y16.428 E0.02360
G1 X218.380 Y17.051 E0.02382
G1 X218.760 Y17.724 E0.02423
G1 X219.002 Y18.247 E0.01807
G1 X219.276 Y18.986 E0.02470
G1 X219.482 Y19.749 E0.02479
G1 X219.622 Y20.536 E0.02505
G1 X219.680 Y21.125 E0.01857
G1 X219.698 Y21.931 E0.02527
G1 X219.665 Y22.526 E0.01869
G1 X219.594 Y23.117 E0.01866
G1 X219.436 Y23.902 E0.02512
G1 X219.277 Y24.466 E0.01838
G1 X219.004 Y25.205 E0.02469
G1 X218.669 Y25.906 E0.02434
G1 X218.274 Y26.568 E0.02416
G1 X217.948 Y27.025 E0.01762
G1 X217.458 Y27.601 E0.02371
G1 X217.061 Y27.995 E0.01754
G1 X216.468 Y28.528 E0.02499
G1 X216.196 Y28.804 E0.01215
G1 X216.183 Y28.612 E0.00606
G1 X215.991 Y28.249 E0.01287
G1 X215.742 Y28.001 E0.01102
G1 X215.457 Y27.814 E0.01069
G1 X215.228 Y27.735 E0.00758
G1 X214.874 Y27.694 E0.01117
G1 X214.550 Y27.725 E0.01021
G1 X214.233 Y27.836 E0.01054
G1 X214.048 Y27.940 E0.00666
G1 X213.794 Y28.152 E0.01038
G1 X213.586 Y28.425 E0.01074
G1 X213.496 Y28.622 E0.00678
G1 X213.441 Y28.820 E0.00645
G1 X213.416 Y29.112 E0.00919
