; generated by PrusaSlicer 2.3.1+win64 on 2022-11-24 at 23:25:13 UTC

; 

; external perimeters extrusion width = 0.60mm
; perimeters extrusion width = 0.50mm
; infill extrusion width = 0.50mm
; solid infill extrusion width = 0.50mm
; top infill extrusion width = 0.45mm
; support material extrusion width = 0.38mm
; first layer extrusion width = 0.42mm

M73 P0 R36
M73 Q0 S36
M201 X1000 Y1000 Z200 E5000 ; sets maximum accelerations, mm/sec^2
M203 X200 Y200 Z12 E120 ; sets maximum feedrates, mm/sec
M204 P1250 R1250 T1250 ; sets acceleration (P, T) and retract acceleration (R), mm/sec^2
M205 X8.00 Y8.00 Z0.40 E4.50 ; sets the jerk limits, mm/sec
M205 S0 T0 ; sets the minimum extruding and travel feed rate, mm/sec
M107
;TYPE:Custom
M862.3 P "MK3S" ; printer model check
M862.1 P0.4 ; nozzle diameter check
M115 U3.9.3 ; tell printer latest fw version
G90 ; use absolute coordinates
M83 ; extruder relative mode
M104 S215 ; set extruder temp
M140 S67 ; set bed temp
M190 S67 ; wait for bed temp
M109 S215 ; wait for extruder temp
G28 W ; home all without mesh bed level
G80 ; mesh bed leveling
G1 Y-3.0 F1000.0 ; go outside print area
G92 E0.0
G1 X60.0 E9.0 F1000.0 ; intro line
G1 X100.0 E12.5 F1000.0 ; intro line
G92 E0.0
M221 S95

; Don't change E values below. Excessive value can damage the printer.

M907 E538 ; set extruder motor current
G21 ; set units to millimeters
G90 ; use absolute coordinates
M83 ; use relative distances for extrusion
M900 K0.05 ; Filament gcode LA 1.5
M900 K30 ; Filament gcode LA 1.0
;LAYER_CHANGE
;Z:0.2
;HEIGHT:0.2
;BEFORE_LAYER_CHANGE
G92 E0.0
;0.2


G1 E-1.20000 F2400.000
G1 Z0.400 F10800.000
;AFTER_LAYER_CHANGE
;0.2
; printing object mag_slider.stl id:1 copy 0
G1 X143.171 Y31.696
G1 Z0.200
G1 E1.20000 F2400.000
M204 S1000
;TYPE:Support material
;WIDTH:0.42
G1 F1200.000
G1 X143.171 Y11.694 E0.62714
G1 X143.925 Y11.694 E0.02365
G1 X143.925 Y31.526 E0.62182
G1 X144.679 Y31.526 E0.02365
G1 X144.679 Y11.694 E0.62182
G1 X145.433 Y11.694 E0.02365
G1 X145.433 Y31.526 E0.62182
G1 X146.187 Y31.526 E0.02365
G1 X146.187 Y11.694 E0.62182
G1 X146.941 Y11.694 E0.02365
G1 X146.941 Y31.696 E0.62714
;WIPE_START
G1 F8640.000
G1 X146.941 Y27.376 E-1.14000
;WIPE_END
G1 E-0.06000 F2400.000
G1 Z0.600 F10800.000
G1 X189.928 Y11.524
G1 Z0.200
G1 E1.20000 F2400.000
G1 F1200.000
G1 X189.928 Y17.047 E0.17315
G1 X189.174 Y17.047 E0.02365
G1 X189.174 Y11.694 E0.16782
G1 X188.420 Y11.694 E0.02365
G1 X188.420 Y17.047 E0.16782
G1 X187.666 Y17.047 E0.02365
G1 X187.666 Y11.694 E0.16782
G1 X186.912 Y11.694 E0.02365
G1 X186.912 Y17.047 E0.16782
G1 X186.158 Y17.047 E0.02365
G1 X186.158 Y11.694 E0.16782
G1 X185.404 Y11.694 E0.02365
G1 X185.404 Y17.047 E0.16782
G1 X184.649 Y17.047 E0.02365
G1 X184.649 Y11.694 E0.16782
G1 X183.895 Y11.694 E0.02365
G1 X183.895 Y17.047 E0.16782
G1 X183.141 Y17.047 E0.02365
G1 X183.141 Y11.694 E0.16782
G1 X182.387 Y11.694 E0.02365
G1 X182.387 Y17.047 E0.16782
G1 X181.633 Y17.047 E0.02365
G1 X181.633 Y11.694 E0.16782
G1 X180.879 Y11.694 E0.02365
G1 X180.879 Y17.047 E0.16782
G1 X180.124 Y17.047 E0.02365
G1 X180.124 Y11.694 E0.16782
G1 X179.370 Y11.694 E0.02365
G1 X179.370 Y17.047 E0.16782
G1 X178.616 Y17.047 E0.02365
G1 X178.616 Y11.694 E0.16782
G1 X177.862 Y11.694 E0.02365
G1 X177.862 Y17.047 E0.16782
G1 X177.108 Y17.047 E0.02365
G1 X177.108 Y11.694 E0.16782
G1 X176.354 Y11.694 E0.02365
G1 X176.354 Y17.047 E0.16782
G1 X175.599 Y17.047 E0.02365
G1 X175.599 Y11.694 E0.16782
G1 X174.845 Y11.694 E0.02365
G1 X174.845 Y17.047 E0.16782
G1 X174.091 Y17.047 E0.02365
G1 X174.091 Y11.694 E0.16782
G1 X173.337 Y11.694 E0.02365
G1 X173.337 Y17.047 E0.16782
G1 X172.583 Y17.047 E0.02365
G1 X172.583 Y11.694 E0.16782
M73 Q1 S36
G1 X171.829 Y11.694 E0.02365
G1 X171.829 Y17.047 E0.16782
M73 P1 R36
G1 X171.074 Y17.047 E0.02365
G1 X171.074 Y11.694 E0.16782
G1 X170.320 Y11.694 E0.02365
G1 X170.320 Y17.047 E0.16782
G1 X169.566 Y17.047 E0.02365
G1 X169.566 Y11.694 E0.16782
G1 X168.812 Y11.694 E0.02365
G1 X168.812 Y17.047 E0.16782
G1 X168.058 Y17.047 E0.02365
G1 X168.058 Y11.694 E0.16782
G1 X167.304 Y11.694 E0.02365
G1 X167.304 Y17.047 E0.16782
G1 X166.550 Y17.047 E0.02365
G1 X166.550 Y11.694 E0.16782
G1 X165.795 Y11.694 E0.02365
G1 X165.795 Y17.047 E0.16782
G1 X165.041 Y17.047 E0.02365
G1 X165.041 Y11.694 E0.16782
G1 X164.287 Y11.694 E0.02365
G1 X164.287 Y17.047 E0.16782
G1 X163.533 Y17.047 E0.02365
G1 X163.533 Y11.694 E0.16782
G1 X162.779 Y11.694 E0.02365
G1 X162.779 Y17.047 E0.16782
G1 X162.025 Y17.047 E0.02365
G1 X162.025 Y11.694 E0.16782
G1 X161.270 Y11.694 E0.02365
G1 X161.270 Y17.047 E0.16782
G1 X160.516 Y17.047 E0.02365
G1 X160.516 Y11.694 E0.16782
G1 X159.762 Y11.694 E0.02365
G1 X159.762 Y17.047 E0.16782
G1 X159.008 Y17.047 E0.02365
G1 X159.008 Y11.694 E0.16782
G1 X158.254 Y11.694 E0.02365
G1 X158.254 Y17.047 E0.16782
G1 X157.500 Y17.047 E0.02365
G1 X157.500 Y11.694 E0.16782
G1 X156.745 Y11.694 E0.02365
G1 X156.745 Y17.047 E0.16782
G1 X155.991 Y17.047 E0.02365
G1 X155.991 Y11.694 E0.16782
G1 X155.237 Y11.694 E0.02365
G1 X155.237 Y17.047 E0.16782
G1 X154.483 Y17.047 E0.02365
G1 X154.483 Y11.694 E0.16782
M73 P1 R35
G1 X153.729 Y11.694 E0.02365
G1 X153.729 Y17.047 E0.16782
G1 X152.975 Y17.047 E0.02365
G1 X152.975 Y11.694 E0.16782
G1 X152.221 Y11.694 E0.02365
G1 X152.221 Y17.047 E0.16782
G1 X151.466 Y17.047 E0.02365
G1 X151.466 Y11.694 E0.16782
G1 X150.712 Y11.694 E0.02365
G1 X150.712 Y17.047 E0.16782
G1 X149.958 Y17.047 E0.02365
G1 X149.958 Y11.694 E0.16782
G1 X149.204 Y11.694 E0.02365
G1 X149.204 Y17.047 E0.16782
G1 X148.450 Y17.047 E0.02365
G1 X148.450 Y11.694 E0.16782
G1 X147.696 Y11.694 E0.02365
G1 X147.696 Y17.047 E0.16782
G1 X147.610 Y17.047 E0.00269
G1 X147.323 Y17.333 E0.01269
G1 X147.323 Y25.888 E0.26823
G1 X147.610 Y26.174 E0.01269
G1 X147.696 Y26.174 E0.00269
G1 X147.696 Y31.526 E0.16782
G1 X148.450 Y31.526 E0.02365
G1 X148.450 Y26.174 E0.16782
G1 X149.204 Y26.174 E0.02365
G1 X149.204 Y31.526 E0.16782
G1 X149.958 Y31.526 E0.02365
G1 X149.958 Y26.174 E0.16782
G1 X150.712 Y26.174 E0.02365
G1 X150.712 Y31.526 E0.16782
G1 X151.466 Y31.526 E0.02365
G1 X151.466 Y26.174 E0.16782
G1 X152.221 Y26.174 E0.02365
G1 X152.221 Y31.526 E0.16782
G1 X152.975 Y31.526 E0.02365
G1 X152.975 Y26.174 E0.16782
G1 X153.729 Y26.174 E0.02365
G1 X153.729 Y31.526 E0.16782
G1 X154.483 Y31.526 E0.02365
G1 X154.483 Y26.174 E0.16782
G1 X155.237 Y26.174 E0.02365
G1 X155.237 Y31.526 E0.16782
G1 X155.991 Y31.526 E0.02365
G1 X155.991 Y26.174 E0.16782
G1 X156.745 Y26.174 E0.02365
G1 X156.745 Y31.526 E0.16782
G1 X157.500 Y31.526 E0.02365
G1 X157.500 Y26.174 E0.16782
G1 X158.254 Y26.174 E0.02365
G1 X158.254 Y31.526 E0.16782
G1 X159.008 Y31.526 E0.02365
G1 X159.008 Y26.174 E0.16782
G1 X159.762 Y26.174 E0.02365
M73 Q1 S35
G1 X159.762 Y31.526 E0.16782
G1 X160.516 Y31.526 E0.02365
G1 X160.516 Y26.174 E0.16782
G1 X161.270 Y26.174 E0.02365
G1 X161.270 Y31.526 E0.16782
G1 X162.025 Y31.526 E0.02365
G1 X162.025 Y26.174 E0.16782
G1 X162.779 Y26.174 E0.02365
G1 X162.779 Y31.526 E0.16782
G1 X163.533 Y31.526 E0.02365
G1 X163.533 Y26.174 E0.16782
G1 X164.287 Y26.174 E0.02365
G1 X164.287 Y31.526 E0.16782
G1 X165.041 Y31.526 E0.02365
G1 X165.041 Y26.174 E0.16782
G1 X165.795 Y26.174 E0.02365
G1 X165.795 Y31.526 E0.16782
G1 X166.550 Y31.526 E0.02365
G1 X166.550 Y26.174 E0.16782
G1 X167.304 Y26.174 E0.02365
G1 X167.304 Y31.526 E0.16782
G1 X168.058 Y31.526 E0.02365
G1 X168.058 Y26.174 E0.16782
G1 X168.812 Y26.174 E0.02365
G1 X168.812 Y31.526 E0.16782
G1 X169.566 Y31.526 E0.02365
G1 X169.566 Y26.174 E0.16782
G1 X170.320 Y26.174 E0.02365
G1 X170.320 Y31.526 E0.16782
G1 X171.074 Y31.526 E0.02365
G1 X171.074 Y26.174 E0.16782
G1 X171.829 Y26.174 E0.02365
G1 X171.829 Y31.526 E0.16782
G1 X172.583 Y31.526 E0.02365
M73 Q2 S35
G1 X172.583 Y26.174 E0.16782
M73 P2 R35
G1 X173.337 Y26.174 E0.02365
G1 X173.337 Y31.526 E0.16782
G1 X174.091 Y31.526 E0.02365
G1 X174.091 Y26.174 E0.16782
G1 X174.845 Y26.174 E0.02365
G1 X174.845 Y31.526 E0.16782
G1 X175.599 Y31.526 E0.02365
G1 X175.599 Y26.174 E0.16782
G1 X176.354 Y26.174 E0.02365
G1 X176.354 Y31.526 E0.16782
G1 X177.108 Y31.526 E0.02365
G1 X177.108 Y26.174 E0.16782
G1 X177.862 Y26.174 E0.02365
G1 X177.862 Y31.526 E0.16782
G1 X178.616 Y31.526 E0.02365
G1 X178.616 Y26.174 E0.16782
G1 X179.370 Y26.174 E0.02365
G1 X179.370 Y31.526 E0.16782
G1 X180.124 Y31.526 E0.02365
G1 X180.124 Y26.174 E0.16782
G1 X180.879 Y26.174 E0.02365
G1 X180.879 Y31.526 E0.16782
G1 X181.633 Y31.526 E0.02365
G1 X181.633 Y26.174 E0.16782
G1 X182.387 Y26.174 E0.02365
G1 X182.387 Y31.526 E0.16782
G1 X183.141 Y31.526 E0.02365
G1 X183.141 Y26.174 E0.16782
G1 X183.895 Y26.174 E0.02365
G1 X183.895 Y31.526 E0.16782
G1 X184.649 Y31.526 E0.02365
G1 X184.649 Y26.174 E0.16782
G1 X185.404 Y26.174 E0.02365
G1 X185.404 Y31.526 E0.16782
G1 X186.158 Y31.526 E0.02365
G1 X186.158 Y26.174 E0.16782
G1 X186.912 Y26.174 E0.02365
G1 X186.912 Y31.526 E0.16782
G1 X187.666 Y31.526 E0.02365
G1 X187.666 Y26.174 E0.16782
G1 X188.420 Y26.174 E0.02365
G1 X188.420 Y31.526 E0.16782
G1 X189.174 Y31.526 E0.02365
G1 X189.174 Y26.174 E0.16782
G1 X189.928 Y26.174 E0.02365
G1 X189.928 Y31.526 E0.16782
G1 X190.683 Y31.526 E0.02365
G1 X190.683 Y11.694 E0.62182
G1 X191.437 Y11.694 E0.02365
G1 X191.437 Y31.526 E0.62182
G1 X192.191 Y31.526 E0.02365
G1 X192.191 Y11.694 E0.62182
G1 X192.945 Y11.694 E0.02365
G1 X192.945 Y31.526 E0.62182
G1 X193.699 Y31.526 E0.02365
G1 X193.699 Y11.694 E0.62182
G1 X194.453 Y11.694 E0.02365
G1 X194.453 Y31.696 E0.62714
;WIPE_START
G1 F8640.000
G1 X194.453 Y27.376 E-1.14000
;WIPE_END
G1 E-0.06000 F2400.000
G1 Z0.600 F10800.000
G1 X179.341 Y23.114
G1 Z0.200
G1 E1.20000 F2400.000
;TYPE:Perimeter
G1 F1200.000
G1 X178.977 Y23.406 E0.01465
G1 X178.736 Y23.540 E0.00862
G1 X178.296 Y23.695 E0.01464
G1 X177.854 Y23.747 E0.01396
G1 X165.818 Y23.797 E0.37738
G1 X150.629 Y23.788 E0.47626
G1 X150.151 Y23.678 E0.01538
G1 X149.708 Y23.466 E0.01538
G1 X149.338 Y23.170 E0.01486
G1 X149.163 Y22.975 E0.00821
G1 X149.012 Y22.761 E0.00821
G1 X148.806 Y22.334 E0.01486
G1 X148.701 Y21.872 E0.01486
G1 X148.685 Y21.594 E0.00873
G1 X148.738 Y21.123 E0.01486
G1 X148.895 Y20.675 E0.01486
G1 X149.029 Y20.432 E0.00873
G1 X149.314 Y20.074 E0.01434
G1 X149.522 Y19.888 E0.00873
G1 X149.923 Y19.636 E0.01486
G1 X150.386 Y19.474 E0.01538
G1 X150.835 Y19.423 E0.01417
G1 X178.056 Y19.433 E0.85348
G1 X178.512 Y19.539 E0.01468
G1 X178.766 Y19.645 E0.00862
G1 X179.161 Y19.895 E0.01465
G1 X179.502 Y20.238 E0.01517
G1 X179.759 Y20.648 E0.01517
G1 X179.913 Y21.089 E0.01465
G1 X179.959 Y21.360 E0.00862
G1 X179.959 Y21.811 E0.01413
G1 X179.913 Y22.082 E0.00862
G1 X179.764 Y22.507 E0.01413
G1 X179.632 Y22.748 E0.00862
G1 X179.378 Y23.067 E0.01277
G1 X179.083 Y22.832 F10800.000
;TYPE:External perimeter
G1 F1200.000
G1 X178.766 Y23.092 E0.01286
G1 X178.581 Y23.195 E0.00663
G1 X178.210 Y23.326 E0.01232
G1 X177.831 Y23.370 E0.01196
G1 X165.818 Y23.420 E0.37668
G1 X150.671 Y23.410 E0.47490
G1 X150.276 Y23.320 E0.01272
G1 X149.910 Y23.144 E0.01272
G1 X149.598 Y22.895 E0.01253
G1 X149.459 Y22.739 E0.00655
G1 X149.338 Y22.569 E0.00655
G1 X149.164 Y22.209 E0.01253
G1 X149.075 Y21.819 E0.01253
G1 X149.063 Y21.604 E0.00674
G1 X149.108 Y21.207 E0.01253
G1 X149.240 Y20.830 E0.01253
G1 X149.344 Y20.642 E0.00674
G1 X149.589 Y20.334 E0.01235
G1 X149.750 Y20.191 E0.00674
G1 X150.088 Y19.978 E0.01253
G1 X150.471 Y19.844 E0.01272
G1 X150.857 Y19.800 E0.01217
G1 X178.013 Y19.811 E0.85146
G1 X178.396 Y19.899 E0.01234
G1 X178.591 Y19.981 E0.00663
G1 X178.924 Y20.191 E0.01233
G1 X179.205 Y20.474 E0.01251
G1 X179.417 Y20.812 E0.01251
G1 X179.546 Y21.183 E0.01233
G1 X179.582 Y21.392 E0.00663
G1 X179.582 Y21.779 E0.01214
G1 X179.546 Y21.987 E0.00663
G1 X179.419 Y22.353 E0.01214
G1 X179.317 Y22.538 E0.00663
G1 X179.121 Y22.785 E0.00989
G1 X179.183 Y23.219 F10800.000
;WIPE_START
G1 F8640.000
G1 X178.766 Y23.092 E-0.12379
G1 X178.581 Y23.195 E-0.05582
G1 X178.210 Y23.326 E-0.10371
G1 X177.831 Y23.370 E-0.10070
G1 X174.966 Y23.382 E-0.75599
;WIPE_END
G1 E-0.06000 F2400.000
G1 Z0.600 F10800.000
G1 X188.648 Y24.521
G1 Z0.200
M73 Q3 S35
G1 E1.20000 F2400.000
;TYPE:Perimeter
M73 P3 R35
G1 F1200.000
G1 X148.976 Y24.521 E1.24388
G1 X148.976 Y23.331 E0.03731
G1 X149.078 Y23.445 E0.00478
G1 X149.507 Y23.787 E0.01719
G1 X150.025 Y24.037 E0.01805
G1 X150.586 Y24.165 E0.01804
G1 X165.819 Y24.174 E0.47761
G1 X177.877 Y24.124 E0.37808
G1 X178.382 Y24.065 E0.01595
G1 X178.892 Y23.884 E0.01696
G1 X179.188 Y23.720 E0.01061
G1 X179.610 Y23.381 E0.01697
G1 X179.947 Y22.958 E0.01697
G1 X180.110 Y22.661 E0.01061
G1 X180.279 Y22.176 E0.01612
G1 X180.336 Y21.842 E0.01061
G1 X180.336 Y21.328 E0.01612
G1 X180.279 Y20.995 E0.01061
G1 X180.101 Y20.484 E0.01697
G1 X179.799 Y20.002 E0.01783
G1 X179.398 Y19.599 E0.01782
G1 X178.941 Y19.310 E0.01697
G1 X178.628 Y19.179 E0.01061
G1 X178.099 Y19.056 E0.01703
G1 X150.814 Y19.046 E0.85551
G1 X150.302 Y19.104 E0.01617
G1 X149.759 Y19.294 E0.01803
G1 X149.295 Y19.586 E0.01719
G1 X149.039 Y19.814 E0.01073
G1 X148.976 Y19.893 E0.00318
G1 X148.976 Y18.699 E0.03743
G1 X188.648 Y18.699 E1.24388
G1 X188.648 Y24.461 E0.18065
G1 X189.025 Y24.898 F10800.000
G1 F1200.000
G1 X148.599 Y24.898 E1.26752
G1 X148.599 Y18.322 E0.20618
G1 X189.025 Y18.322 E1.26752
G1 X189.025 Y24.838 E0.20430
G1 X189.402 Y25.275 F10800.000
;TYPE:External perimeter
G1 F1200.000
G1 X148.222 Y25.275 E1.29117
G1 X148.222 Y17.945 E0.22983
G1 X189.402 Y17.945 E1.29117
G1 X189.402 Y25.215 E0.22795
G1 X189.003 Y25.252 F10800.000
;WIPE_START
G1 F8640.000
G1 X185.082 Y25.222 E-1.14000
;WIPE_END
G1 E-0.06000 F2400.000
G1 Z0.600 F10800.000
G1 X188.535 Y19.580
G1 Z0.200
G1 E1.20000 F2400.000
;TYPE:Solid infill
;WIDTH:0.422543
G1 F1200.000
G1 X187.937 Y18.982 E0.02669
G1 X187.400 Y18.982 E0.01695
G1 X188.365 Y19.947 E0.04309
G1 X188.365 Y20.484 E0.01695
G1 X186.863 Y18.982 E0.06705
G1 X186.326 Y18.982 E0.01695
G1 X188.365 Y21.021 E0.09102
G1 X188.365 Y21.558 E0.01695
G1 X185.789 Y18.982 E0.11498
G1 X185.252 Y18.982 E0.01695
G1 X188.365 Y22.095 E0.13895
G1 X188.365 Y22.632 E0.01695
G1 X184.716 Y18.982 E0.16292
G1 X184.179 Y18.982 E0.01695
G1 X188.365 Y23.169 E0.18688
G1 X188.365 Y23.705 E0.01695
G1 X183.642 Y18.982 E0.21085
G1 X183.105 Y18.982 E0.01695
G1 X188.361 Y24.238 E0.23464
G1 X187.824 Y24.238 E0.01695
G1 X182.568 Y18.982 E0.23464
G1 X182.031 Y18.982 E0.01695
G1 X187.287 Y24.238 E0.23464
G1 X186.750 Y24.238 E0.01695
G1 X181.494 Y18.982 E0.23464
G1 X180.957 Y18.982 E0.01695
G1 X186.214 Y24.238 E0.23464
M73 P4 R35
M73 Q4 S35
G1 X185.677 Y24.238 E0.01695
G1 X180.421 Y18.982 E0.23464
G1 X179.884 Y18.982 E0.01695
G1 X185.140 Y24.238 E0.23464
G1 X184.603 Y24.238 E0.01695
G1 X179.384 Y19.019 E0.23299
G1 X179.377 Y19.054 E0.00112
G1 X179.476 Y19.285 E0.00794
G1 X179.449 Y19.297 E0.00092
G1 X179.576 Y19.377 E0.00473
G1 X180.022 Y19.825 E0.01995
G1 X180.358 Y20.360 E0.01995
G1 X180.448 Y20.621 E0.00870
G1 X184.066 Y24.238 E0.16150
G1 X183.529 Y24.238 E0.01695
G1 X180.619 Y21.328 E0.12993
G1 X180.619 Y21.865 E0.01695
G1 X182.992 Y24.238 E0.10596
G1 X182.456 Y24.238 E0.01695
G1 X180.531 Y22.314 E0.08592
G1 X180.392 Y22.712 E0.01331
G1 X181.919 Y24.238 E0.06815
M73 P4 R34
G1 X181.382 Y24.238 E0.01695
G1 X180.210 Y23.066 E0.05232
G1 X179.979 Y23.372 E0.01210
G1 X180.845 Y24.238 E0.03867
G1 X180.308 Y24.238 E0.01695
G1 X179.723 Y23.653 E0.02612
G1 X179.425 Y23.892 E0.01206
G1 X179.941 Y24.408 E0.02303
G1 X179.018 Y24.190 F10800.000
;TYPE:Gap fill
;WIDTH:0.285844
G1 F1200.000
G1 X178.874 Y24.215 E0.00297
;WIDTH:0.246468
G1 X178.729 Y24.240 E0.00249
;WIDTH:0.207091
G1 X178.584 Y24.265 E0.00201
;WIDTH:0.167715
G1 X178.439 Y24.290 E0.00152
;WIDTH:0.128336
G1 X178.124 Y24.309 E0.00224
;WIPE_START
G1 F8640.000
G1 X178.439 Y24.290 E-0.08330
;WIPE_END
G1 E-1.11670 F2400.000
G1 Z0.600 F10800.000
G1 X178.402 Y18.910
G1 Z0.200
G1 E1.20000 F2400.000
;WIDTH:0.124415
G1 F1200.000
G1 X178.551 Y18.927 E0.00101
;WIDTH:0.158522
G1 X179.101 Y19.008 E0.00535
G1 X179.058 Y19.157 F10800.000
;WIDTH:0.102179
G1 F1200.000
G1 X178.942 Y18.888 E0.00144
;WIPE_START
G1 F8640.000
G1 X179.058 Y19.157 E-0.07738
