; generated by PrusaSlicer 2.3.1+win64 on 2022-11-20 at 19:11:33 UTC

; 

; external perimeters extrusion width = 0.60mm
; perimeters extrusion width = 0.50mm
; infill extrusion width = 0.50mm
; solid infill extrusion width = 0.50mm
; top infill extrusion width = 0.45mm
; first layer extrusion width = 0.42mm

M73 P0 R9
M73 Q0 S10
M201 X1000 Y1000 Z200 E5000 ; sets maximum accelerations, mm/sec^2
M203 X200 Y200 Z12 E120 ; sets maximum feedrates, mm/sec
M204 P1250 R1250 T1250 ; sets acceleration (P, T) and retract acceleration (R), mm/sec^2
M205 X8.00 Y8.00 Z0.40 E4.50 ; sets the jerk limits, mm/sec
M205 S0 T0 ; sets the minimum extruding and travel feed rate, mm/sec
M107
;TYPE:Custom
M862.3 P "MK3S" ; printer model check
M862.1 P0.4 ; nozzle diameter check
M115 U3.9.3 ; tell printer latest fw version
G90 ; use absolute coordinates
M83 ; extruder relative mode
M104 S215 ; set extruder temp
M140 S67 ; set bed temp
M190 S67 ; wait for bed temp
M109 S215 ; wait for extruder temp
G28 W ; home all without mesh bed level
G80 ; mesh bed leveling
G1 Y-3.0 F1000.0 ; go outside print area
G92 E0.0
G1 X60.0 E9.0 F1000.0 ; intro line
G1 X100.0 E12.5 F1000.0 ; intro line
G92 E0.0
M221 S95

; Don't change E values below. Excessive value can damage the printer.

M907 E538 ; set extruder motor current
G21 ; set units to millimeters
G90 ; use absolute coordinates
M83 ; use relative distances for extrusion
M900 K0.05 ; Filament gcode LA 1.5
M900 K30 ; Filament gcode LA 1.0
;LAYER_CHANGE
;Z:0.2
;HEIGHT:0.2
;BEFORE_LAYER_CHANGE
G92 E0.0
;0.2


M73 P1 R9
M73 Q1 S10
G1 E-1.20000 F2400.000
G1 Z0.400 F10800.000
;AFTER_LAYER_CHANGE
;0.2
; printing object pcb_base.stl id:0 copy 0
G1 X125.494 Y70.594
G1 Z0.200
G1 E1.20000 F2400.000
M204 S1000
;TYPE:Perimeter
;WIDTH:0.42
G1 F1200.000
G1 X125.629 Y70.538 E0.00458
G1 X126.025 Y70.294 E0.01456
G1 X126.396 Y69.967 E0.01552
G1 X126.738 Y69.527 E0.01748
G1 X126.695 Y69.842 E0.00996
G1 X224.754 Y69.842 E3.07457
M73 P2 R9
M73 Q2 S10
G1 X224.725 Y69.630 E0.00669
G1 X224.817 Y69.771 E0.00527
G1 X225.149 Y70.132 E0.01537
G1 X225.536 Y70.433 E0.01537
G1 X225.834 Y70.594 E0.01061
G1 X125.554 Y70.594 E3.14419
M73 P3 R9
M73 Q2 S9
G1 X125.036 Y70.376 F10800.000
G1 F1200.000
G1 X124.612 Y70.467 E0.01362
G1 X124.182 Y70.486 E0.01351
M73 Q3 S9
G1 X123.754 Y70.431 E0.01351
G1 X123.342 Y70.305 E0.01351
G1 X122.958 Y70.111 E0.01351
G1 X122.611 Y69.855 E0.01351
G1 X122.313 Y69.544 E0.01351
G1 X122.088 Y69.210 E0.01262
G1 X121.895 Y68.798 E0.01428
G1 X121.786 Y68.377 E0.01362
G1 X121.749 Y67.948 E0.01351
G1 X121.786 Y67.519 E0.01351
G1 X121.894 Y67.102 E0.01351
G1 X122.072 Y66.709 E0.01351
G1 X122.313 Y66.352 E0.01351
G1 X122.611 Y66.041 E0.01351
G1 X122.958 Y65.785 E0.01351
G1 X123.342 Y65.591 E0.01351
G1 X123.754 Y65.465 E0.01351
G1 X124.153 Y65.414 E0.01262
G1 X124.609 Y65.428 E0.01428
G1 X125.033 Y65.519 E0.01362
G1 X125.433 Y65.680 E0.01351
G1 X125.800 Y65.906 E0.01351
G1 X126.123 Y66.191 E0.01351
G1 X126.394 Y66.526 E0.01351
G1 X126.590 Y66.877 E0.01262
G1 X126.747 Y67.305 E0.01428
G1 X126.820 Y67.733 E0.01362
G1 X126.820 Y68.163 E0.01351
G1 X126.747 Y68.588 E0.01351
G1 X126.604 Y68.994 E0.01351
G1 X126.394 Y69.370 E0.01351
G1 X126.123 Y69.706 E0.01351
G1 X125.800 Y69.990 E0.01351
G1 X125.457 Y70.201 E0.01262
G1 X125.092 Y70.353 E0.01239
G1 X124.947 Y70.005 F10800.000
;TYPE:External perimeter
G1 F1200.000
G1 X124.564 Y70.092 E0.01233
G1 X124.198 Y70.108 E0.01149
G1 X123.834 Y70.061 E0.01149
G1 X123.483 Y69.954 E0.01149
G1 X123.156 Y69.789 E0.01149
G1 X122.861 Y69.571 E0.01149
G1 X122.608 Y69.306 E0.01149
G1 X122.417 Y69.024 E0.01068
G1 X122.252 Y68.669 E0.01226
G1 X122.159 Y68.313 E0.01153
G1 X122.128 Y67.948 E0.01149
G1 X122.159 Y67.583 E0.01149
G1 X122.251 Y67.228 E0.01149
G1 X122.402 Y66.894 E0.01150
G1 X122.608 Y66.590 E0.01149
G1 X122.861 Y66.325 E0.01149
G1 X123.156 Y66.107 E0.01149
G1 X123.483 Y65.942 E0.01150
G1 X123.834 Y65.835 E0.01149
G1 X124.172 Y65.792 E0.01068
G1 X124.563 Y65.804 E0.01226
G1 X124.922 Y65.881 E0.01153
G1 X125.262 Y66.018 E0.01150
G1 X125.575 Y66.210 E0.01149
G1 X125.850 Y66.452 E0.01149
G1 X126.080 Y66.738 E0.01149
G1 X126.246 Y67.035 E0.01068
G1 X126.381 Y67.402 E0.01226
G1 X126.443 Y67.765 E0.01153
G1 X126.443 Y68.131 E0.01149
G1 X126.381 Y68.493 E0.01150
G1 X126.259 Y68.838 E0.01149
G1 X126.080 Y69.158 E0.01149
G1 X125.850 Y69.444 E0.01150
G1 X125.575 Y69.686 E0.01149
G1 X125.285 Y69.864 E0.01068
G1 X125.003 Y69.982 E0.00958
G1 X124.862 Y70.389 F10800.000
;WIPE_START
G1 F8640.000
G1 X124.564 Y70.092 E-0.11938
G1 X124.198 Y70.108 E-0.09675
G1 X123.834 Y70.061 E-0.09675
G1 X123.483 Y69.954 E-0.09674
G1 X123.156 Y69.789 E-0.09675
G1 X122.861 Y69.571 E-0.09674
G1 X122.608 Y69.306 E-0.09675
G1 X122.417 Y69.024 E-0.08986
G1 X122.252 Y68.669 E-0.10321
G1 X122.159 Y68.313 E-0.09707
G1 X122.128 Y67.948 E-0.09675
G1 X122.145 Y67.747 E-0.05326
;WIPE_END
G1 E-0.06000 F2400.000
G1 Z0.600 F10800.000
G1 X124.182 Y34.926
G1 Z0.200
G1 E1.20000 F2400.000
;TYPE:Perimeter
G1 F1200.000
G1 X123.754 Y34.871 E0.01351
G1 X123.342 Y34.745 E0.01351
G1 X122.958 Y34.551 E0.01351
G1 X122.611 Y34.295 E0.01351
G1 X122.313 Y33.984 E0.01351
G1 X122.088 Y33.650 E0.01262
G1 X121.895 Y33.238 E0.01428
G1 X121.786 Y32.817 E0.01362
G1 X121.749 Y32.388 E0.01351
G1 X121.786 Y31.959 E0.01351
G1 X121.894 Y31.542 E0.01351
G1 X122.072 Y31.149 E0.01351
G1 X122.313 Y30.793 E0.01351
G1 X122.611 Y30.481 E0.01351
G1 X122.958 Y30.225 E0.01351
G1 X123.342 Y30.031 E0.01351
G1 X123.754 Y29.905 E0.01351
G1 X124.153 Y29.854 E0.01262
G1 X124.609 Y29.868 E0.01428
G1 X125.033 Y29.960 E0.01362
G1 X125.433 Y30.120 E0.01351
G1 X125.800 Y30.346 E0.01351
G1 X126.123 Y30.631 E0.01351
G1 X126.394 Y30.966 E0.01351
G1 X126.604 Y31.342 E0.01351
G1 X126.738 Y31.721 E0.01262
G1 X126.820 Y32.169 E0.01428
G1 X126.820 Y32.604 E0.01362
G1 X126.747 Y33.028 E0.01351
G1 X126.604 Y33.434 E0.01351
G1 X126.394 Y33.810 E0.01351
G1 X126.123 Y34.146 E0.01351
G1 X125.800 Y34.430 E0.01351
G1 X125.457 Y34.641 E0.01262
G1 X125.036 Y34.816 E0.01428
G1 X124.612 Y34.907 E0.01362
G1 X124.241 Y34.923 E0.01163
G1 X124.225 Y34.546 F10800.000
;TYPE:External perimeter
G1 F1200.000
G1 X123.834 Y34.501 E0.01236
G1 X123.483 Y34.394 E0.01149
G1 X123.156 Y34.229 E0.01150
G1 X122.861 Y34.011 E0.01149
G1 X122.608 Y33.746 E0.01149
G1 X122.417 Y33.464 E0.01068
G1 X122.252 Y33.109 E0.01226
G1 X122.159 Y32.753 E0.01153
G1 X122.128 Y32.388 E0.01149
G1 X122.159 Y32.023 E0.01149
G1 X122.251 Y31.668 E0.01149
G1 X122.402 Y31.334 E0.01149
G1 X122.608 Y31.030 E0.01149
G1 X122.861 Y30.766 E0.01149
G1 X123.156 Y30.548 E0.01149
G1 X123.483 Y30.383 E0.01149
G1 X123.834 Y30.275 E0.01149
G1 X124.172 Y30.232 E0.01068
G1 X124.563 Y30.244 E0.01226
G1 X124.922 Y30.321 E0.01153
G1 X125.262 Y30.458 E0.01150
G1 X125.575 Y30.650 E0.01149
G1 X125.850 Y30.893 E0.01149
G1 X126.080 Y31.178 E0.01149
G1 X126.259 Y31.498 E0.01150
G1 X126.372 Y31.819 E0.01068
G1 X126.443 Y32.204 E0.01226
G1 X126.443 Y32.571 E0.01153
G1 X126.381 Y32.933 E0.01149
G1 X126.259 Y33.278 E0.01149
G1 X126.080 Y33.599 E0.01150
G1 X125.850 Y33.884 E0.01149
G1 X125.575 Y34.126 E0.01149
G1 X125.285 Y34.305 E0.01068
G1 X124.923 Y34.455 E0.01226
G1 X124.564 Y34.532 E0.01153
G1 X124.285 Y34.544 E0.00874
G1 X124.017 Y34.881 F10800.000
;WIPE_START
G1 F8640.000
G1 X123.834 Y34.501 E-0.11967
G1 X123.483 Y34.394 E-0.09675
G1 X123.156 Y34.229 E-0.09675
G1 X122.861 Y34.011 E-0.09674
G1 X122.608 Y33.746 E-0.09674
G1 X122.417 Y33.464 E-0.08986
G1 X122.252 Y33.109 E-0.10321
G1 X122.159 Y32.753 E-0.09707
G1 X122.128 Y32.388 E-0.09674
G1 X122.159 Y32.023 E-0.09675
G1 X122.251 Y31.668 E-0.09674
G1 X122.334 Y31.485 E-0.05296
;WIPE_END
G1 E-0.06000 F2400.000
G1 Z0.600 F10800.000
G1 X121.897 Y30.136
G1 Z0.200
G1 E1.20000 F2400.000
;TYPE:Perimeter
G1 F1200.000
G1 X111.860 Y30.136 E0.31473
G1 X111.860 Y30.119 E0.00053
G1 X121.877 Y30.119 E0.31410
G1 X121.873 Y30.513 F10800.000
G1 F1200.000
G1 X112.184 Y30.513 E0.30380
M73 P4 R9
G1 X112.184 Y69.842 E1.23311
M73 Q4 S9
G1 X121.884 Y69.842 E0.30412
G1 X121.839 Y69.516 E0.01033
G1 X122.019 Y69.781 E0.01006
G1 X122.361 Y70.139 E0.01552
G1 X122.759 Y70.433 E0.01552
G1 X123.078 Y70.594 E0.01120
G1 X111.482 Y70.594 E0.36358
G1 X111.482 Y29.742 E1.28088
G1 X123.078 Y29.742 E0.36357
M73 P5 R9
G1 X122.759 Y29.903 E0.01120
G1 X122.361 Y30.197 E0.01552
G1 X122.019 Y30.555 E0.01552
M73 Q5 S9
G1 X121.832 Y30.832 E0.01048
G1 X121.866 Y30.573 E0.00818
G1 X121.443 Y30.891 F10800.000
G1 F1200.000
G1 X121.276 Y32.164 E0.04028
G1 X121.270 Y32.507 E0.01074
G1 X121.303 Y32.848 E0.01074
G1 X121.374 Y33.183 E0.01074
G1 X121.483 Y33.508 E0.01074
G1 X121.627 Y33.818 E0.01074
G1 X121.806 Y34.110 E0.01074
G1 X122.017 Y34.380 E0.01074
G1 X122.258 Y34.625 E0.01074
G1 X122.524 Y34.840 E0.01074
G1 X122.813 Y35.025 E0.01074
G1 X123.120 Y35.174 E0.01072
G1 X123.443 Y35.289 E0.01075
G1 X123.777 Y35.366 E0.01075
G1 X124.118 Y35.405 E0.01075
G1 X124.461 Y35.405 E0.01075
G1 X124.801 Y35.366 E0.01075
G1 X125.135 Y35.289 E0.01075
G1 X125.459 Y35.174 E0.01075
G1 X125.766 Y35.025 E0.01072
G1 X126.055 Y34.840 E0.01074
G1 X126.321 Y34.625 E0.01074
G1 X126.561 Y34.380 E0.01074
G1 X126.772 Y34.110 E0.01074
G1 X126.951 Y33.818 E0.01074
G1 X127.096 Y33.508 E0.01074
G1 X127.205 Y33.183 E0.01074
G1 X127.276 Y32.848 E0.01073
G1 X127.309 Y32.507 E0.01075
G1 X127.303 Y32.164 E0.01073
G1 X127.135 Y30.891 E0.04029
G1 X224.314 Y30.891 E3.04696
M73 P6 R9
G1 X224.146 Y32.162 E0.04022
G1 X224.140 Y32.504 E0.01070
G1 X224.172 Y32.843 E0.01068
G1 X224.242 Y33.176 E0.01069
G1 X224.349 Y33.500 E0.01069
G1 X224.493 Y33.809 E0.01069
G1 X224.670 Y34.101 E0.01070
G1 X224.878 Y34.370 E0.01068
G1 X225.116 Y34.614 E0.01069
G1 X225.380 Y34.830 E0.01069
G1 X225.666 Y35.015 E0.01067
G1 X225.972 Y35.167 E0.01070
M73 Q6 S9
G1 X226.292 Y35.283 E0.01070
G1 X226.624 Y35.362 E0.01070
G1 X226.963 Y35.403 E0.01070
G1 X227.303 Y35.406 E0.01067
G1 X227.642 Y35.371 E0.01068
G1 X227.975 Y35.298 E0.01070
G1 X228.298 Y35.187 E0.01069
G1 X228.606 Y35.041 E0.01068
G1 X229.326 Y34.594 E0.02660
G1 X230.135 Y35.044 E0.02902
G1 X230.135 Y65.292 E0.94842
G1 X229.327 Y65.742 E0.02902
G1 X228.605 Y65.294 E0.02662
G1 X228.297 Y65.148 E0.01070
G1 X227.973 Y65.038 E0.01071
G1 X227.639 Y64.965 E0.01072
G1 X227.300 Y64.929 E0.01070
G1 X226.959 Y64.933 E0.01069
G1 X226.619 Y64.975 E0.01072
G1 X226.287 Y65.055 E0.01072
G1 X225.966 Y65.172 E0.01072
G1 X225.660 Y65.325 E0.01072
G1 X225.373 Y65.511 E0.01070
G1 X225.110 Y65.728 E0.01071
G1 X224.872 Y65.973 E0.01071
G1 X224.664 Y66.244 E0.01070
G1 X224.487 Y66.537 E0.01072
G1 X224.345 Y66.847 E0.01071
G1 X224.239 Y67.172 E0.01071
G1 X224.170 Y67.507 E0.01071
G1 X224.139 Y67.846 E0.01070
G1 X224.147 Y68.188 E0.01072
G1 X224.322 Y69.465 E0.04039
G1 X127.127 Y69.465 E3.04747
M73 P7 R9
M73 Q7 S9
G1 X127.302 Y68.186 E0.04045
G1 X127.309 Y67.843 E0.01077
G1 X127.278 Y67.501 E0.01077
G1 X127.208 Y67.164 E0.01077
G1 X127.100 Y66.838 E0.01077
G1 X126.956 Y66.526 E0.01077
G1 X126.777 Y66.233 E0.01077
G1 X126.566 Y65.961 E0.01077
G1 X126.326 Y65.716 E0.01077
G1 X126.059 Y65.499 E0.01077
G1 X125.770 Y65.314 E0.01077
G1 X125.462 Y65.163 E0.01075
G1 X125.138 Y65.048 E0.01078
G1 X124.803 Y64.970 E0.01078
G1 X124.461 Y64.931 E0.01078
G1 X124.117 Y64.931 E0.01078
G1 X123.776 Y64.970 E0.01078
G1 X123.441 Y65.048 E0.01078
G1 X123.117 Y65.163 E0.01078
G1 X122.809 Y65.314 E0.01075
G1 X122.519 Y65.499 E0.01077
G1 X122.253 Y65.716 E0.01077
G1 X122.012 Y65.961 E0.01077
G1 X121.802 Y66.233 E0.01077
G1 X121.623 Y66.526 E0.01077
G1 X121.479 Y66.838 E0.01077
G1 X121.371 Y67.164 E0.01077
G1 X121.301 Y67.500 E0.01077
G1 X121.269 Y67.843 E0.01078
G1 X121.277 Y68.186 E0.01077
G1 X121.452 Y69.465 E0.04046
G1 X112.561 Y69.465 E0.27875
G1 X112.561 Y30.891 E1.20947
G1 X121.383 Y30.891 E0.27661
G1 X121.013 Y31.268 F10800.000
;TYPE:External perimeter
G1 F1200.000
G1 X120.899 Y32.136 E0.02747
G1 X120.892 Y32.522 E0.01209
G1 X120.929 Y32.905 E0.01209
G1 X121.010 Y33.282 E0.01209
G1 X121.132 Y33.648 E0.01209
G1 X121.295 Y33.997 E0.01209
G1 X121.496 Y34.326 E0.01209
G1 X121.733 Y34.629 E0.01208
G1 X122.004 Y34.904 E0.01209
G1 X122.303 Y35.147 E0.01208
G1 X122.628 Y35.354 E0.01209
G1 X122.974 Y35.523 E0.01206
G1 X123.337 Y35.652 E0.01209
G1 X123.713 Y35.738 E0.01209
G1 X124.096 Y35.782 E0.01209
G1 X124.482 Y35.782 E0.01209
G1 X124.865 Y35.738 E0.01209
M73 P8 R9
G1 X125.241 Y35.652 E0.01209
G1 X125.605 Y35.523 E0.01209
G1 X125.950 Y35.354 E0.01206
G1 X126.276 Y35.147 E0.01208
G1 X126.575 Y34.904 E0.01208
G1 X126.845 Y34.629 E0.01209
G1 X127.082 Y34.326 E0.01208
G1 X127.284 Y33.997 E0.01209
G1 X127.447 Y33.648 E0.01209
G1 X127.569 Y33.282 E0.01209
G1 X127.649 Y32.906 E0.01208
G1 X127.686 Y32.522 E0.01210
G1 X127.679 Y32.137 E0.01208
G1 X127.565 Y31.268 E0.02748
G1 X223.884 Y31.268 E3.02000
M73 Q8 S9
G1 X223.769 Y32.134 E0.02741
G1 X223.762 Y32.518 E0.01204
G1 X223.799 Y32.900 E0.01201
G1 X223.878 Y33.275 E0.01202
G1 X223.998 Y33.639 E0.01202
G1 X224.159 Y33.987 E0.01202
G1 X224.359 Y34.315 E0.01204
G1 X224.593 Y34.618 E0.01201
G1 X224.861 Y34.893 E0.01202
G1 X225.158 Y35.136 E0.01202
G1 X225.479 Y35.343 E0.01201
G1 X225.823 Y35.514 E0.01204
G1 X226.184 Y35.645 E0.01203
G1 X226.557 Y35.734 E0.01203
G1 X226.938 Y35.780 E0.01204
G1 X227.321 Y35.784 E0.01201
G1 X227.703 Y35.744 E0.01201
G1 X228.077 Y35.661 E0.01204
G1 X228.440 Y35.537 E0.01202
G1 X228.786 Y35.373 E0.01201
G1 X229.337 Y35.031 E0.02031
G1 X229.758 Y35.266 E0.01512
G1 X229.758 Y65.070 E0.93451
M73 P9 R9
M73 Q9 S9
G1 X229.337 Y65.305 E0.01512
G1 X228.786 Y64.963 E0.02034
G1 X228.439 Y64.798 E0.01204
G1 X228.075 Y64.674 E0.01205
G1 X227.699 Y64.592 E0.01206
G1 X227.317 Y64.552 E0.01204
G1 X226.934 Y64.556 E0.01203
G1 X226.552 Y64.603 E0.01206
G1 X226.178 Y64.693 E0.01206
G1 X225.816 Y64.825 E0.01206
G1 X225.472 Y64.997 E0.01206
G1 X225.150 Y65.206 E0.01204
G1 X224.853 Y65.450 E0.01205
G1 X224.586 Y65.726 E0.01205
G1 X224.352 Y66.031 E0.01204
G1 X224.153 Y66.360 E0.01206
G1 X223.993 Y66.710 E0.01205
G1 X223.874 Y67.075 E0.01205
G1 X223.796 Y67.451 E0.01205
G1 X223.762 Y67.834 E0.01204
G1 X223.771 Y68.218 E0.01206
G1 X223.890 Y69.088 E0.02751
G1 X127.559 Y69.088 E3.02037
M73 P10 R9
M73 Q10 S9
G1 X127.678 Y68.216 E0.02758
G1 X127.687 Y67.830 E0.01212
G1 X127.651 Y67.445 E0.01212
G1 X127.573 Y67.066 E0.01212
G1 X127.451 Y66.699 E0.01212
G1 X127.289 Y66.348 E0.01212
G1 X127.088 Y66.018 E0.01212
G1 X126.851 Y65.713 E0.01212
G1 X126.580 Y65.437 E0.01212
G1 X126.281 Y65.193 E0.01212
G1 X125.955 Y64.985 E0.01212
G1 X125.608 Y64.815 E0.01210
G1 X125.244 Y64.685 E0.01213
G1 X124.867 Y64.598 E0.01213
G1 X124.483 Y64.554 E0.01213
G1 X124.096 Y64.554 E0.01213
G1 X123.712 Y64.598 E0.01213
G1 X123.335 Y64.685 E0.01213
G1 X122.970 Y64.815 E0.01213
G1 X122.624 Y64.985 E0.01210
G1 X122.298 Y65.193 E0.01212
G1 X121.998 Y65.437 E0.01212
G1 X121.728 Y65.713 E0.01212
G1 X121.491 Y66.018 E0.01212
G1 X121.290 Y66.348 E0.01212
G1 X121.127 Y66.699 E0.01212
G1 X121.006 Y67.066 E0.01212
G1 X120.927 Y67.444 E0.01211
G1 X120.892 Y67.830 E0.01213
G1 X120.900 Y68.216 E0.01211
G1 X121.019 Y69.088 E0.02759
G1 X112.938 Y69.088 E0.25338
G1 X112.938 Y31.268 E1.18582
M73 P10 R8
G1 X120.953 Y31.268 E0.25131
G1 X121.387 Y31.124 F10800.000
;WIPE_START
G1 F8640.000
G1 X120.899 Y32.136 E-0.22965
G1 X120.892 Y32.522 E-0.10172
G1 X120.929 Y32.905 E-0.10172
G1 X121.010 Y33.282 E-0.10171
G1 X121.132 Y33.648 E-0.10172
G1 X121.295 Y33.997 E-0.10171
G1 X121.496 Y34.326 E-0.10171
G1 X121.733 Y34.629 E-0.10171
G1 X122.004 Y34.904 E-0.10172
G1 X122.288 Y35.135 E-0.09664
;WIPE_END
G1 E-0.06000 F2400.000
G1 Z0.600 F10800.000
G1 X126.680 Y30.119
G1 Z0.200
G1 E1.20000 F2400.000
;TYPE:Perimeter
G1 F1200.000
G1 X224.784 Y30.119 E3.07599
M73 P11 R8
M73 Q11 S9
G1 X224.767 Y30.136 E0.00074
G1 X126.731 Y30.136 E3.07385
M73 P12 R8
M73 Q12 S9
G1 X126.731 Y30.513 F10800.000
G1 F1200.000
G1 X126.705 Y30.513 E0.00082
G1 X126.746 Y30.823 E0.00980
G1 X126.396 Y30.369 E0.01798
G1 X126.025 Y30.042 E0.01552
G1 X125.603 Y29.782 E0.01552
G1 X125.504 Y29.742 E0.00336
G1 X225.948 Y29.742 E3.14936
M73 P13 R8
