; generated by PrusaSlicer 2.3.1+win64 on 2022-11-06 at 20:13:48 UTC

; 

; external perimeters extrusion width = 0.45mm
; perimeters extrusion width = 0.45mm
; infill extrusion width = 0.45mm
; solid infill extrusion width = 0.45mm
; top infill extrusion width = 0.40mm
; first layer extrusion width = 0.42mm

M73 P0 R20
M73 Q0 S20
M201 X1000 Y1000 Z200 E5000 ; sets maximum accelerations, mm/sec^2
M203 X200 Y200 Z12 E120 ; sets maximum feedrates, mm/sec
M204 P1250 R1250 T1250 ; sets acceleration (P, T) and retract acceleration (R), mm/sec^2
M205 X8.00 Y8.00 Z0.40 E4.50 ; sets the jerk limits, mm/sec
M205 S0 T0 ; sets the minimum extruding and travel feed rate, mm/sec
M107
;TYPE:Custom
M862.3 P "MK3S" ; printer model check
M862.1 P0.4 ; nozzle diameter check
M115 U3.9.3 ; tell printer latest fw version
G90 ; use absolute coordinates
M83 ; extruder relative mode
M104 S205 ; set extruder temp
M140 S67 ; set bed temp
M190 S67 ; wait for bed temp
M109 S205 ; wait for extruder temp
G28 W ; home all without mesh bed level
G80 ; mesh bed leveling
G1 Y-3.0 F1000.0 ; go outside print area
G92 E0.0
G1 X60.0 E9.0 F1000.0 ; intro line
M73 P0 R19
G1 X100.0 E12.5 F1000.0 ; intro line
G92 E0.0
M221 S95

; Don't change E values below. Excessive value can damage the printer.
M907 E430 ; set extruder motor current
G21 ; set units to millimeters
G90 ; use absolute coordinates
M83 ; use relative distances for extrusion
M900 K0.05 ; Filament gcode LA 1.5
M900 K30 ; Filament gcode LA 1.0
;LAYER_CHANGE
;Z:0.2
;HEIGHT:0.2
;BEFORE_LAYER_CHANGE
G92 E0.0
;0.2


G1 E-1.20000 F2400.000
G1 Z0.400 F10800.000
;AFTER_LAYER_CHANGE
;0.2
; printing object tool2.stl id:1 copy 0
G1 X206.056 Y36.327
G1 Z0.200
G1 E1.20000 F2400.000
M204 S1000
;TYPE:Perimeter
;WIDTH:0.42
G1 F1200.000
G1 X206.178 Y35.702 E0.01996
G1 X206.418 Y35.113 E0.01996
G1 X206.767 Y34.580 E0.01996
G1 X207.212 Y34.125 E0.01996
G1 X207.736 Y33.763 E0.01996
G1 X208.289 Y33.522 E0.01894
G1 X208.658 Y33.421 E0.01198
G1 X209.240 Y33.350 E0.01839
G1 X209.890 Y33.393 E0.02043
G1 X210.508 Y33.562 E0.02007
G1 X211.078 Y33.844 E0.01996
G1 X211.584 Y34.230 E0.01996
G1 X212.006 Y34.707 E0.01996
G1 X212.329 Y35.255 E0.01996
G1 X212.540 Y35.856 E0.01996
G1 X212.632 Y36.486 E0.01996
G1 X212.601 Y37.122 E0.01996
G1 X212.449 Y37.740 E0.01996
G1 X212.181 Y38.317 E0.01996
G1 X211.807 Y38.832 E0.01996
G1 X211.341 Y39.265 E0.01996
G1 X210.800 Y39.601 E0.01996
G1 X210.205 Y39.827 E0.01996
G1 X209.577 Y39.934 E0.01996
G1 X208.941 Y39.919 E0.01996
M73 Q0 S19
G1 X208.319 Y39.781 E0.01996
G1 X207.736 Y39.527 E0.01996
G1 X207.212 Y39.166 E0.01996
G1 X206.767 Y38.710 E0.01996
G1 X206.418 Y38.178 E0.01996
G1 X206.178 Y37.588 E0.01996
G1 X206.056 Y36.963 E0.01996
G1 X206.056 Y36.387 E0.01808
G1 X206.433 Y36.387 F10800.000
G1 F1200.000
G1 X206.541 Y35.810 E0.01839
G1 X206.754 Y35.289 E0.01767
G1 X207.062 Y34.817 E0.01767
G1 X207.456 Y34.414 E0.01767
G1 X207.920 Y34.094 E0.01767
G1 X208.415 Y33.878 E0.01693
G1 X208.731 Y33.792 E0.01027
G1 X209.250 Y33.728 E0.01642
G1 X209.827 Y33.767 E0.01813
G1 X210.373 Y33.916 E0.01774
G1 X210.878 Y34.166 E0.01767
G1 X211.326 Y34.508 E0.01767
G1 X211.700 Y34.929 E0.01767
G1 X211.985 Y35.415 E0.01767
G1 X212.172 Y35.947 E0.01767
G1 X212.254 Y36.504 E0.01767
G1 X212.227 Y37.067 E0.01767
G1 X212.092 Y37.614 E0.01767
G1 X211.854 Y38.125 E0.01767
G1 X211.523 Y38.581 E0.01767
G1 X211.110 Y38.964 E0.01767
G1 X210.632 Y39.262 E0.01767
G1 X210.105 Y39.461 E0.01767
G1 X209.550 Y39.556 E0.01767
G1 X208.986 Y39.543 E0.01767
G1 X208.436 Y39.421 E0.01767
G1 X207.920 Y39.196 E0.01767
G1 X207.456 Y38.876 E0.01767
G1 X207.062 Y38.473 E0.01767
G1 X206.754 Y38.002 E0.01767
G1 X206.541 Y37.480 E0.01767
G1 X206.433 Y36.927 E0.01767
G1 X206.433 Y36.447 E0.01505
G1 X206.810 Y36.447 F10800.000
G1 F1200.000
G1 X206.904 Y35.919 E0.01682
G1 X207.089 Y35.465 E0.01537
G1 X207.358 Y35.055 E0.01537
G1 X207.700 Y34.704 E0.01537
G1 X208.104 Y34.425 E0.01537
G1 X208.540 Y34.235 E0.01493
G1 X208.804 Y34.163 E0.00857
G1 X209.261 Y34.107 E0.01444
G1 X209.764 Y34.141 E0.01582
G1 X210.239 Y34.270 E0.01542
G1 X210.678 Y34.487 E0.01537
G1 X211.068 Y34.785 E0.01537
G1 X211.393 Y35.152 E0.01537
G1 X211.642 Y35.575 E0.01537
G1 X211.804 Y36.037 E0.01537
G1 X211.875 Y36.522 E0.01537
G1 X211.852 Y37.012 E0.01537
G1 X211.734 Y37.488 E0.01537
G1 X211.528 Y37.933 E0.01537
G1 X211.239 Y38.329 E0.01537
G1 X210.880 Y38.663 E0.01537
G1 X210.464 Y38.922 E0.01537
G1 X210.006 Y39.096 E0.01537
G1 X209.522 Y39.178 E0.01537
G1 X209.032 Y39.167 E0.01537
G1 X208.553 Y39.061 E0.01537
G1 X208.104 Y38.865 E0.01537
G1 X207.700 Y38.586 E0.01537
G1 X207.358 Y38.236 E0.01537
G1 X207.089 Y37.825 E0.01537
G1 X206.904 Y37.371 E0.01537
G1 X206.810 Y36.890 E0.01537
G1 X206.810 Y36.507 E0.01202
G1 X207.187 Y36.436 F10800.000
;TYPE:External perimeter
G1 F1200.000
G1 X207.267 Y36.027 E0.01308
G1 X207.425 Y35.641 E0.01308
G1 X207.653 Y35.292 E0.01308
G1 X207.945 Y34.993 E0.01308
G1 X208.288 Y34.756 E0.01308
G1 X208.666 Y34.592 E0.01292
G1 X208.877 Y34.534 E0.00686
G1 X209.271 Y34.486 E0.01247
G1 X209.702 Y34.515 E0.01352
G1 X210.105 Y34.624 E0.01310
G1 X210.479 Y34.809 E0.01308
G1 X210.810 Y35.062 E0.01308
G1 X211.087 Y35.375 E0.01308
G1 X211.298 Y35.734 E0.01308
G1 X211.437 Y36.128 E0.01308
G1 X211.497 Y36.541 E0.01308
G1 X211.477 Y36.957 E0.01308
G1 X211.377 Y37.362 E0.01308
G1 X211.201 Y37.741 E0.01308
G1 X210.956 Y38.078 E0.01308
G1 X210.650 Y38.362 E0.01308
G1 X210.296 Y38.582 E0.01308
G1 X209.906 Y38.730 E0.01308
G1 X209.495 Y38.801 E0.01308
G1 X209.078 Y38.791 E0.01308
G1 X208.670 Y38.701 E0.01308
G1 X208.288 Y38.534 E0.01308
G1 X207.945 Y38.297 E0.01308
G1 X207.653 Y37.998 E0.01308
G1 X207.425 Y37.649 E0.01308
G1 X207.267 Y37.263 E0.01308
G1 X207.187 Y36.854 E0.01308
G1 X207.187 Y36.496 E0.01120
G1 X206.862 Y36.204 F10800.000
;WIPE_START
G1 F8640.000
G1 X207.267 Y36.027 E-0.12566
G1 X207.425 Y35.641 E-0.11009
G1 X207.653 Y35.292 E-0.11009
G1 X207.945 Y34.993 E-0.11009
G1 X208.288 Y34.756 E-0.11009
G1 X208.666 Y34.592 E-0.10874
G1 X208.877 Y34.534 E-0.05773
G1 X209.271 Y34.486 E-0.10493
G1 X209.702 Y34.515 E-0.11377
G1 X210.105 Y34.624 E-0.11023
G1 X210.372 Y34.756 E-0.07859
;WIPE_END
G1 E-0.06000 F2400.000
G1 Z0.600 F10800.000
G1 X196.933 Y35.829
G1 Z0.200
G1 E1.20000 F2400.000
;TYPE:Perimeter
G1 F1200.000
G1 X197.025 Y34.770 E0.03330
M73 Q1 S19
G1 X197.161 Y33.912 E0.02726
G1 X197.349 Y33.060 E0.02736
G1 X197.479 Y32.576 E0.01570
G1 X197.724 Y31.810 E0.02523
G1 X197.900 Y31.330 E0.01603
G1 X198.173 Y30.678 E0.02215
G1 X198.465 Y30.068 E0.02121
G1 X198.794 Y29.463 E0.02157
G1 X199.051 Y29.038 E0.01559
G1 X199.441 Y28.454 E0.02200
G1 X199.830 Y27.932 E0.02042
M73 P1 R19
G1 X200.209 Y27.473 E0.01866
G1 X200.643 Y26.994 E0.02028
G1 X201.099 Y26.541 E0.02015
G1 X201.577 Y26.110 E0.02018
G1 X202.033 Y25.738 E0.01845
G1 X202.558 Y25.352 E0.02044
G1 X203.104 Y24.992 E0.02048
G1 X203.592 Y24.703 E0.01780
G1 X204.173 Y24.397 E0.02060
G1 X204.754 Y24.129 E0.02004
G1 X205.334 Y23.898 E0.01959
G1 X205.929 Y23.697 E0.01969
G1 X206.538 Y23.528 E0.01981
G1 X207.153 Y23.392 E0.01977
G1 X207.783 Y23.289 E0.01999
G1 X208.203 Y23.239 E0.01326
G1 X208.968 Y23.191 E0.02405
G1 X210.064 Y23.213 E0.03437
G1 X210.522 Y23.253 E0.01441
G1 X211.243 Y23.354 E0.02282
G1 X211.687 Y23.440 E0.01418
G1 X212.381 Y23.609 E0.02238
G1 X213.059 Y23.819 E0.02226
G1 X213.478 Y23.970 E0.01397
G1 X214.126 Y24.240 E0.02200
G1 X214.805 Y24.572 E0.02371
G1 X215.189 Y24.783 E0.01374
G1 X215.787 Y25.147 E0.02194
G1 X216.364 Y25.544 E0.02195
G1 X216.714 Y25.809 E0.01377
G1 X217.286 Y26.285 E0.02333
G1 X217.831 Y26.796 E0.02342
G1 X218.132 Y27.106 E0.01356
G1 X218.861 Y27.953 E0.03503
G1 X219.313 Y28.565 E0.02386
G1 X219.677 Y29.118 E0.02076
G1 X219.990 Y29.648 E0.01930
G1 X220.272 Y30.184 E0.01898
G1 X220.602 Y30.895 E0.02458
G1 X220.822 Y31.445 E0.01857
G1 X221.017 Y31.999 E0.01841
G1 X221.248 Y32.786 E0.02570
G1 X221.497 Y33.920 E0.03641
G1 X221.611 Y34.663 E0.02357
G1 X221.678 Y35.285 E0.01962
G1 X221.725 Y36.029 E0.02338
G1 X221.737 Y36.651 E0.01948
G1 X221.718 Y37.392 E0.02324
G1 X221.674 Y38.009 E0.01940
G1 X221.588 Y38.745 E0.02323
G1 X221.488 Y39.357 E0.01945
G1 X221.334 Y40.086 E0.02337
G1 X221.176 Y40.692 E0.01963
G1 X220.952 Y41.414 E0.02371
G1 X220.753 Y41.964 E0.01833
G1 X220.531 Y42.506 E0.01837
G1 X220.204 Y43.206 E0.02424
G1 X219.918 Y43.746 E0.01916
G1 X219.600 Y44.282 E0.01953
G1 X219.307 Y44.728 E0.01673
G1 X218.933 Y45.244 E0.01998
G1 X218.593 Y45.671 E0.01712
G1 X218.142 Y46.182 E0.02136
G1 X217.710 Y46.625 E0.01940
G1 X217.216 Y47.081 E0.02108
G1 X216.702 Y47.509 E0.02098
G1 X216.211 Y47.875 E0.01920
G1 X215.655 Y48.247 E0.02096
G1 X215.143 Y48.552 E0.01870
G1 X214.165 Y49.050 E0.03441
G1 X213.621 Y49.281 E0.01852
G1 X212.977 Y49.515 E0.02148
G1 X212.358 Y49.701 E0.02028
G1 X211.725 Y49.855 E0.02042
G1 X211.081 Y49.973 E0.02051
G1 X210.439 Y50.053 E0.02031
G1 X209.375 Y50.106 E0.03339
G1 X208.685 Y50.087 E0.02164
G1 X208.194 Y50.048 E0.01546
G1 X207.508 Y49.955 E0.02171
G1 X207.031 Y49.866 E0.01520
G1 X206.352 Y49.702 E0.02192
G1 X205.741 Y49.517 E0.02002
G1 X205.274 Y49.351 E0.01553
G1 X204.644 Y49.092 E0.02138
G1 X204.036 Y48.801 E0.02114
G1 X203.488 Y48.502 E0.01955
G1 X203.072 Y48.250 E0.01525
G1 X202.514 Y47.877 E0.02107
G1 X201.979 Y47.478 E0.02091
G1 X201.466 Y47.052 E0.02089
G1 X200.975 Y46.601 E0.02091
G1 X200.531 Y46.150 E0.01986
G1 X200.097 Y45.663 E0.02044
G1 X199.644 Y45.097 E0.02274
G1 X199.261 Y44.564 E0.02059
G1 X198.903 Y44.008 E0.02074
G1 X198.571 Y43.430 E0.02089
G1 X198.061 Y42.384 E0.03649
G1 X197.789 Y41.709 E0.02283
G1 X197.556 Y41.032 E0.02244
G1 X197.384 Y40.437 E0.01941
G1 X197.219 Y39.748 E0.02222
G1 X197.123 Y39.247 E0.01600
G1 X197.007 Y38.451 E0.02524
G1 X196.922 Y37.435 E0.03196
G1 X196.903 Y36.637 E0.02502
G1 X196.929 Y35.888 E0.02349
G1 X196.553 Y35.864 F10800.000
G1 F1200.000
G1 X196.594 Y35.230 E0.01993
G1 X196.651 Y34.720 E0.01608
G1 X196.790 Y33.842 E0.02788
G1 X196.982 Y32.970 E0.02799
G1 X197.117 Y32.470 E0.01625
G1 X197.367 Y31.687 E0.02575
G1 X197.549 Y31.192 E0.01655
G1 X197.829 Y30.524 E0.02271
G1 X198.130 Y29.896 E0.02181
G1 X198.467 Y29.276 E0.02214
G1 X198.733 Y28.835 E0.01613
G1 X199.133 Y28.237 E0.02258
G1 X199.533 Y27.700 E0.02101
G1 X199.923 Y27.226 E0.01923
G1 X200.371 Y26.733 E0.02087
G1 X200.840 Y26.267 E0.02075
G1 X201.332 Y25.824 E0.02077
G1 X201.802 Y25.440 E0.01902
G1 X202.342 Y25.042 E0.02103
G1 X202.904 Y24.672 E0.02107
G1 X203.408 Y24.374 E0.01837
G1 X204.006 Y24.059 E0.02121
G1 X204.605 Y23.783 E0.02067
G1 X205.204 Y23.544 E0.02021
G1 X205.818 Y23.337 E0.02033
G1 X206.446 Y23.162 E0.02045
G1 X207.082 Y23.021 E0.02042
G1 X207.730 Y22.915 E0.02058
G1 X208.169 Y22.864 E0.01385
G1 X208.955 Y22.814 E0.02469
G1 X209.387 Y22.810 E0.01356
G1 X210.088 Y22.837 E0.02197
G1 X210.564 Y22.878 E0.01501
G1 X211.305 Y22.982 E0.02344
G1 X211.767 Y23.071 E0.01477
G1 X212.481 Y23.245 E0.02303
G1 X213.179 Y23.461 E0.02291
G1 X213.615 Y23.619 E0.01454
G1 X214.281 Y23.897 E0.02263
G1 X214.979 Y24.237 E0.02435
G1 X215.992 Y24.831 E0.03682
G1 X216.584 Y25.238 E0.02254
G1 X216.949 Y25.513 E0.01432
G1 X217.536 Y26.002 E0.02396
G1 X218.095 Y26.527 E0.02405
G1 X218.408 Y26.850 E0.01410
G1 X219.159 Y27.722 E0.03608
G1 X219.622 Y28.349 E0.02446
G1 X219.997 Y28.919 E0.02137
G1 X220.319 Y29.465 E0.01987
G1 X220.610 Y30.017 E0.01957
G1 X220.948 Y30.746 E0.02520
G1 X221.175 Y31.312 E0.01914
G1 X221.376 Y31.884 E0.01898
G1 X221.613 Y32.688 E0.02629
G1 X221.869 Y33.854 E0.03745
G1 X221.985 Y34.614 E0.02410
G1 X222.054 Y35.253 E0.02014
G1 X222.102 Y36.014 E0.02390
G1 X222.114 Y36.652 E0.02000
G1 X222.095 Y37.410 E0.02377
G1 X222.050 Y38.044 E0.01994
G1 X221.962 Y38.797 E0.02377
G1 X221.859 Y39.426 E0.02000
G1 X221.701 Y40.173 E0.02391
G1 X221.539 Y40.796 E0.02018
G1 X221.309 Y41.534 E0.02424
G1 X221.105 Y42.099 E0.01885
G1 X220.877 Y42.658 E0.01891
G1 X220.542 Y43.375 E0.02482
G1 X220.247 Y43.931 E0.01974
G1 X219.920 Y44.482 E0.02008
G1 X219.618 Y44.942 E0.01727
G1 X219.234 Y45.473 E0.02053
G1 X218.882 Y45.914 E0.01768
G1 X218.419 Y46.439 E0.02195
G1 X217.973 Y46.895 E0.02001
G1 X217.465 Y47.365 E0.02170
G1 X216.935 Y47.805 E0.02160
G1 X216.428 Y48.183 E0.01981
G1 X215.857 Y48.565 E0.02157
G1 X215.330 Y48.880 E0.01923
G1 X214.321 Y49.393 E0.03549
G1 X213.759 Y49.632 E0.01914
G1 X213.096 Y49.873 E0.02213
G1 X212.457 Y50.065 E0.02094
G1 X211.803 Y50.224 E0.02107
G1 X211.139 Y50.345 E0.02118
G1 X210.472 Y50.429 E0.02109
G1 X209.380 Y50.484 E0.03428
G1 X208.665 Y50.464 E0.02241
G1 X208.154 Y50.423 E0.01609
G1 X207.448 Y50.328 E0.02233
G1 X206.952 Y50.235 E0.01581
G1 X206.253 Y50.066 E0.02256
G1 X205.623 Y49.876 E0.02064
G1 X205.139 Y49.704 E0.01610
G1 X204.490 Y49.436 E0.02200
G1 X203.864 Y49.136 E0.02178
G1 X203.300 Y48.829 E0.02012
G1 X202.870 Y48.569 E0.01578
G1 X202.296 Y48.185 E0.02164
G1 X201.746 Y47.774 E0.02152
G1 X201.218 Y47.337 E0.02149
G1 X200.713 Y46.872 E0.02151
G1 X200.256 Y46.408 E0.02044
G1 X199.809 Y45.907 E0.02105
G1 X199.343 Y45.325 E0.02336
G1 X198.949 Y44.776 E0.02120
G1 X198.581 Y44.204 E0.02133
G1 X198.239 Y43.610 E0.02149
G1 X197.924 Y42.991 E0.02177
G1 X197.714 Y42.533 E0.01580
G1 X197.435 Y41.840 E0.02340
G1 X197.197 Y41.145 E0.02304
G1 X197.019 Y40.533 E0.01998
G1 X196.850 Y39.827 E0.02276
G1 X196.751 Y39.310 E0.01653
G1 X196.632 Y38.497 E0.02576
G1 X196.545 Y37.451 E0.03290
G1 X196.526 Y36.638 E0.02551
G1 X196.549 Y35.924 E0.02240
G1 X196.173 Y35.899 F10800.000
G1 F1200.000
G1 X196.218 Y35.196 E0.02209
G1 X196.277 Y34.669 E0.01663
G1 X196.420 Y33.771 E0.02850
G1 X196.616 Y32.880 E0.02862
G1 X196.756 Y32.363 E0.01679
G1 X197.010 Y31.565 E0.02627
G1 X197.198 Y31.054 E0.01707
G1 X197.485 Y30.369 E0.02327
G1 X197.794 Y29.725 E0.02241
G1 X198.140 Y29.088 E0.02271
G1 X198.414 Y28.633 E0.01667
G1 X198.824 Y28.019 E0.02316
G1 X199.237 Y27.467 E0.02160
G1 X199.638 Y26.979 E0.01980
G1 X200.098 Y26.473 E0.02145
G1 X200.580 Y25.993 E0.02135
G1 X201.087 Y25.537 E0.02135
G1 X201.571 Y25.142 E0.01960
G1 X202.127 Y24.733 E0.02163
G1 X202.704 Y24.353 E0.02167
G1 X203.224 Y24.045 E0.01895
G1 X203.839 Y23.720 E0.02182
G1 X204.456 Y23.436 E0.02130
G1 X205.074 Y23.190 E0.02084
G1 X205.707 Y22.976 E0.02096
G1 X206.355 Y22.796 E0.02109
G1 X207.011 Y22.651 E0.02107
G1 X207.678 Y22.542 E0.02117
G1 X208.135 Y22.488 E0.01444
G1 X208.941 Y22.437 E0.02533
G1 X209.393 Y22.433 E0.01416
G1 X210.111 Y22.460 E0.02254
G1 X210.607 Y22.504 E0.01560
G1 X211.367 Y22.610 E0.02405
G1 X211.848 Y22.703 E0.01537
G1 X212.581 Y22.881 E0.02367
G1 X213.299 Y23.103 E0.02355
G1 X213.752 Y23.267 E0.01510
G1 X214.436 Y23.553 E0.02326
G1 X215.153 Y23.902 E0.02498
G1 X215.567 Y24.130 E0.01484
G1 X216.197 Y24.514 E0.02313
G1 X216.805 Y24.932 E0.02313
G1 X217.183 Y25.218 E0.01486
G1 X217.786 Y25.720 E0.02459
G1 X218.360 Y26.258 E0.02468
G1 X219.161 Y27.127 E0.03706
G1 X219.457 Y27.491 E0.01470
G1 X219.932 Y28.133 E0.02506
G1 X220.317 Y28.719 E0.02199
G1 X220.648 Y29.281 E0.02044
G1 X220.949 Y29.849 E0.02016
G1 X221.294 Y30.596 E0.02581
G1 X221.529 Y31.180 E0.01971
G1 X221.735 Y31.768 E0.01954
G1 X221.977 Y32.590 E0.02687
G1 X222.109 Y33.133 E0.01754
G1 X222.240 Y33.789 E0.02096
G1 X222.359 Y34.566 E0.02464
G1 X222.429 Y35.221 E0.02067
G1 X222.479 Y35.998 E0.02442
G1 X222.491 Y36.653 E0.02053
G1 X222.472 Y37.428 E0.02430
G1 X222.425 Y38.079 E0.02048
G1 X222.336 Y38.850 E0.02431
G1 X222.230 Y39.496 E0.02054
G1 X222.068 Y40.259 E0.02446
G1 X221.901 Y40.899 E0.02073
G1 X221.667 Y41.654 E0.02478
G1 X221.457 Y42.235 E0.01936
G1 X221.222 Y42.809 E0.01945
G1 X220.879 Y43.543 E0.02541
G1 X220.575 Y44.116 E0.02033
G1 X220.240 Y44.681 E0.02062
G1 X219.928 Y45.157 E0.01782
G1 X219.534 Y45.701 E0.02108
G1 X219.171 Y46.156 E0.01825
G1 X218.695 Y46.695 E0.02254
G1 X218.236 Y47.166 E0.02061
G1 X217.714 Y47.649 E0.02231
G1 X217.168 Y48.101 E0.02222
G1 X216.646 Y48.491 E0.02042
G1 X216.058 Y48.884 E0.02218
G1 X215.128 Y49.420 E0.03366
G1 X214.478 Y49.736 E0.02267
G1 X213.898 Y49.983 E0.01976
G1 X213.215 Y50.231 E0.02277
G1 X212.556 Y50.429 E0.02159
G1 X211.882 Y50.593 E0.02173
