; generated by PrusaSlicer 2.3.1+win64 on 2022-12-01 at 00:27:44 UTC

; 

; external perimeters extrusion width = 0.45mm
; perimeters extrusion width = 0.45mm
; infill extrusion width = 0.45mm
; solid infill extrusion width = 0.45mm
; top infill extrusion width = 0.40mm
; first layer extrusion width = 0.42mm

M73 P0 R8
M73 Q0 S8
M201 X1000 Y1000 Z200 E5000 ; sets maximum accelerations, mm/sec^2
M203 X200 Y200 Z12 E120 ; sets maximum feedrates, mm/sec
M204 P1250 R1250 T1250 ; sets acceleration (P, T) and retract acceleration (R), mm/sec^2
M205 X8.00 Y8.00 Z0.40 E4.50 ; sets the jerk limits, mm/sec
M205 S0 T0 ; sets the minimum extruding and travel feed rate, mm/sec
M107
;TYPE:Custom
M862.3 P "MK3S" ; printer model check
M862.1 P0.4 ; nozzle diameter check
M115 U3.9.3 ; tell printer latest fw version
G90 ; use absolute coordinates
M83 ; extruder relative mode
M104 S215 ; set extruder temp
M140 S67 ; set bed temp
M190 S67 ; wait for bed temp
M109 S215 ; wait for extruder temp
G28 W ; home all without mesh bed level
G80 ; mesh bed leveling
G1 Y-3.0 F1000.0 ; go outside print area
G92 E0.0
G1 X60.0 E9.0 F1000.0 ; intro line
G1 X100.0 E12.5 F1000.0 ; intro line
G92 E0.0
M221 S95

; Don't change E values below. Excessive value can damage the printer.

M907 E538 ; set extruder motor current
G21 ; set units to millimeters
G90 ; use absolute coordinates
M83 ; use relative distances for extrusion
M900 K0.05 ; Filament gcode LA 1.5
M900 K30 ; Filament gcode LA 1.0
;LAYER_CHANGE
;Z:0.2
;HEIGHT:0.2
;BEFORE_LAYER_CHANGE
G92 E0.0
;0.2


M73 P1 R7
M73 Q1 S8
G1 E-1.20000 F2400.000
G1 Z0.400 F10800.000
;AFTER_LAYER_CHANGE
;0.2
; printing object coil_washer.stl id:0 copy 0
G1 X219.985 Y24.903
M73 Q1 S7
G1 Z0.200
G1 E1.20000 F2400.000
M204 S1000
;TYPE:Perimeter
;WIDTH:0.42
G1 F1200.000
G1 X220.177 Y23.904 E0.03193
G1 X220.319 Y23.335 E0.01837
G1 X220.473 Y22.808 E0.01722
G1 X220.828 Y21.813 E0.03312
G1 X221.258 Y20.848 E0.03312
G1 X221.515 Y20.350 E0.01757
G1 X222.051 Y19.441 E0.03311
G1 X222.633 Y18.607 E0.03188
G1 X223.001 Y18.135 E0.01877
G1 X223.702 Y17.342 E0.03318
G1 X224.469 Y16.597 E0.03352
G1 X225.280 Y15.920 E0.03312
G1 X225.730 Y15.587 E0.01757
G1 X226.613 Y15.007 E0.03312
G1 X227.538 Y14.496 E0.03312
G1 X228.043 Y14.254 E0.01757
G1 X229.020 Y13.852 E0.03312
G1 X230.025 Y13.526 E0.03312
G1 X230.567 Y13.383 E0.01757
G1 X231.589 Y13.176 E0.03272
G1 X232.131 Y13.098 E0.01716
G1 X232.675 Y13.041 E0.01715
G1 X233.691 Y12.992 E0.03189
G1 X234.786 Y13.021 E0.03432
G1 X235.345 Y13.069 E0.01761
G1 X236.378 Y13.217 E0.03272
G1 X236.927 Y13.328 E0.01757
G1 X237.949 Y13.597 E0.03312
G1 X238.959 Y13.947 E0.03352
G1 X239.940 Y14.372 E0.03352
G1 X240.874 Y14.865 E0.03312
G1 X241.354 Y15.155 E0.01757
G1 X242.226 Y15.751 E0.03312
M73 Q2 S7
G1 X243.050 Y16.412 E0.03312
G1 X243.850 Y17.160 E0.03432
G1 X244.556 Y17.929 E0.03272
G1 X244.910 Y18.362 E0.01757
G1 X245.524 Y19.207 E0.03272
G1 X245.826 Y19.678 E0.01757
G1 X246.346 Y20.598 E0.03312
G1 X246.799 Y21.566 E0.03352
M73 P2 R7
G1 X247.178 Y22.566 E0.03352
G1 X247.475 Y23.580 E0.03312
G1 X247.602 Y24.125 E0.01757
G1 X247.780 Y25.154 E0.03272
G1 X247.844 Y25.710 E0.01757
G1 X247.904 Y26.752 E0.03272
G1 X247.904 Y27.312 E0.01755
G1 X247.846 Y28.327 E0.03189
G1 X247.703 Y29.413 E0.03432
G1 X247.597 Y29.964 E0.01761
G1 X247.338 Y30.988 E0.03312
G1 X246.998 Y32.002 E0.03352
G1 X246.587 Y32.975 E0.03312
G1 X246.085 Y33.948 E0.03432
G1 X245.538 Y34.837 E0.03272
G1 X245.217 Y35.296 E0.01757
G1 X244.564 Y36.126 E0.03312
G1 X243.841 Y36.914 E0.03352
G1 X243.060 Y37.645 E0.03352
G1 X242.236 Y38.306 E0.03312
G1 X241.333 Y38.923 E0.03432
G1 X240.418 Y39.452 E0.03312
G1 X239.465 Y39.909 E0.03312
G1 X238.947 Y40.122 E0.01757
G1 X237.949 Y40.467 E0.03312
G1 X236.915 Y40.739 E0.03352
G1 X235.863 Y40.932 E0.03352
G1 X234.812 Y41.042 E0.03312
G1 X234.266 Y41.068 E0.01716
G1 X233.718 Y41.073 E0.01716
G1 X232.663 Y41.023 E0.03312
G1 X231.602 Y40.891 E0.03352
G1 X230.554 Y40.679 E0.03352
G1 X229.538 Y40.391 E0.03312
G1 X229.020 Y40.212 E0.01717
G1 X228.510 Y40.013 E0.01717
G1 X227.549 Y39.574 E0.03312
G1 X226.625 Y39.063 E0.03312
G1 X226.150 Y38.765 E0.01757
G1 X225.290 Y38.152 E0.03312
G1 X224.478 Y37.476 E0.03312
G1 X224.069 Y37.093 E0.01757
G1 X223.340 Y36.329 E0.03312
G1 X222.663 Y35.501 E0.03352
G1 X222.059 Y34.635 E0.03312
G1 X221.765 Y34.158 E0.01757
G1 X221.269 Y33.239 E0.03272
G1 X221.032 Y32.732 E0.01757
G1 X220.639 Y31.751 E0.03312
G1 X220.318 Y30.731 E0.03352
G1 X220.079 Y29.702 E0.03312
G1 X219.986 Y29.163 E0.01716
G1 X219.913 Y28.620 E0.01716
G1 X219.834 Y27.580 E0.03272
G1 X219.823 Y27.020 E0.01755
G1 X219.861 Y26.003 E0.03189
G1 X219.978 Y24.963 E0.03283
G1 X220.353 Y25.005 F10800.000
G1 F1200.000
G1 X220.545 Y23.985 E0.03256
G1 X220.683 Y23.434 E0.01780
G1 X220.832 Y22.925 E0.01664
G1 X221.179 Y21.953 E0.03234
G1 X221.598 Y21.011 E0.03233
G1 X221.845 Y20.533 E0.01689
G1 X222.369 Y19.645 E0.03232
G1 X222.936 Y18.831 E0.03111
G1 X223.291 Y18.376 E0.01809
G1 X223.975 Y17.602 E0.03238
G1 X224.721 Y16.877 E0.03262
G1 X225.513 Y16.217 E0.03234
G1 X225.946 Y15.896 E0.01689
G1 X226.808 Y15.330 E0.03234
G1 X227.711 Y14.832 E0.03233
G1 X228.197 Y14.599 E0.01689
G1 X229.150 Y14.206 E0.03234
G1 X230.131 Y13.888 E0.03233
G1 X230.652 Y13.751 E0.01689
G1 X231.654 Y13.548 E0.03205
G1 X232.178 Y13.472 E0.01660
G1 X232.704 Y13.417 E0.01659
G1 X233.695 Y13.369 E0.03112
G1 X234.764 Y13.397 E0.03353
G1 X235.302 Y13.443 E0.01692
G1 X236.314 Y13.589 E0.03205
G1 X236.842 Y13.696 E0.01689
G1 X237.839 Y13.958 E0.03234
G1 X238.822 Y14.298 E0.03262
G1 X239.777 Y14.713 E0.03262
G1 X240.689 Y15.194 E0.03233
G1 X241.150 Y15.472 E0.01689
G1 X242.002 Y16.054 E0.03233
G1 X242.806 Y16.699 E0.03234
G1 X243.579 Y17.423 E0.03320
G1 X244.270 Y18.176 E0.03205
M73 Q3 S7
G1 X244.611 Y18.593 E0.01689
G1 X245.212 Y19.419 E0.03205
G1 X245.503 Y19.873 E0.01689
G1 X246.011 Y20.771 E0.03234
G1 X246.452 Y21.713 E0.03262
G1 X246.820 Y22.686 E0.03262
G1 X247.111 Y23.675 E0.03233
G1 X247.233 Y24.200 E0.01689
G1 X247.407 Y25.207 E0.03205
M73 P3 R7
G1 X247.468 Y25.742 E0.01689
G1 X247.527 Y26.763 E0.03205
G1 X247.527 Y27.301 E0.01688
G1 X247.471 Y28.292 E0.03112
G1 X247.331 Y29.352 E0.03353
G1 X247.229 Y29.882 E0.01692
G1 X246.976 Y30.882 E0.03233
G1 X246.645 Y31.868 E0.03262
G1 X246.244 Y32.818 E0.03234
G1 X245.759 Y33.760 E0.03320
G1 X245.222 Y34.630 E0.03205
G1 X244.914 Y35.071 E0.01689
G1 X244.277 Y35.882 E0.03233
G1 X243.573 Y36.649 E0.03262
G1 X242.813 Y37.359 E0.03262
G1 X242.009 Y38.005 E0.03234
G1 X241.135 Y38.602 E0.03320
G1 X240.242 Y39.118 E0.03234
G1 X239.312 Y39.564 E0.03233
G1 X238.814 Y39.769 E0.01689
G1 X237.839 Y40.106 E0.03234
G1 X236.833 Y40.371 E0.03262
G1 X235.809 Y40.558 E0.03262
G1 X234.784 Y40.666 E0.03233
G1 X234.255 Y40.691 E0.01660
G1 X233.725 Y40.696 E0.01660
G1 X232.695 Y40.647 E0.03234
G1 X231.663 Y40.519 E0.03262
G1 X230.643 Y40.312 E0.03262
G1 X229.651 Y40.031 E0.03233
G1 X229.150 Y39.858 E0.01660
G1 X228.657 Y39.666 E0.01660
G1 X227.719 Y39.237 E0.03233
G1 X226.816 Y38.739 E0.03233
G1 X226.360 Y38.452 E0.01689
G1 X225.520 Y37.853 E0.03233
G1 X224.728 Y37.193 E0.03233
G1 X224.335 Y36.825 E0.01689
G1 X223.623 Y36.079 E0.03233
G1 X222.964 Y35.273 E0.03262
G1 X222.374 Y34.428 E0.03233
G1 X222.092 Y33.969 E0.01689
G1 X221.606 Y33.070 E0.03205
G1 X221.378 Y32.582 E0.01689
G1 X220.994 Y31.624 E0.03233
G1 X220.682 Y30.632 E0.03262
G1 X220.449 Y29.627 E0.03233
G1 X220.359 Y29.106 E0.01660
G1 X220.288 Y28.581 E0.01660
G1 X220.210 Y27.562 E0.03205
G1 X220.200 Y27.023 E0.01688
G1 X220.237 Y26.032 E0.03112
G1 X220.346 Y25.065 E0.03050
G1 X220.721 Y25.107 F10800.000
G1 F1200.000
G1 X220.913 Y24.066 E0.03319
G1 X221.047 Y23.533 E0.01723
G1 X221.191 Y23.041 E0.01606
G1 X221.529 Y22.094 E0.03155
G1 X221.938 Y21.175 E0.03155
G1 X222.175 Y20.715 E0.01621
G1 X222.686 Y19.849 E0.03154
G1 X223.239 Y19.055 E0.03034
G1 X223.581 Y18.617 E0.01741
G1 X224.248 Y17.863 E0.03157
G1 X224.974 Y17.158 E0.03172
G1 X225.746 Y16.513 E0.03155
G1 X226.162 Y16.205 E0.01621
G1 X227.003 Y15.653 E0.03155
G1 X227.884 Y15.167 E0.03155
G1 X228.350 Y14.943 E0.01621
G1 X229.280 Y14.560 E0.03155
G1 X230.237 Y14.250 E0.03155
G1 X230.738 Y14.118 E0.01621
G1 X231.718 Y13.919 E0.03137
G1 X232.224 Y13.847 E0.01604
G1 X232.733 Y13.793 E0.01603
G1 X233.700 Y13.746 E0.03034
G1 X234.743 Y13.774 E0.03274
G1 X235.259 Y13.818 E0.01623
G1 X236.250 Y13.961 E0.03137
G1 X236.756 Y14.063 E0.01621
G1 X237.729 Y14.319 E0.03155
G1 X238.686 Y14.650 E0.03172
G1 X239.614 Y15.053 E0.03172
G1 X240.504 Y15.522 E0.03155
G1 X240.946 Y15.789 E0.01621
G1 X241.777 Y16.357 E0.03155
G1 X242.562 Y16.987 E0.03155
G1 X243.309 Y17.685 E0.03207
G1 X243.985 Y18.423 E0.03137
G1 X244.313 Y18.823 E0.01621
G1 X244.901 Y19.632 E0.03137
G1 X245.180 Y20.067 E0.01621
G1 X245.675 Y20.943 E0.03155
G1 X246.104 Y21.860 E0.03172
G1 X246.462 Y22.806 E0.03172
M73 Q4 S7
G1 X246.746 Y23.771 E0.03155
G1 X246.863 Y24.275 E0.01621
G1 X247.033 Y25.261 E0.03137
G1 X247.092 Y25.775 E0.01621
G1 X247.150 Y26.774 E0.03137
G1 X247.150 Y27.291 E0.01621
G1 X247.095 Y28.257 E0.03034
G1 X246.958 Y29.292 E0.03274
G1 X246.860 Y29.800 E0.01623
G1 X246.614 Y30.776 E0.03155
M73 P4 R7
G1 X246.292 Y31.735 E0.03172
G1 X245.901 Y32.662 E0.03155
G1 X245.432 Y33.571 E0.03207
G1 X244.907 Y34.423 E0.03137
G1 X244.611 Y34.847 E0.01621
G1 X243.989 Y35.638 E0.03155
G1 X243.305 Y36.383 E0.03172
G1 X242.566 Y37.074 E0.03172
G1 X241.781 Y37.704 E0.03155
G1 X240.937 Y38.281 E0.03207
G1 X240.066 Y38.784 E0.03155
G1 X239.158 Y39.219 E0.03155
G1 X238.680 Y39.416 E0.01621
G1 X237.729 Y39.745 E0.03155
G1 X236.751 Y40.003 E0.03172
G1 X235.756 Y40.184 E0.03172
G1 X234.755 Y40.290 E0.03155
G1 X234.244 Y40.314 E0.01604
G1 X233.733 Y40.319 E0.01604
G1 X232.728 Y40.271 E0.03155
G1 X231.724 Y40.146 E0.03172
G1 X230.732 Y39.945 E0.03172
G1 X229.764 Y39.671 E0.03155
G1 X229.281 Y39.504 E0.01604
G1 X228.804 Y39.318 E0.01604
G1 X227.889 Y38.900 E0.03155
G1 X227.008 Y38.414 E0.03155
G1 X226.570 Y38.138 E0.01621
G1 X225.751 Y37.555 E0.03155
G1 X224.978 Y36.910 E0.03155
G1 X224.600 Y36.557 E0.01621
G1 X223.906 Y35.829 E0.03155
G1 X223.265 Y35.046 E0.03172
G1 X222.690 Y34.221 E0.03155
G1 X222.418 Y33.780 E0.01621
G1 X221.943 Y32.900 E0.03137
G1 X221.724 Y32.432 E0.01621
G1 X221.350 Y31.497 E0.03155
G1 X221.046 Y30.532 E0.03172
G1 X220.819 Y29.552 E0.03155
G1 X220.731 Y29.048 E0.01604
G1 X220.663 Y28.541 E0.01604
G1 X220.587 Y27.544 E0.03137
G1 X220.577 Y27.027 E0.01621
G1 X220.613 Y26.060 E0.03034
G1 X220.714 Y25.167 E0.02818
G1 X221.089 Y25.209 F10800.000
;TYPE:External perimeter
G1 F1200.000
G1 X221.282 Y24.147 E0.03383
G1 X221.410 Y23.632 E0.01666
G1 X221.550 Y23.158 E0.01549
G1 X221.879 Y22.234 E0.03076
G1 X222.278 Y21.338 E0.03076
G1 X222.505 Y20.897 E0.01554
G1 X223.004 Y20.052 E0.03076
G1 X223.543 Y19.279 E0.02956
G1 X223.872 Y18.859 E0.01673
G1 X224.521 Y18.123 E0.03077
G1 X225.226 Y17.438 E0.03082
G1 X225.980 Y16.810 E0.03076
G1 X226.378 Y16.515 E0.01554
G1 X227.198 Y15.977 E0.03076
G1 X228.057 Y15.502 E0.03076
G1 X228.503 Y15.288 E0.01554
G1 X229.411 Y14.915 E0.03076
G1 X230.344 Y14.612 E0.03076
G1 X230.823 Y14.486 E0.01554
G1 X231.782 Y14.291 E0.03070
G1 X232.271 Y14.221 E0.01548
G1 X232.762 Y14.169 E0.01547
G1 X233.704 Y14.124 E0.02957
G1 X234.722 Y14.151 E0.03194
G1 X235.216 Y14.193 E0.01555
G1 X236.185 Y14.332 E0.03070
G1 X236.671 Y14.431 E0.01554
G1 X237.620 Y14.680 E0.03076
G1 X238.549 Y15.002 E0.03082
G1 X239.450 Y15.393 E0.03082
G1 X240.318 Y15.851 E0.03076
G1 X240.742 Y16.107 E0.01554
G1 X241.552 Y16.660 E0.03076
G1 X242.318 Y17.274 E0.03076
G1 X243.038 Y17.948 E0.03095
G1 X243.700 Y18.670 E0.03070
G1 X244.014 Y19.053 E0.01554
G1 X244.589 Y19.845 E0.03070
G1 X244.857 Y20.262 E0.01554
G1 X245.340 Y21.116 E0.03076
G1 X245.757 Y22.007 E0.03082
G1 X246.104 Y22.926 E0.03082
G1 X246.381 Y23.867 E0.03076
G1 X246.493 Y24.350 E0.01554
G1 X246.660 Y25.315 E0.03070
G1 X246.717 Y25.807 E0.01554
G1 X246.772 Y26.784 E0.03070
G1 X246.772 Y27.280 E0.01554
G1 X246.719 Y28.221 E0.02957
G1 X246.586 Y29.231 E0.03194
G1 X246.492 Y29.718 E0.01555
G1 X246.252 Y30.669 E0.03076
G1 X245.939 Y31.601 E0.03082
M73 Q5 S7
G1 X245.557 Y32.505 E0.03076
G1 X245.105 Y33.382 E0.03095
G1 X244.592 Y34.216 E0.03070
G1 X244.308 Y34.622 E0.01554
G1 X243.702 Y35.393 E0.03076
G1 X243.037 Y36.118 E0.03082
G1 X242.319 Y36.789 E0.03082
M73 P5 R7
G1 X241.554 Y37.403 E0.03076
G1 X240.739 Y37.960 E0.03095
G1 X239.889 Y38.450 E0.03076
G1 X239.005 Y38.875 E0.03076
G1 X238.547 Y39.063 E0.01554
G1 X237.620 Y39.384 E0.03076
G1 X236.669 Y39.634 E0.03082
G1 X235.702 Y39.811 E0.03082
G1 X234.726 Y39.914 E0.03076
G1 X234.233 Y39.937 E0.01548
G1 X233.740 Y39.942 E0.01548
G1 X232.760 Y39.895 E0.03076
G1 X231.784 Y39.774 E0.03082
G1 X230.821 Y39.578 E0.03082
G1 X229.877 Y39.311 E0.03076
G1 X229.411 Y39.150 E0.01548
G1 X228.951 Y38.971 E0.01548
G1 X228.058 Y38.563 E0.03076
G1 X227.200 Y38.089 E0.03076
G1 X226.780 Y37.825 E0.01554
G1 X225.981 Y37.256 E0.03076
G1 X225.228 Y36.628 E0.03076
G1 X224.866 Y36.289 E0.01554
G1 X224.189 Y35.579 E0.03076
G1 X223.566 Y34.818 E0.03082
G1 X223.005 Y34.014 E0.03076
G1 X222.745 Y33.592 E0.01554
G1 X222.280 Y32.730 E0.03070
G1 X222.070 Y32.281 E0.01554
G1 X221.705 Y31.371 E0.03076
G1 X221.410 Y30.433 E0.03082
G1 X221.188 Y29.477 E0.03076
G1 X221.104 Y28.991 E0.01548
G1 X221.039 Y28.502 E0.01548
G1 X220.964 Y27.526 E0.03070
G1 X220.955 Y27.030 E0.01554
G1 X220.990 Y26.088 E0.02957
G1 X221.082 Y25.269 E0.02586
G1 X220.775 Y24.961 F10800.000
;WIPE_START
G1 F8640.000
G1 X221.282 Y24.147 E-0.30051
G1 X221.410 Y23.632 E-0.14024
G1 X221.550 Y23.158 E-0.13033
G1 X221.879 Y22.234 E-0.25888
G1 X222.278 Y21.338 E-0.25887
G1 X222.367 Y21.165 E-0.05117
;WIPE_END
G1 E-0.06000 F2400.000
G1 Z0.600 F10800.000
G1 X219.546 Y25.034
G1 Z0.200
G1 E1.20000 F2400.000
;TYPE:Perimeter
G1 F1200.000
G1 X219.608 Y24.626 E0.01296
G1 X219.805 Y23.663 E0.03081
G1 X220.066 Y22.716 E0.03081
G1 X220.211 Y22.276 E0.01452
G1 X220.570 Y21.349 E0.03116
G1 X220.759 Y20.926 E0.01452
G1 X221.210 Y20.040 E0.03116
G1 X221.445 Y19.630 E0.01483
G1 X221.714 Y19.197 E0.01596
G1 X222.260 Y18.409 E0.03007
G1 X222.564 Y18.014 E0.01562
G1 X223.180 Y17.292 E0.02976
G1 X223.866 Y16.588 E0.03082
G1 X224.206 Y16.273 E0.01452
G1 X224.959 Y15.642 E0.03081
G1 X225.753 Y15.064 E0.03081
G1 X226.150 Y14.804 E0.01488
G1 X226.556 Y14.557 E0.01488
G1 X227.420 Y14.090 E0.03081
G1 X228.314 Y13.682 E0.03081
G1 X228.754 Y13.507 E0.01483
G1 X229.233 Y13.336 E0.01596
G1 X230.153 Y13.058 E0.03011
G1 X230.603 Y12.947 E0.01454
G1 X231.567 Y12.758 E0.03081
G1 X232.542 Y12.634 E0.03081
G1 X233.003 Y12.600 E0.01449
G1 X234.020 Y12.576 E0.03190
G1 X234.968 Y12.616 E0.02975
G1 X235.911 Y12.719 E0.02976
G1 X236.890 Y12.894 E0.03116
G1 X237.341 Y12.998 E0.01452
G1 X238.297 Y13.270 E0.03116
G1 X238.736 Y13.419 E0.01452
G1 X239.659 Y13.786 E0.03116
G1 X240.081 Y13.978 E0.01452
G1 X240.953 Y14.431 E0.03081
G1 X241.793 Y14.941 E0.03081
G1 X242.176 Y15.202 E0.01452
G1 X242.969 Y15.801 E0.03116
G1 X243.324 Y16.098 E0.01452
G1 X244.053 Y16.774 E0.03116
G1 X244.385 Y17.113 E0.01488
G1 X244.704 Y17.464 E0.01488
G1 X245.329 Y18.223 E0.03081
G1 X245.901 Y19.022 E0.03081
G1 X246.157 Y19.420 E0.01483
G1 X246.417 Y19.857 E0.01596
G1 X246.866 Y20.706 E0.03011
G1 X247.062 Y21.126 E0.01454
G1 X247.436 Y22.047 E0.03116
G1 X247.589 Y22.484 E0.01452
G1 X247.866 Y23.426 E0.03078
G1 X248.082 Y24.409 E0.03154
G1 X248.224 Y25.347 E0.02975
G1 X248.271 Y25.808 E0.01454
G1 X248.321 Y26.801 E0.03116
M73 Q6 S7
G1 X248.321 Y27.264 E0.01452
G1 X248.271 Y28.257 E0.03116
G1 X248.225 Y28.717 E0.01452
G1 X248.075 Y29.700 E0.03116
G1 X247.980 Y30.165 E0.01488
G1 X247.869 Y30.626 E0.01488
G1 X247.592 Y31.569 E0.03081
G1 X247.253 Y32.491 E0.03081
G1 X247.071 Y32.917 E0.01452
G1 X246.636 Y33.811 E0.03116
M73 P6 R7
G1 X246.412 Y34.217 E0.01452
G1 X245.889 Y35.062 E0.03116
G1 X245.625 Y35.443 E0.01452
G1 X245.026 Y36.222 E0.03081
G1 X244.377 Y36.959 E0.03081
G1 X244.053 Y37.291 E0.01452
G1 X243.324 Y37.966 E0.03116
G1 X242.969 Y38.264 E0.01452
G1 X242.176 Y38.863 E0.03116
