; generated by PrusaSlicer 2.3.1+win64 on 2022-12-12 at 13:17:41 UTC

; 

; external perimeters extrusion width = 0.45mm
; perimeters extrusion width = 0.45mm
; infill extrusion width = 0.45mm
; solid infill extrusion width = 0.45mm
; top infill extrusion width = 0.40mm
; first layer extrusion width = 0.42mm

M73 P0 R49
M73 Q0 S49
M201 X1000 Y1000 Z200 E5000 ; sets maximum accelerations, mm/sec^2
M203 X200 Y200 Z12 E120 ; sets maximum feedrates, mm/sec
M204 P1250 R1250 T1250 ; sets acceleration (P, T) and retract acceleration (R), mm/sec^2
M205 X8.00 Y8.00 Z0.40 E4.50 ; sets the jerk limits, mm/sec
M205 S0 T0 ; sets the minimum extruding and travel feed rate, mm/sec
M107
;TYPE:Custom
M862.3 P "MK3S" ; printer model check
M862.1 P0.4 ; nozzle diameter check
M115 U3.9.3 ; tell printer latest fw version
G90 ; use absolute coordinates
M83 ; extruder relative mode
M104 S215 ; set extruder temp
M140 S67 ; set bed temp
M190 S67 ; wait for bed temp
M109 S215 ; wait for extruder temp
G28 W ; home all without mesh bed level
G80 ; mesh bed leveling
G1 Y-3.0 F1000.0 ; go outside print area
G92 E0.0
G1 X60.0 E9.0 F1000.0 ; intro line
G1 X100.0 E12.5 F1000.0 ; intro line
G92 E0.0
M221 S95

; Don't change E values below. Excessive value can damage the printer.

M907 E538 ; set extruder motor current
G21 ; set units to millimeters
G90 ; use absolute coordinates
M83 ; use relative distances for extrusion
M900 K0.05 ; Filament gcode LA 1.5
M900 K30 ; Filament gcode LA 1.0
;LAYER_CHANGE
;Z:0.2
;HEIGHT:0.2
;BEFORE_LAYER_CHANGE
G92 E0.0
;0.2


G1 E-1.20000 F2400.000
G1 Z0.400 F10800.000
;AFTER_LAYER_CHANGE
;0.2
; printing object coil_bobbin.stl id:0 copy 0
G1 X228.056 Y18.034
G1 Z0.200
G1 E1.20000 F2400.000
M204 S1000
;TYPE:Perimeter
;WIDTH:0.42
G1 F1200.000
G1 X233.138 Y18.034 E0.15936
G1 X233.138 Y19.752 E0.05385
G1 X233.276 Y19.673 E0.00496
G1 X233.957 Y19.525 E0.02186
G1 X234.545 Y19.571 E0.01850
G1 X234.922 Y19.686 E0.01237
G1 X235.294 Y19.873 E0.01306
G1 X235.762 Y20.250 E0.01884
G1 X236.144 Y20.831 E0.02181
G1 X236.314 Y21.394 E0.01845
G1 X236.343 Y21.775 E0.01198
G1 X236.314 Y22.156 E0.01198
G1 X236.144 Y22.720 E0.01845
G1 X235.787 Y23.263 E0.02039
G1 X235.459 Y23.565 E0.01398
G1 X234.950 Y23.863 E0.01848
G1 X234.273 Y24.026 E0.02185
G1 X233.675 Y23.984 E0.01880
G1 X233.275 Y23.866 E0.01307
G1 X233.138 Y23.799 E0.00476
G1 X233.138 Y25.517 E0.05386
G1 X228.056 Y25.517 E0.15936
G1 X228.056 Y23.619 E0.05948
G1 X227.978 Y23.516 E0.00407
G1 X227.695 Y22.996 E0.01856
G1 X227.511 Y22.398 E0.01961
G1 X227.449 Y21.775 E0.01961
G1 X227.511 Y21.153 E0.01961
G1 X227.695 Y20.555 E0.01961
G1 X227.978 Y20.035 E0.01856
G1 X228.056 Y19.931 E0.00407
G1 X228.056 Y18.094 E0.05760
G1 X228.433 Y18.411 F10800.000
G1 F1200.000
G1 X232.761 Y18.411 E0.13571
G1 X232.761 Y20.058 E0.05162
G1 X232.939 Y20.314 E0.00977
G1 X233.413 Y20.029 E0.01733
G1 X233.983 Y19.905 E0.01829
G1 X234.474 Y19.944 E0.01547
G1 X234.782 Y20.037 E0.01008
G1 X235.089 Y20.191 E0.01078
G1 X235.479 Y20.506 E0.01572
G1 X235.799 Y20.992 E0.01824
G1 X235.941 Y21.464 E0.01543
G1 X235.965 Y21.775 E0.00980
G1 X235.941 Y22.087 E0.00980
G1 X235.799 Y22.558 E0.01543
G1 X235.497 Y23.017 E0.01722
G1 X235.234 Y23.261 E0.01125
G1 X234.808 Y23.509 E0.01546
G1 X234.241 Y23.646 E0.01828
G1 X233.742 Y23.611 E0.01568
G1 X233.412 Y23.513 E0.01079
G1 X233.125 Y23.372 E0.01004
G1 X232.943 Y23.229 E0.00724
G1 X232.761 Y23.493 E0.01006
G1 X232.761 Y25.140 E0.05162
G1 X228.433 Y25.140 E0.13571
G1 X228.433 Y23.493 E0.05162
G1 X228.296 Y23.311 E0.00715
G1 X228.044 Y22.849 E0.01650
G1 X227.883 Y22.323 E0.01725
G1 X227.828 Y21.775 E0.01725
G1 X227.883 Y21.228 E0.01725
G1 X228.044 Y20.702 E0.01725
G1 X228.296 Y20.240 E0.01650
G1 X228.433 Y20.058 E0.00715
G1 X228.433 Y18.471 E0.04974
G1 X228.810 Y18.788 F10800.000
G1 F1200.000
G1 X232.384 Y18.788 E0.11207
G1 X232.384 Y20.196 E0.04414
G1 X232.581 Y20.444 E0.00993
G1 X232.801 Y20.849 E0.01443
G1 X232.840 Y20.979 E0.00426
G1 X233.001 Y20.767 E0.00833
G1 X233.202 Y20.584 E0.00850
G1 X233.550 Y20.385 E0.01257
G1 X234.008 Y20.285 E0.01471
G1 X234.404 Y20.317 E0.01244
G1 X234.642 Y20.389 E0.00779
G1 X234.884 Y20.510 E0.00850
G1 X235.197 Y20.763 E0.01261
G1 X235.454 Y21.154 E0.01467
G1 X235.568 Y21.533 E0.01242
G1 X235.586 Y21.775 E0.00762
G1 X235.568 Y22.018 E0.00762
G1 X235.454 Y22.397 E0.01242
G1 X235.208 Y22.771 E0.01405
G1 X235.008 Y22.956 E0.00852
G1 X234.666 Y23.156 E0.01243
G1 X234.209 Y23.266 E0.01471
G1 X233.810 Y23.237 E0.01257
G1 X233.549 Y23.160 E0.00851
G1 X233.327 Y23.051 E0.00777
G1 X233.016 Y22.805 E0.01242
G1 X232.845 Y22.558 E0.00943
G1 X232.801 Y22.702 E0.00471
G1 X232.581 Y23.106 E0.01443
G1 X232.384 Y23.355 E0.00993
G1 X232.384 Y24.762 E0.04414
G1 X228.810 Y24.762 E0.11207
G1 X228.810 Y23.355 E0.04414
G1 X228.614 Y23.106 E0.00993
G1 X228.394 Y22.702 E0.01443
G1 X228.254 Y22.248 E0.01489
G1 X228.207 Y21.775 E0.01489
G1 X228.254 Y21.303 E0.01489
G1 X228.394 Y20.849 E0.01489
G1 X228.614 Y20.444 E0.01443
G1 X228.810 Y20.196 E0.00993
G1 X228.810 Y18.848 E0.04226
G1 X229.187 Y19.165 F10800.000
;TYPE:External perimeter
G1 F1200.000
G1 X232.007 Y19.165 E0.08842
G1 X232.007 Y20.350 E0.03716
G1 X232.137 Y20.483 E0.00582
G1 X232.263 Y20.649 E0.00654
G1 X232.451 Y20.996 E0.01237
G1 X232.569 Y21.378 E0.01253
G1 X232.608 Y21.775 E0.01253
G1 X232.569 Y22.173 E0.01253
G1 X232.451 Y22.555 E0.01253
G1 X232.263 Y22.902 E0.01237
G1 X232.137 Y23.068 E0.00654
G1 X232.007 Y23.200 E0.00582
G1 X232.007 Y24.385 E0.03716
G1 X229.187 Y24.385 E0.08842
G1 X229.187 Y23.200 E0.03716
G1 X229.057 Y23.068 E0.00582
G1 X228.931 Y22.902 E0.00654
G1 X228.743 Y22.555 E0.01237
G1 X228.626 Y22.173 E0.01253
G1 X228.586 Y21.775 E0.01253
G1 X228.626 Y21.378 E0.01253
G1 X228.743 Y20.996 E0.01253
G1 X228.931 Y20.649 E0.01237
G1 X229.057 Y20.483 E0.00654
G1 X229.187 Y20.350 E0.00582
G1 X229.187 Y19.225 E0.03527
G1 X229.200 Y18.766 F10800.000
;WIPE_START
G1 F8640.000
G1 X232.007 Y19.165 E-0.74433
G1 X232.007 Y20.350 E-0.31272
G1 X232.137 Y20.483 E-0.04899
G1 X232.215 Y20.585 E-0.03396
;WIPE_END
G1 E-0.06000 F2400.000
G1 Z0.600 F10800.000
G1 X233.278 Y21.025
G1 Z0.200
G1 E1.20000 F2400.000
G1 F1200.000
G1 X233.425 Y20.891 E0.00622
G1 X233.687 Y20.741 E0.00946
G1 X234.034 Y20.665 E0.01114
G1 X234.333 Y20.689 E0.00941
G1 X234.501 Y20.740 E0.00551
G1 X234.679 Y20.829 E0.00622
G1 X234.914 Y21.019 E0.00949
G1 X235.109 Y21.315 E0.01111
G1 X235.195 Y21.602 E0.00940
G1 X235.208 Y21.775 E0.00544
G1 X235.195 Y21.948 E0.00544
G1 X235.109 Y22.236 E0.00940
G1 X234.918 Y22.525 E0.01088
G1 X234.782 Y22.651 E0.00579
G1 X234.523 Y22.802 E0.00940
G1 X234.178 Y22.885 E0.01114
G1 X233.877 Y22.864 E0.00945
G1 X233.687 Y22.808 E0.00623
G1 X233.529 Y22.731 E0.00550
G1 X233.294 Y22.544 E0.00940
G1 X233.093 Y22.255 E0.01104
G1 X233.004 Y21.972 E0.00932
G1 X232.985 Y21.768 E0.00641
G1 X233.041 Y21.428 E0.01082
G1 X233.171 Y21.161 E0.00929
G1 X233.241 Y21.072 E0.00357
G1 X233.217 Y20.836 F10800.000
;WIPE_START
G1 F8640.000
G1 X233.425 Y20.891 E-0.06805
G1 X233.687 Y20.741 E-0.07958
G1 X234.034 Y20.665 E-0.09379
G1 X234.333 Y20.689 E-0.07917
G1 X234.501 Y20.740 E-0.04634
G1 X234.679 Y20.829 E-0.05237
G1 X234.914 Y21.019 E-0.07989
G1 X235.109 Y21.315 E-0.09347
G1 X235.195 Y21.602 E-0.07913
G1 X235.208 Y21.775 E-0.04578
G1 X235.195 Y21.948 E-0.04579
G1 X235.109 Y22.236 E-0.07913
G1 X234.918 Y22.525 E-0.09159
G1 X234.782 Y22.651 E-0.04875
G1 X234.523 Y22.802 E-0.07915
G1 X234.236 Y22.871 E-0.07801
;WIPE_END
G1 E-0.06000 F2400.000
G1 Z0.600 F10800.000
G1 X238.714 Y30.961
G1 Z0.200
G1 E1.20000 F2400.000
;TYPE:Perimeter
G1 F1200.000
G1 X238.669 Y30.998 E0.00182
G1 X238.384 Y30.690 E0.01317
G1 X237.815 Y30.356 E0.02067
G1 X237.175 Y30.201 E0.02067
G1 X236.566 Y30.235 E0.01910
G1 X236.202 Y30.338 E0.01187
G1 X235.857 Y30.493 E0.01187
G1 X235.369 Y30.858 E0.01911
G1 X234.977 Y31.388 E0.02067
G1 X234.756 Y32.010 E0.02067
G1 X234.724 Y32.668 E0.02067
G1 X234.872 Y33.261 E0.01916
G1 X233.996 Y33.553 E0.02897
G1 X233.183 Y33.758 E0.02629
G1 X232.357 Y33.906 E0.02629
G1 X231.524 Y33.998 E0.02629
G1 X230.686 Y34.033 E0.02629
G1 X229.848 Y34.010 E0.02629
G1 X229.002 Y33.929 E0.02665
G1 X228.610 Y33.872 E0.01243
G1 X227.765 Y33.702 E0.02701
G1 X227.370 Y33.601 E0.01279
G1 X226.978 Y33.487 E0.01279
G1 X226.165 Y33.204 E0.02701
G1 X225.797 Y33.055 E0.01243
G1 X225.027 Y32.695 E0.02665
G1 X224.294 Y32.289 E0.02629
G1 X223.580 Y31.827 E0.02665
G1 X223.259 Y31.595 E0.01243
G1 X222.588 Y31.055 E0.02701
G1 X222.283 Y30.784 E0.01279
G1 X221.988 Y30.502 E0.01279
G1 X221.397 Y29.876 E0.02701
G1 X221.139 Y29.574 E0.01243
G1 X220.615 Y28.891 E0.02701
G1 X220.390 Y28.564 E0.01243
G1 X219.945 Y27.840 E0.02665
G1 X219.550 Y27.088 E0.02665
G1 X219.379 Y26.717 E0.01279
G1 X219.221 Y26.341 E0.01279
G1 X218.932 Y25.542 E0.02665
G1 X218.702 Y24.736 E0.02629
G1 X218.525 Y23.904 E0.02665
G1 X218.463 Y23.513 E0.01243
G1 X218.371 Y22.656 E0.02701
G1 X218.348 Y22.249 E0.01279
G1 X218.339 Y21.841 E0.01279
G1 X218.364 Y20.992 E0.02665
G1 X218.448 Y20.146 E0.02665
G1 X218.508 Y19.742 E0.01279
G1 X218.583 Y19.341 E0.01279
G1 X218.784 Y18.504 E0.02701
G1 X218.895 Y18.123 E0.01243
G1 X219.180 Y17.312 E0.02696
G1 X219.344 Y16.916 E0.01345
G1 X219.693 Y16.175 E0.02567
G1 X220.107 Y15.433 E0.02666
G1 X220.323 Y15.088 E0.01274
G1 X220.571 Y14.724 E0.01381
G1 X221.064 Y14.070 E0.02567
G1 X221.613 Y13.436 E0.02630
G1 X222.212 Y12.834 E0.02665
G1 X222.506 Y12.567 E0.01243
G1 X223.172 Y12.022 E0.02701
G1 X223.492 Y11.787 E0.01243
G1 X224.211 Y11.312 E0.02701
G1 X224.552 Y11.111 E0.01243
G1 X225.306 Y10.718 E0.02665
G1 X226.074 Y10.382 E0.02629
G1 X226.875 Y10.096 E0.02665
G1 X227.254 Y9.982 E0.01243
G1 X228.079 Y9.779 E0.02665
G1 X228.904 Y9.635 E0.02623
G1 X230.597 Y9.463 E0.05335
G1 X232.298 Y9.636 E0.05361
G1 X232.685 Y9.696 E0.01230
G1 X233.524 Y9.872 E0.02687
G1 X233.905 Y9.972 E0.01236
G1 X234.722 Y10.232 E0.02687
G1 X235.091 Y10.370 E0.01236
G1 X235.877 Y10.712 E0.02687
G1 X236.230 Y10.888 E0.01236
G1 X236.977 Y11.308 E0.02687
G1 X237.310 Y11.518 E0.01236
G1 X238.001 Y12.006 E0.02651
G1 X238.657 Y12.539 E0.02651
G1 X238.950 Y12.803 E0.01236
G1 X239.556 Y13.409 E0.02687
G1 X239.821 Y13.701 E0.01236
G1 X240.362 Y14.365 E0.02687
G1 X240.595 Y14.683 E0.01236
G1 X241.060 Y15.389 E0.02651
G1 X241.476 Y16.125 E0.02651
G1 X241.657 Y16.488 E0.01272
G1 X241.826 Y16.857 E0.01272
G1 X242.142 Y17.654 E0.02687
G1 X242.268 Y18.027 E0.01236
G1 X242.502 Y18.852 E0.02687
G1 X242.590 Y19.236 E0.01236
G1 X242.736 Y20.069 E0.02651
G1 X242.825 Y20.909 E0.02651
G1 X242.847 Y21.315 E0.01272
G1 X242.855 Y21.720 E0.01272
G1 X242.829 Y22.577 E0.02687
G1 X242.797 Y22.970 E0.01236
G1 X242.684 Y23.819 E0.02687
G1 X242.612 Y24.207 E0.01236
G1 X242.415 Y25.029 E0.02651
G1 X242.163 Y25.836 E0.02651
G1 X242.023 Y26.217 E0.01272
G1 X241.870 Y26.592 E0.01272
G1 X241.510 Y27.357 E0.02651
G1 X241.100 Y28.097 E0.02651
G1 X240.885 Y28.441 E0.01272
G1 X240.659 Y28.778 E0.01272
G1 X240.152 Y29.454 E0.02651
G1 X239.600 Y30.095 E0.02651
G1 X239.328 Y30.380 E0.01236
G1 X238.757 Y30.920 E0.02463
G1 X238.599 Y31.545 F10800.000
G1 F1200.000
G1 X238.493 Y31.363 E0.00659
G1 X238.145 Y30.987 E0.01608
G1 X237.672 Y30.709 E0.01718
G1 X237.140 Y30.580 E0.01718
G1 X236.629 Y30.609 E0.01605
G1 X236.331 Y30.693 E0.00969
G1 X236.049 Y30.820 E0.00970
G1 X235.639 Y31.126 E0.01605
G1 X235.314 Y31.567 E0.01718
G1 X235.130 Y32.084 E0.01718
G1 X235.103 Y32.631 E0.01718
G1 X235.227 Y33.128 E0.01606
G1 X235.398 Y33.455 E0.01159
G1 X234.922 Y33.647 E0.01610
G1 X234.100 Y33.915 E0.02710
G1 X233.262 Y34.126 E0.02710
G1 X232.412 Y34.280 E0.02710
G1 X231.552 Y34.374 E0.02710
G1 X230.689 Y34.410 E0.02710
G1 X229.825 Y34.387 E0.02710
G1 X228.956 Y34.304 E0.02736
G1 X228.545 Y34.243 E0.01304
G1 X227.681 Y34.070 E0.02762
G1 X226.863 Y33.847 E0.02658
G1 X226.032 Y33.557 E0.02762
G1 X225.646 Y33.401 E0.01304
G1 X224.856 Y33.031 E0.02736
G1 X224.100 Y32.612 E0.02710
G1 X223.367 Y32.138 E0.02736
G1 X223.030 Y31.895 E0.01303
G1 X222.344 Y31.343 E0.02762
G1 X222.027 Y31.061 E0.01329
G1 X221.721 Y30.768 E0.01329
G1 X221.116 Y30.128 E0.02762
G1 X220.846 Y29.811 E0.01303
G1 X220.310 Y29.112 E0.02762
G1 X220.074 Y28.770 E0.01303
G1 X219.617 Y28.027 E0.02736
G1 X219.211 Y27.254 E0.02736
G1 X219.034 Y26.869 E0.01329
G1 X218.870 Y26.478 E0.01329
G1 X218.573 Y25.658 E0.02736
G1 X218.336 Y24.827 E0.02710
G1 X218.154 Y23.973 E0.02736
G1 X218.089 Y23.563 E0.01304
G1 X217.995 Y22.687 E0.02762
G1 X217.971 Y22.264 E0.01329
G1 X217.962 Y21.840 E0.01329
G1 X217.988 Y20.967 E0.02736
G1 X218.073 Y20.099 E0.02736
G1 X218.136 Y19.680 E0.01329
G1 X218.214 Y19.263 E0.01329
G1 X218.419 Y18.406 E0.02762
G1 X218.536 Y18.008 E0.01304
G1 X218.828 Y17.178 E0.02758
M73 P0 R48
G1 X218.999 Y16.763 E0.01406
G1 X219.358 Y16.003 E0.02636
G1 X219.783 Y15.240 E0.02737
G1 X220.007 Y14.882 E0.01326
G1 X220.264 Y14.504 E0.01432
G1 X220.770 Y13.833 E0.02636
G1 X221.336 Y13.180 E0.02711
G1 X221.951 Y12.561 E0.02736
G1 X222.259 Y12.281 E0.01304
G1 X222.941 Y11.724 E0.02762
G1 X223.276 Y11.477 E0.01303
G1 X224.011 Y10.992 E0.02762
G1 X224.369 Y10.781 E0.01304
G1 X225.143 Y10.378 E0.02736
G1 X225.935 Y10.032 E0.02710
G1 X226.757 Y9.738 E0.02736
G1 X227.155 Y9.618 E0.01304
G1 X228.002 Y9.410 E0.02736
G1 X228.852 Y9.261 E0.02706
G1 X230.597 Y9.084 E0.05498
G1 X232.346 Y9.261 E0.05513
G1 X232.753 Y9.325 E0.01292
G1 X233.611 Y9.504 E0.02747
G1 X234.011 Y9.610 E0.01297
G1 X234.845 Y9.875 E0.02747
G1 X235.233 Y10.021 E0.01297
G1 X236.036 Y10.370 E0.02747
G1 X236.406 Y10.554 E0.01297
G1 X237.170 Y10.984 E0.02747
G1 X237.520 Y11.205 E0.01297
G1 X238.229 Y11.705 E0.02721
G1 X238.902 Y12.253 E0.02721
G1 X239.209 Y12.529 E0.01297
G1 X239.829 Y13.148 E0.02747
G1 X240.107 Y13.455 E0.01297
G1 X240.660 Y14.134 E0.02747
G1 X240.905 Y14.468 E0.01297
G1 X241.382 Y15.193 E0.02721
G1 X241.809 Y15.948 E0.02721
G1 X241.997 Y16.326 E0.01322
G1 X242.173 Y16.709 E0.01322
G1 X242.496 Y17.524 E0.02747
G1 X242.629 Y17.915 E0.01297
G1 X242.867 Y18.758 E0.02747
G1 X242.959 Y19.161 E0.01297
G1 X243.109 Y20.016 E0.02721
G1 X243.201 Y20.879 E0.02721
G1 X243.224 Y21.300 E0.01322
G1 X243.233 Y21.722 E0.01322
G1 X243.206 Y22.598 E0.02747
G1 X243.172 Y23.010 E0.01297
G1 X243.056 Y23.878 E0.02747
G1 X242.981 Y24.285 E0.01297
G1 X242.779 Y25.129 E0.02721
G1 X242.521 Y25.958 E0.02721
G1 X242.374 Y26.353 E0.01322
G1 X242.215 Y26.744 E0.01322
G1 X241.846 Y27.529 E0.02721
G1 X241.425 Y28.288 E0.02721
G1 X241.202 Y28.646 E0.01322
G1 X240.966 Y28.996 E0.01322
G1 X240.446 Y29.691 E0.02721
G1 X239.880 Y30.348 E0.02721
G1 X239.594 Y30.647 E0.01297
G1 X238.964 Y31.244 E0.02721
G1 X238.645 Y31.507 E0.01296
;WIPE_START
G1 F8640.000
G1 X238.493 Y31.363 E-0.05514
G1 X238.145 Y30.987 E-0.13530
G1 X237.672 Y30.709 E-0.14458
G1 X237.140 Y30.580 E-0.14459
G1 X236.629 Y30.609 E-0.13510
G1 X236.331 Y30.693 E-0.08159
G1 X236.049 Y30.820 E-0.08160
G1 X235.639 Y31.126 E-0.13512
G1 X235.314 Y31.567 E-0.14459
G1 X235.209 Y31.862 E-0.08239
;WIPE_END
G1 E-0.06000 F2400.000
G1 Z0.600 F10800.000
G1 X230.776 Y8.723
G1 Z0.200
G1 E1.20000 F2400.000
G1 F1200.000
G1 X232.394 Y8.887 E0.05100
G1 X232.821 Y8.954 E0.01354
G1 X233.697 Y9.137 E0.02807
G1 X234.116 Y9.247 E0.01357
G1 X234.969 Y9.519 E0.02807
G1 X235.374 Y9.671 E0.01357
G1 X236.195 Y10.028 E0.02807
G1 X236.583 Y10.221 E0.01357
G1 X237.363 Y10.660 E0.02807
G1 X237.729 Y10.891 E0.01357
G1 X238.457 Y11.404 E0.02792
G1 X239.147 Y11.966 E0.02792
G1 X239.469 Y12.256 E0.01357
G1 X240.103 Y12.888 E0.02807
G1 X240.393 Y13.209 E0.01357
G1 X240.959 Y13.903 E0.02807
G1 X241.215 Y14.252 E0.01357
G1 X241.704 Y14.996 E0.02792
G1 X242.142 Y15.771 E0.02792
G1 X242.520 Y16.561 E0.02745
G1 X242.850 Y17.393 E0.02807
G1 X242.989 Y17.803 E0.01357
G1 X243.233 Y18.665 E0.02807
G1 X243.329 Y19.087 E0.01357
G1 X243.483 Y19.964 E0.02792
G1 X243.577 Y20.849 E0.02792
G1 X243.610 Y21.724 E0.02745
G1 X243.583 Y22.619 E0.02807
G1 X243.547 Y23.050 E0.01357
G1 X243.429 Y23.938 E0.02807
G1 X243.350 Y24.363 E0.01357
G1 X243.143 Y25.229 E0.02792
G1 X242.878 Y26.079 E0.02792
G1 X242.726 Y26.490 E0.01373
