; generated by PrusaSlicer 2.3.1+win64 on 2022-12-18 at 16:52:06 UTC

; 

; external perimeters extrusion width = 0.45mm
; perimeters extrusion width = 0.45mm
; infill extrusion width = 0.45mm
; solid infill extrusion width = 0.45mm
; top infill extrusion width = 0.40mm
; first layer extrusion width = 0.42mm

M73 P0 R9
M73 Q0 S9
M201 X1000 Y1000 Z200 E5000 ; sets maximum accelerations, mm/sec^2
M203 X200 Y200 Z12 E120 ; sets maximum feedrates, mm/sec
M204 P1250 R1250 T1250 ; sets acceleration (P, T) and retract acceleration (R), mm/sec^2
M205 X8.00 Y8.00 Z0.40 E4.50 ; sets the jerk limits, mm/sec
M205 S0 T0 ; sets the minimum extruding and travel feed rate, mm/sec
M107
;TYPE:Custom
M862.3 P "MK3S" ; printer model check
M862.1 P0.4 ; nozzle diameter check
M115 U3.9.3 ; tell printer latest fw version
G90 ; use absolute coordinates
M83 ; extruder relative mode
M104 S215 ; set extruder temp
M140 S60 ; set bed temp
M190 S60 ; wait for bed temp
M109 S215 ; wait for extruder temp
G28 W ; home all without mesh bed level
G80 ; mesh bed leveling
G1 Y-3.0 F1000.0 ; go outside print area
G92 E0.0
G1 X60.0 E9.0 F1000.0 ; intro line
G1 X100.0 E12.5 F1000.0 ; intro line
G92 E0.0
M221 S95

; Don't change E values below. Excessive value can damage the printer.

M907 E538 ; set extruder motor current
G21 ; set units to millimeters
G90 ; use absolute coordinates
M83 ; use relative distances for extrusion
M900 K0.05 ; Filament gcode LA 1.5
M900 K30 ; Filament gcode LA 1.0
;LAYER_CHANGE
;Z:0.2
;HEIGHT:0.2
;BEFORE_LAYER_CHANGE
G92 E0.0
;0.2


M73 P1 R9
M73 Q1 S9
G1 E-0.80000 F2100.000
G1 Z0.400 F10800.000
;AFTER_LAYER_CHANGE
;0.2
; printing object led_lens.stl id:0 copy 0
G1 X192.692 Y17.171
G1 Z0.200
G1 E0.80000 F2100.000
M204 S1000
;TYPE:Perimeter
;WIDTH:0.42
G1 F1200.000
G1 X192.731 Y16.746 E0.01339
G1 X192.774 Y16.516 E0.00732
G1 X192.895 Y16.087 E0.01398
G1 X192.980 Y15.866 E0.00743
G1 X193.168 Y15.486 E0.01329
G1 X193.388 Y15.142 E0.01279
G1 X193.657 Y14.810 E0.01339
G1 X193.833 Y14.629 E0.00791
G1 X194.024 Y14.459 E0.00803
G1 X194.366 Y14.208 E0.01329
G1 X194.719 Y14.004 E0.01279
G1 X195.110 Y13.833 E0.01338
G1 X195.335 Y13.758 E0.00743
G1 X195.748 Y13.662 E0.01329
G1 X196.171 Y13.611 E0.01338
G1 X196.408 Y13.605 E0.00743
G1 X196.831 Y13.632 E0.01329
G1 X197.252 Y13.706 E0.01338
G1 X197.480 Y13.769 E0.00743
G1 X197.877 Y13.917 E0.01329
G1 X198.258 Y14.110 E0.01338
G1 X198.459 Y14.236 E0.00743
G1 X198.796 Y14.493 E0.01329
G1 X199.091 Y14.775 E0.01279
G1 X199.353 Y15.088 E0.01279
G1 X199.579 Y15.427 E0.01279
G1 X199.775 Y15.806 E0.01339
G1 X199.870 Y16.040 E0.00793
G1 X199.948 Y16.281 E0.00793
G1 X200.046 Y16.717 E0.01400
G1 X200.076 Y16.948 E0.00732
G1 X200.092 Y17.394 E0.01400
G1 X200.079 Y17.627 E0.00732
G1 X200.017 Y18.050 E0.01339
G1 X199.913 Y18.444 E0.01279
G1 X199.766 Y18.825 E0.01279
G1 X199.570 Y19.204 E0.01339
G1 X199.444 Y19.401 E0.00732
G1 X199.182 Y19.738 E0.01339
G1 X198.897 Y20.030 E0.01279
G1 X198.568 Y20.302 E0.01339
G1 X198.375 Y20.433 E0.00732
G1 X198.001 Y20.640 E0.01339
G1 X197.625 Y20.797 E0.01279
G1 X197.215 Y20.917 E0.01339
G1 X196.985 Y20.961 E0.00732
G1 X196.541 Y21.006 E0.01400
G1 X196.308 Y21.009 E0.00732
G1 X195.882 Y20.973 E0.01339
G1 X195.482 Y20.895 E0.01279
G1 X195.074 Y20.768 E0.01339
G1 X194.841 Y20.671 E0.00791
G1 X194.613 Y20.555 E0.00803
G1 X194.254 Y20.329 E0.01329
G1 X193.934 Y20.076 E0.01279
G1 X193.644 Y19.789 E0.01279
G1 X193.376 Y19.457 E0.01339
G1 X193.246 Y19.262 E0.00732
G1 X193.043 Y18.887 E0.01339
G1 X192.890 Y18.509 E0.01279
G1 X192.774 Y18.098 E0.01339
G1 X192.727 Y17.849 E0.00793
G1 X192.700 Y17.598 E0.00793
G1 X192.693 Y17.231 E0.01151
G1 X192.316 Y17.238 F10800.000
G1 F1200.000
G1 X192.357 Y16.694 E0.01711
G1 X192.406 Y16.430 E0.00841
G1 X192.537 Y15.968 E0.01507
G1 X192.634 Y15.714 E0.00852
G1 X192.839 Y15.300 E0.01448
G1 X193.082 Y14.922 E0.01410
G1 X193.374 Y14.560 E0.01459
G1 X193.572 Y14.356 E0.00889
G1 X193.787 Y14.166 E0.00901
G1 X194.159 Y13.892 E0.01448
G1 X194.549 Y13.667 E0.01410
G1 X194.974 Y13.481 E0.01457
G1 X195.232 Y13.395 E0.00852
G1 X195.682 Y13.290 E0.01448
G1 X196.144 Y13.235 E0.01458
G1 X196.415 Y13.227 E0.00852
G1 X196.876 Y13.257 E0.01448
G1 X197.334 Y13.338 E0.01458
G1 X197.596 Y13.409 E0.00852
G1 X198.029 Y13.571 E0.01448
G1 X198.444 Y13.781 E0.01458
G1 X198.674 Y13.926 E0.00852
G1 X199.041 Y14.206 E0.01448
G1 X199.366 Y14.517 E0.01410
G1 X199.655 Y14.861 E0.01409
G1 X199.904 Y15.235 E0.01409
G1 X200.118 Y15.648 E0.01459
G1 X200.225 Y15.911 E0.00890
G1 X200.312 Y16.182 E0.00890
G1 X200.417 Y16.651 E0.01508
G1 X200.452 Y16.917 E0.00841
G1 X200.470 Y17.398 E0.01508
G1 X200.455 Y17.665 E0.00841
G1 X200.387 Y18.126 E0.01459
G1 X200.272 Y18.560 E0.01409
G1 X200.111 Y18.980 E0.01409
G1 X199.897 Y19.393 E0.01459
G1 X199.752 Y19.619 E0.00841
G1 X199.467 Y19.986 E0.01459
G1 X199.153 Y20.308 E0.01409
G1 X198.794 Y20.604 E0.01459
G1 X198.572 Y20.755 E0.00841
G1 X198.165 Y20.980 E0.01459
G1 X197.750 Y21.153 E0.01409
G1 X197.304 Y21.283 E0.01459
G1 X197.041 Y21.335 E0.00841
G1 X196.562 Y21.383 E0.01508
G1 X196.294 Y21.386 E0.00841
G1 X195.830 Y21.347 E0.01459
G1 X195.389 Y21.261 E0.01409
G1 X194.945 Y21.122 E0.01459
G1 X194.683 Y21.013 E0.00889
G1 X194.427 Y20.883 E0.00901
G1 X194.036 Y20.638 E0.01448
G1 X193.684 Y20.358 E0.01410
G1 X193.364 Y20.042 E0.01409
G1 X193.072 Y19.680 E0.01459
G1 X192.923 Y19.457 E0.00841
G1 X192.702 Y19.048 E0.01459
G1 X192.533 Y18.631 E0.01409
G1 X192.406 Y18.184 E0.01459
G1 X192.354 Y17.905 E0.00890
G1 X192.323 Y17.622 E0.00890
G1 X192.317 Y17.298 E0.01017
G1 X191.940 Y17.305 F10800.000
G1 F1200.000
G1 X191.937 Y17.143 E0.00507
G1 X191.983 Y16.642 E0.01578
G1 X192.038 Y16.344 E0.00950
G1 X192.179 Y15.848 E0.01616
G1 X192.289 Y15.562 E0.00961
G1 X192.511 Y15.114 E0.01568
G1 X192.775 Y14.701 E0.01540
G1 X193.092 Y14.309 E0.01578
G1 X193.311 Y14.083 E0.00987
G1 X193.550 Y13.872 E0.00999
G1 X193.953 Y13.576 E0.01568
G1 X194.378 Y13.330 E0.01540
G1 X194.839 Y13.128 E0.01577
G1 X195.130 Y13.032 E0.00961
G1 X195.617 Y12.918 E0.01568
G1 X196.116 Y12.858 E0.01578
G1 X196.422 Y12.850 E0.00961
G1 X196.921 Y12.882 E0.01568
G1 X197.417 Y12.969 E0.01578
G1 X197.712 Y13.050 E0.00961
G1 X198.181 Y13.226 E0.01568
G1 X198.630 Y13.453 E0.01578
G1 X198.889 Y13.616 E0.00961
G1 X199.286 Y13.919 E0.01568
G1 X199.642 Y14.259 E0.01540
G1 X199.957 Y14.635 E0.01540
G1 X200.230 Y15.043 E0.01540
G1 X200.461 Y15.490 E0.01578
G1 X200.580 Y15.782 E0.00988
G1 X200.676 Y16.082 E0.00988
G1 X200.789 Y16.585 E0.01617
G1 X200.828 Y16.886 E0.00950
G1 X200.847 Y17.401 E0.01617
G1 X200.830 Y17.704 E0.00950
G1 X200.757 Y18.202 E0.01578
G1 X200.632 Y18.676 E0.01540
G1 X200.455 Y19.135 E0.01540
G1 X200.224 Y19.582 E0.01578
G1 X200.061 Y19.837 E0.00950
G1 X199.751 Y20.234 E0.01578
G1 X199.409 Y20.586 E0.01540
G1 X199.020 Y20.906 E0.01578
G1 X198.770 Y21.076 E0.00950
G1 X198.330 Y21.320 E0.01578
G1 X197.876 Y21.509 E0.01540
G1 X197.393 Y21.650 E0.01578
G1 X197.096 Y21.708 E0.00950
G1 X196.583 Y21.760 E0.01617
M73 Q2 S9
G1 X196.280 Y21.763 E0.00950
G1 X195.778 Y21.721 E0.01578
G1 X195.297 Y21.627 E0.01540
G1 X194.816 Y21.477 E0.01578
G1 X194.525 Y21.356 E0.00987
G1 X194.241 Y21.212 E0.00999
G1 X193.818 Y20.946 E0.01568
G1 X193.433 Y20.641 E0.01540
G1 X193.084 Y20.295 E0.01540
G1 X192.768 Y19.904 E0.01578
G1 X192.600 Y19.652 E0.00950
G1 X192.360 Y19.209 E0.01578
G1 X192.175 Y18.754 E0.01540
G1 X192.038 Y18.270 E0.01578
M73 P2 R9
G1 X191.981 Y17.960 E0.00988
G1 X191.946 Y17.647 E0.00988
G1 X191.941 Y17.365 E0.00883
G1 X191.560 Y17.129 F10800.000
G1 F1200.000
G1 X191.609 Y16.590 E0.01698
G1 X191.671 Y16.258 E0.01058
G1 X191.821 Y15.729 E0.01725
G1 X191.943 Y15.411 E0.01069
G1 X192.182 Y14.928 E0.01687
G1 X192.469 Y14.480 E0.01670
G1 X192.809 Y14.059 E0.01698
G1 X193.051 Y13.811 E0.01085
G1 X193.313 Y13.578 E0.01097
G1 X193.746 Y13.260 E0.01687
G1 X194.208 Y12.994 E0.01670
G1 X194.703 Y12.776 E0.01697
G1 X195.027 Y12.668 E0.01069
G1 X195.551 Y12.546 E0.01687
G1 X196.089 Y12.482 E0.01697
G1 X196.429 Y12.472 E0.01069
G1 X196.966 Y12.507 E0.01687
G1 X197.500 Y12.601 E0.01697
G1 X197.829 Y12.691 E0.01069
G1 X198.332 Y12.880 E0.01687
G1 X198.815 Y13.124 E0.01697
G1 X199.104 Y13.306 E0.01069
G1 X199.532 Y13.632 E0.01687
G1 X199.917 Y14.000 E0.01670
G1 X200.259 Y14.408 E0.01670
G1 X200.555 Y14.851 E0.01670
G1 X200.804 Y15.332 E0.01698
G1 X200.934 Y15.653 E0.01086
G1 X201.041 Y15.983 E0.01086
G1 X201.161 Y16.520 E0.01726
G1 X201.204 Y16.855 E0.01058
G1 X201.224 Y17.405 E0.01726
G1 X201.206 Y17.742 E0.01058
G1 X201.127 Y18.277 E0.01698
G1 X200.991 Y18.792 E0.01670
G1 X200.800 Y19.289 E0.01670
G1 X200.551 Y19.770 E0.01698
G1 X200.369 Y20.055 E0.01058
G1 X200.036 Y20.482 E0.01698
G1 X199.665 Y20.864 E0.01670
G1 X199.247 Y21.208 E0.01698
G1 X198.968 Y21.398 E0.01058
G1 X198.494 Y21.660 E0.01698
G1 X198.002 Y21.865 E0.01670
G1 X197.483 Y22.017 E0.01698
G1 X197.151 Y22.082 E0.01058
G1 X196.604 Y22.137 E0.01726
G1 X196.266 Y22.140 E0.01058
G1 X195.727 Y22.095 E0.01698
G1 X195.204 Y21.993 E0.01670
G1 X194.687 Y21.832 E0.01698
G1 X194.368 Y21.699 E0.01085
G1 X194.055 Y21.540 E0.01097
G1 X193.600 Y21.254 E0.01687
G1 X193.182 Y20.923 E0.01670
G1 X192.804 Y20.548 E0.01670
G1 X192.464 Y20.127 E0.01698
G1 X192.276 Y19.846 E0.01058
G1 X192.019 Y19.370 E0.01698
G1 X191.818 Y18.877 E0.01670
G1 X191.671 Y18.356 E0.01698
G1 X191.608 Y18.015 E0.01086
G1 X191.569 Y17.671 E0.01086
G1 X191.561 Y17.189 E0.01510
G1 X191.184 Y17.196 F10800.000
G1 F1200.000
G1 X191.235 Y16.538 E0.02069
G1 X191.303 Y16.172 E0.01167
G1 X191.462 Y15.610 E0.01834
G1 X191.598 Y15.259 E0.01178
G1 X191.853 Y14.743 E0.01806
G1 X192.163 Y14.259 E0.01801
G1 X192.527 Y13.808 E0.01817
G1 X192.790 Y13.538 E0.01183
G1 X193.076 Y13.285 E0.01195
G1 X193.540 Y12.944 E0.01806
G1 X194.037 Y12.657 E0.01801
G1 X194.568 Y12.424 E0.01817
G1 X194.924 Y12.305 E0.01178
G1 X195.485 Y12.174 E0.01806
G1 X196.061 Y12.105 E0.01817
G1 X196.437 Y12.095 E0.01178
G1 X197.011 Y12.132 E0.01806
G1 X197.582 Y12.233 E0.01817
G1 X197.945 Y12.332 E0.01178
G1 X198.484 Y12.534 E0.01806
G1 X199.001 Y12.796 E0.01817
G1 X199.319 Y12.995 E0.01178
G1 X199.777 Y13.345 E0.01806
G1 X200.193 Y13.742 E0.01801
G1 X200.562 Y14.182 E0.01800
G1 X200.880 Y14.660 E0.01800
G1 X201.147 Y15.174 E0.01817
G1 X201.289 Y15.524 E0.01184
G1 X201.405 Y15.883 E0.01184
G1 X201.533 Y16.454 E0.01834
G1 X201.580 Y16.823 E0.01167
G1 X201.602 Y17.408 E0.01834
G1 X201.581 Y17.780 E0.01167
G1 X201.497 Y18.353 E0.01817
G1 X201.350 Y18.908 E0.01800
G1 X201.144 Y19.444 E0.01800
G1 X200.878 Y19.959 E0.01817
G1 X200.677 Y20.273 E0.01167
G1 X200.321 Y20.730 E0.01817
G1 X199.921 Y21.142 E0.01800
G1 X199.473 Y21.510 E0.01817
G1 X199.165 Y21.719 E0.01167
G1 X198.658 Y22.000 E0.01817
G1 X198.128 Y22.221 E0.01800
G1 X197.572 Y22.384 E0.01817
G1 X197.207 Y22.455 E0.01167
G1 X196.625 Y22.514 E0.01834
G1 X196.252 Y22.517 E0.01167
G1 X195.675 Y22.470 E0.01817
G1 X195.111 Y22.359 E0.01800
G1 X194.558 Y22.186 E0.01817
G1 X194.210 Y22.041 E0.01183
G1 X193.870 Y21.869 E0.01195
G1 X193.382 Y21.563 E0.01806
G1 X192.932 Y21.206 E0.01801
G1 X192.524 Y20.802 E0.01800
G1 X192.159 Y20.351 E0.01817
G1 X191.953 Y20.041 E0.01167
G1 X191.677 Y19.531 E0.01817
G1 X191.461 Y18.999 E0.01800
G1 X191.303 Y18.442 E0.01817
G1 X191.234 Y18.070 E0.01184
G1 X191.193 Y17.695 E0.01184
G1 X191.185 Y17.256 E0.01376
G1 X190.808 Y17.263 F10800.000
;TYPE:External perimeter
G1 F1200.000
G1 X190.805 Y17.102 E0.00507
G1 X190.861 Y16.486 E0.01937
G1 X190.936 Y16.086 E0.01276
G1 X191.104 Y15.490 E0.01943
G1 X191.252 Y15.107 E0.01287
G1 X191.524 Y14.557 E0.01926
G1 X191.856 Y14.038 E0.01931
G1 X192.245 Y13.558 E0.01937
G1 X192.530 Y13.265 E0.01281
G1 X192.838 Y12.991 E0.01293
G1 X193.333 Y12.628 E0.01926
G1 X193.867 Y12.320 E0.01931
G1 X194.432 Y12.071 E0.01937
G1 X194.822 Y11.942 E0.01287
G1 X195.420 Y11.802 E0.01926
G1 X196.033 Y11.729 E0.01937
G1 X196.444 Y11.718 E0.01287
G1 X197.056 Y11.757 E0.01926
G1 X197.665 Y11.864 E0.01937
G1 X198.061 Y11.973 E0.01287
G1 X198.636 Y12.188 E0.01926
G1 X199.187 Y12.467 E0.01937
G1 X199.535 Y12.685 E0.01287
G1 X200.023 Y13.058 E0.01926
G1 X200.468 Y13.484 E0.01931
G1 X200.864 Y13.955 E0.01931
G1 X201.205 Y14.468 E0.01931
G1 X201.489 Y15.016 E0.01937
G1 X201.643 Y15.395 E0.01282
G1 X201.769 Y15.784 E0.01282
G1 X201.904 Y16.389 E0.01943
G1 X201.957 Y16.792 E0.01276
G1 X201.979 Y17.412 E0.01943
G1 X201.957 Y17.818 E0.01276
G1 X201.866 Y18.429 E0.01937
G1 X201.710 Y19.024 E0.01931
G1 X201.489 Y19.599 E0.01931
G1 X201.205 Y20.148 E0.01937
G1 X200.985 Y20.490 E0.01276
G1 X200.606 Y20.978 E0.01937
G1 X200.176 Y21.419 E0.01931
G1 X199.699 Y21.812 E0.01937
G1 X199.363 Y22.041 E0.01276
G1 X198.822 Y22.340 E0.01937
G1 X198.254 Y22.577 E0.01931
G1 X197.661 Y22.750 E0.01937
G1 X197.262 Y22.828 E0.01276
G1 X196.645 Y22.891 E0.01943
G1 X196.238 Y22.895 E0.01276
G1 X195.623 Y22.844 E0.01937
G1 X195.018 Y22.726 E0.01931
G1 X194.429 Y22.541 E0.01937
G1 X194.052 Y22.384 E0.01281
G1 X193.684 Y22.197 E0.01293
G1 X193.164 Y21.871 E0.01926
G1 X192.681 Y21.488 E0.01931
G1 X192.244 Y21.055 E0.01931
G1 X191.855 Y20.574 E0.01937
G1 X191.630 Y20.236 E0.01276
G1 X191.336 Y19.692 E0.01937
G1 X191.104 Y19.122 E0.01931
G1 X190.936 Y18.527 E0.01937
G1 X190.861 Y18.126 E0.01282
G1 X190.816 Y17.719 E0.01282
G1 X190.809 Y17.323 E0.01242
G1 X190.945 Y17.178 F10800.000
;WIPE_START
G1 F8640.000
G1 X190.805 Y17.102 E-0.05117
G1 X190.861 Y16.486 E-0.14265
G1 X190.936 Y16.086 E-0.09394
G1 X191.104 Y15.490 E-0.14308
G1 X191.252 Y15.107 E-0.09478
G1 X191.524 Y14.557 E-0.14181
G1 X191.741 Y14.219 E-0.09258
;WIPE_END
M73 Q3 S9
G1 E-0.04000 F2100.000
G1 Z0.600 F10800.000
G1 X198.040 Y14.127
G1 Z0.200
M73 P3 R9
G1 E0.80000 F2100.000
;TYPE:Solid infill
;WIDTH:0.422261
G1 F1200.000
G1 X198.891 Y14.978 E0.03797
G1 X199.126 Y15.257 E0.01152
G1 X199.335 Y15.571 E0.01188
G1 X199.516 Y15.920 E0.01241
G1 X199.641 Y16.264 E0.01153
G1 X197.428 Y14.051 E0.09869
G1 X197.190 Y13.982 E0.00783
G1 X196.751 Y13.910 E0.01403
G1 X199.791 Y16.950 E0.13560
G1 X199.803 Y17.499 E0.01731
G1 X196.197 Y13.893 E0.16084
G1 X195.725 Y13.957 E0.01503
G1 X199.742 Y17.974 E0.17917
G1 X199.628 Y18.397 E0.01381
G1 X195.299 Y14.068 E0.19309
G1 X194.920 Y14.225 E0.01295
G1 X199.472 Y18.778 E0.20307
G1 X199.284 Y19.126 E0.01249
G1 X194.574 Y14.415 E0.21014
G1 X194.259 Y14.638 E0.01214
G1 X199.058 Y19.436 E0.21406
G1 X198.805 Y19.720 E0.01198
G1 X193.979 Y14.893 E0.21528
G1 X193.725 Y15.176 E0.01198
G1 X198.522 Y19.973 E0.21399
G1 X198.212 Y20.200 E0.01211
G1 X193.502 Y15.489 E0.21012
G1 X193.415 Y15.625 E0.00510
G1 X193.311 Y15.835 E0.00737
G1 X197.866 Y20.390 E0.20318
G1 X197.483 Y20.543 E0.01301
G1 X193.153 Y16.213 E0.19315
G1 X193.039 Y16.636 E0.01380
G1 X197.062 Y20.658 E0.17944
G1 X196.584 Y20.718 E0.01516
G1 X192.981 Y17.114 E0.16074
G1 X192.995 Y17.665 E0.01738
G1 X196.032 Y20.702 E0.13546
M73 Q4 S9
G1 X195.551 Y20.621 E0.01538
G1 X195.352 Y20.558 E0.00660
G1 X193.137 Y18.343 E0.09881
M73 P4 R9
G1 X193.299 Y18.766 E0.01429
G1 X193.489 Y19.116 E0.01257
G1 X193.604 Y19.289 E0.00655
G1 X193.848 Y19.591 E0.01226
G1 X194.751 Y20.494 E0.04028
; stop printing object led_lens.stl id:0 copy 0
M106 S84.15
;LAYER_CHANGE
;Z:0.4
;HEIGHT:0.2
;BEFORE_LAYER_CHANGE
G92 E0.0
;0.4


;WIPE_START
G1 F8640.000
G1 X193.848 Y19.591 E-0.29484
G1 X193.604 Y19.289 E-0.08971
G1 X193.489 Y19.116 E-0.04792
G1 X193.299 Y18.766 E-0.09201
G1 X193.137 Y18.343 E-0.10458
G1 X193.538 Y18.744 E-0.13094
;WIPE_END
G1 E-0.04000 F2100.000
G1 Z0.600 F10800.000
;AFTER_LAYER_CHANGE
;0.4
; printing object led_lens.stl id:0 copy 0
G1 X193.065 Y19.000
G1 Z0.400
G1 E0.80000 F2100.000
M204 S800
;TYPE:Perimeter
;WIDTH:0.45
G1 F1125
G1 X192.910 Y18.669 E0.01237
G1 X192.772 Y18.240 E0.01524
G1 X192.717 Y17.993 E0.00858
G1 X192.665 Y17.583 E0.01399
G1 X192.657 Y17.170 E0.01398
G1 X192.697 Y16.739 E0.01464
G1 X192.739 Y16.510 E0.00789
G1 X192.862 Y16.077 E0.01524
G1 X192.953 Y15.840 E0.00858
G1 X193.137 Y15.470 E0.01399
G1 X193.360 Y15.122 E0.01398
G1 X193.632 Y14.786 E0.01464
G1 X194.012 Y14.424 E0.01777
G1 X194.346 Y14.180 E0.01399
