; generated by PrusaSlicer 2.3.1+win64 on 2022-12-18 at 19:59:17 UTC

; 

; external perimeters extrusion width = 0.45mm
; perimeters extrusion width = 0.45mm
; infill extrusion width = 0.45mm
; solid infill extrusion width = 0.45mm
; top infill extrusion width = 0.40mm
; first layer extrusion width = 0.42mm

M73 P0 R16
M73 Q0 S16
M201 X1000 Y1000 Z200 E5000 ; sets maximum accelerations, mm/sec^2
M203 X200 Y200 Z12 E120 ; sets maximum feedrates, mm/sec
M204 P1250 R1250 T1250 ; sets acceleration (P, T) and retract acceleration (R), mm/sec^2
M205 X8.00 Y8.00 Z0.40 E4.50 ; sets the jerk limits, mm/sec
M205 S0 T0 ; sets the minimum extruding and travel feed rate, mm/sec
M107
;TYPE:Custom
M862.3 P "MK3S" ; printer model check
M862.1 P0.4 ; nozzle diameter check
M115 U3.9.3 ; tell printer latest fw version
G90 ; use absolute coordinates
M83 ; extruder relative mode
M104 S215 ; set extruder temp
M140 S60 ; set bed temp
M190 S60 ; wait for bed temp
M109 S215 ; wait for extruder temp
G28 W ; home all without mesh bed level
G80 ; mesh bed leveling
G1 Y-3.0 F1000.0 ; go outside print area
G92 E0.0
G1 X60.0 E9.0 F1000.0 ; intro line
G1 X100.0 E12.5 F1000.0 ; intro line
G92 E0.0
M221 S95

; Don't change E values below. Excessive value can damage the printer.

M907 E538 ; set extruder motor current
G21 ; set units to millimeters
G90 ; use absolute coordinates
M83 ; use relative distances for extrusion
M900 K0.05 ; Filament gcode LA 1.5
M900 K30 ; Filament gcode LA 1.0
;LAYER_CHANGE
;Z:0.2
;HEIGHT:0.2
;BEFORE_LAYER_CHANGE
G92 E0.0
;0.2


G1 E-0.80000 F2100.000
G1 Z0.400 F10800.000
;AFTER_LAYER_CHANGE
;0.2
; printing object lens_cap.stl id:0 copy 0
G1 X200.004 Y27.971
G1 Z0.200
G1 E0.80000 F2100.000
M204 S1000
;TYPE:Perimeter
;WIDTH:0.42
G1 F1200.000
G1 X200.573 Y28.472 E0.02375
G1 X201.238 Y28.956 E0.02581
G1 X201.852 Y29.323 E0.02243
G1 X202.234 Y29.518 E0.01343
G1 X202.892 Y29.799 E0.02243
G1 X203.296 Y29.940 E0.01343
G1 X204.008 Y30.137 E0.02315
G1 X204.722 Y30.267 E0.02275
G1 X205.542 Y30.341 E0.02581
G1 X206.280 Y30.341 E0.02315
G1 X207.003 Y30.277 E0.02275
G1 X207.813 Y30.131 E0.02581
G1 X208.525 Y29.934 E0.02317
G1 X209.217 Y29.674 E0.02317
G1 X209.606 Y29.497 E0.01341
G1 X210.225 Y29.165 E0.02202
G1 X210.598 Y28.931 E0.01380
G1 X211.178 Y28.510 E0.02249
G1 X211.507 Y28.235 E0.01343
G1 X211.804 Y27.952 E0.01286
G1 X211.804 Y28.847 E0.02806
G1 X211.753 Y29.594 E0.02346
G1 X211.622 Y30.296 E0.02240
G1 X211.499 Y30.721 E0.01387
G1 X211.335 Y31.154 E0.01452
G1 X211.138 Y31.573 E0.01452
G1 X210.919 Y31.957 E0.01387
G1 X210.494 Y32.557 E0.02305
G1 X210.204 Y32.891 E0.01387
G1 X209.889 Y33.202 E0.01387
G1 X209.317 Y33.664 E0.02305
G1 X208.965 Y33.896 E0.01323
G1 X208.332 Y34.228 E0.02241
G1 X207.684 Y34.477 E0.02176
G1 X206.992 Y34.653 E0.02240
G1 X206.573 Y34.716 E0.01328
G1 X205.861 Y34.753 E0.02235
G1 X205.168 Y34.708 E0.02176
G1 X204.486 Y34.582 E0.02176
G1 X203.823 Y34.376 E0.02176
G1 X203.189 Y34.094 E0.02176
G1 X202.592 Y33.740 E0.02176
G1 X202.041 Y33.318 E0.02176
G1 X201.529 Y32.819 E0.02241
G1 X201.257 Y32.497 E0.01323
G1 X200.851 Y31.909 E0.02241
G1 X200.528 Y31.295 E0.02176
G1 X200.271 Y30.628 E0.02241
G1 X200.153 Y30.202 E0.01387
G1 X200.068 Y29.768 E0.01387
G1 X200.000 Y29.035 E0.02306
G1 X200.004 Y28.031 E0.03148
;WIPE_START
G1 F8640.000
G1 X200.573 Y28.472 E-0.16613
G1 X201.238 Y28.956 E-0.19005
G1 X201.852 Y29.323 E-0.16519
G1 X202.234 Y29.518 E-0.09890
G1 X202.790 Y29.756 E-0.13974
;WIPE_END
G1 E-0.04000 F2100.000
G1 Z0.600 F10800.000
G1 X199.632 Y27.010
M73 Q1 S16
G1 Z0.200
G1 E0.80000 F2100.000
G1 F1200.000
G1 X199.798 Y27.209 E0.00812
G1 X200.287 Y27.721 E0.02223
G1 X200.812 Y28.180 E0.02183
G1 X201.442 Y28.639 E0.02447
G1 X202.035 Y28.993 E0.02163
G1 X202.394 Y29.176 E0.01263
G1 X203.028 Y29.447 E0.02163
M73 P1 R16
G1 X203.409 Y29.580 E0.01263
G1 X204.092 Y29.769 E0.02223
G1 X204.777 Y29.893 E0.02183
G1 X205.170 Y29.938 E0.01240
G1 X205.554 Y29.964 E0.01207
G1 X206.263 Y29.964 E0.02223
G1 X206.957 Y29.902 E0.02183
G1 X207.725 Y29.764 E0.02447
G1 X208.408 Y29.575 E0.02224
G1 X209.073 Y29.326 E0.02224
G1 X209.439 Y29.159 E0.01262
G1 X210.035 Y28.839 E0.02123
G1 X210.387 Y28.619 E0.01300
G1 X210.946 Y28.212 E0.02168
G1 X211.256 Y27.954 E0.01263
G1 X211.768 Y27.464 E0.02224
G1 X212.181 Y26.992 E0.01965
G1 X212.181 Y28.860 E0.05856
G1 X212.128 Y29.641 E0.02456
G1 X211.989 Y30.384 E0.02368
G1 X211.857 Y30.840 E0.01491
G1 X211.683 Y31.301 E0.01544
G1 X211.473 Y31.747 E0.01544
G1 X211.237 Y32.160 E0.01491
G1 X210.791 Y32.790 E0.02421
G1 X210.479 Y33.150 E0.01491
G1 X210.140 Y33.483 E0.01492
G1 X209.540 Y33.969 E0.02421
G1 X209.157 Y34.221 E0.01439
G1 X208.488 Y34.573 E0.02368
G1 X207.799 Y34.837 E0.02315
G1 X207.067 Y35.023 E0.02368
G1 X206.611 Y35.092 E0.01444
G1 X205.859 Y35.131 E0.02363
G1 X205.122 Y35.083 E0.02316
G1 X204.396 Y34.948 E0.02315
G1 X203.690 Y34.730 E0.02315
G1 X203.015 Y34.430 E0.02315
G1 X202.381 Y34.053 E0.02315
G1 X201.794 Y33.603 E0.02315
G1 X201.253 Y33.077 E0.02368
G1 X200.957 Y32.726 E0.01439
G1 X200.528 Y32.104 E0.02368
G1 X200.184 Y31.451 E0.02315
G1 X199.912 Y30.747 E0.02368
G1 X199.785 Y30.288 E0.01491
G1 X199.695 Y29.821 E0.01491
G1 X199.623 Y29.052 E0.02422
G1 X199.631 Y27.070 E0.06214
;WIPE_START
G1 F8640.000
G1 X199.798 Y27.209 E-0.05001
G1 X200.287 Y27.721 E-0.16369
G1 X200.812 Y28.180 E-0.16080
G1 X201.442 Y28.639 E-0.18019
G1 X202.035 Y28.993 E-0.15932
G1 X202.212 Y29.083 E-0.04600
;WIPE_END
G1 E-0.04000 F2100.000
G1 Z0.600 F10800.000
G1 X199.260 Y25.834
G1 Z0.200
G1 E0.80000 F2100.000
G1 F1200.000
G1 X199.627 Y26.391 E0.02092
G1 X199.847 Y26.679 E0.01137
G1 X200.079 Y26.957 E0.01137
G1 X200.548 Y27.449 E0.02130
G1 X201.051 Y27.888 E0.02092
G1 X201.348 Y28.115 E0.01173
G1 X201.647 Y28.322 E0.01140
G1 X202.217 Y28.663 E0.02084
G1 X202.554 Y28.834 E0.01184
G1 X203.165 Y29.095 E0.02084
G1 X203.521 Y29.220 E0.01184
G1 X204.176 Y29.401 E0.02130
G1 X204.832 Y29.520 E0.02092
G1 X205.204 Y29.563 E0.01173
G1 X205.567 Y29.587 E0.01140
G1 X206.246 Y29.587 E0.02130
G1 X206.911 Y29.528 E0.02092
G1 X207.280 Y29.470 E0.01173
G1 X207.637 Y29.397 E0.01140
G1 X208.292 Y29.216 E0.02131
G1 X208.928 Y28.977 E0.02131
G1 X209.272 Y28.821 E0.01183
G1 X209.846 Y28.513 E0.02044
G1 X210.176 Y28.306 E0.01221
G1 X210.714 Y27.915 E0.02087
G1 X211.004 Y27.673 E0.01184
G1 X211.496 Y27.203 E0.02131
G1 X211.953 Y26.680 E0.02178
G1 X212.352 Y26.130 E0.02131
G1 X212.558 Y25.801 E0.01216
G1 X212.558 Y28.872 E0.09629
G1 X212.503 Y29.689 E0.02565
G1 X212.357 Y30.471 E0.02496
G1 X212.215 Y30.960 E0.01596
G1 X212.030 Y31.448 E0.01637
G1 X211.808 Y31.921 E0.01637
G1 X211.556 Y32.363 E0.01596
G1 X211.088 Y33.023 E0.02537
G1 X210.754 Y33.408 E0.01596
G1 X210.392 Y33.765 E0.01596
G1 X209.763 Y34.274 E0.02537
G1 X209.348 Y34.546 E0.01555
G1 X208.644 Y34.917 E0.02496
G1 X207.913 Y35.197 E0.02455
G1 X207.141 Y35.393 E0.02496
G1 X206.649 Y35.467 E0.01560
G1 X205.856 Y35.509 E0.02490
G1 X205.075 Y35.458 E0.02455
G1 X204.305 Y35.315 E0.02455
G1 X203.557 Y35.083 E0.02455
G1 X202.842 Y34.765 E0.02455
G1 X202.169 Y34.365 E0.02455
G1 X201.548 Y33.889 E0.02455
G1 X200.977 Y33.334 E0.02496
G1 X200.657 Y32.956 E0.01555
G1 X200.205 Y32.300 E0.02496
G1 X199.840 Y31.608 E0.02455
G1 X199.554 Y30.865 E0.02496
G1 X199.418 Y30.374 E0.01596
G1 X199.321 Y29.875 E0.01596
G1 X199.246 Y29.069 E0.02538
G1 X199.259 Y25.894 E0.09954
;WIPE_START
G1 F8640.000
G1 X199.627 Y26.391 E-0.14272
G1 X199.847 Y26.679 E-0.08370
G1 X200.079 Y26.957 E-0.08370
G1 X200.548 Y27.449 E-0.15687
G1 X201.051 Y27.888 E-0.15403
G1 X201.348 Y28.115 E-0.08641
G1 X201.535 Y28.245 E-0.05258
;WIPE_END
G1 E-0.04000 F2100.000
G1 Z0.600 F10800.000
G1 X198.890 Y24.111
G1 Z0.200
G1 E0.80000 F2100.000
G1 F1200.000
G1 X199.127 Y24.747 E0.02128
G1 X199.409 Y25.333 E0.02038
M73 P1 R15
G1 X199.583 Y25.639 E0.01104
G1 X199.935 Y26.173 E0.02004
G1 X200.360 Y26.706 E0.02140
G1 X200.809 Y27.176 E0.02037
G1 X201.289 Y27.596 E0.02000
G1 X201.570 Y27.810 E0.01107
G1 X201.851 Y28.005 E0.01073
G1 X202.400 Y28.333 E0.02004
G1 X202.714 Y28.492 E0.01104
G1 X203.301 Y28.744 E0.02004
G1 X203.634 Y28.860 E0.01104
G1 X204.260 Y29.033 E0.02037
G1 X204.888 Y29.147 E0.02000
G1 X205.580 Y29.210 E0.02179
G1 X206.229 Y29.210 E0.02037
G1 X206.865 Y29.153 E0.02000
G1 X207.213 Y29.099 E0.01107
G1 X207.549 Y29.030 E0.01073
G1 X208.175 Y28.857 E0.02038
G1 X208.784 Y28.629 E0.02038
G1 X209.104 Y28.483 E0.01103
G1 X209.656 Y28.186 E0.01966
G1 X209.965 Y27.993 E0.01141
G1 X210.483 Y27.617 E0.02007
G1 X210.753 Y27.391 E0.01104
G1 X211.223 Y26.942 E0.02038
G1 X211.658 Y26.445 E0.02072
G1 X212.040 Y25.919 E0.02038
G1 X212.227 Y25.620 E0.01104
G1 X212.535 Y25.048 E0.02038
G1 X212.795 Y24.440 E0.02072
G1 X212.935 Y24.009 E0.01424
G1 X212.935 Y28.885 E0.15290
G1 X212.878 Y29.736 E0.02674
G1 X212.724 Y30.558 E0.02624
G1 X212.573 Y31.079 E0.01700
G1 X212.378 Y31.595 E0.01730
G1 X212.143 Y32.095 E0.01730
G1 X211.874 Y32.566 E0.01700
G1 X211.385 Y33.256 E0.02653
G1 X211.030 Y33.666 E0.01700
G1 X210.643 Y34.047 E0.01700
G1 X209.985 Y34.579 E0.02653
G1 X209.540 Y34.872 E0.01671
G1 X208.799 Y35.261 E0.02624
G1 X208.027 Y35.557 E0.02594
G1 X207.216 Y35.763 E0.02623
M73 Q1 S15
G1 X206.687 Y35.843 E0.01677
G1 X205.854 Y35.886 E0.02618
G1 X205.028 Y35.832 E0.02594
G1 X204.215 Y35.682 E0.02594
G1 X203.424 Y35.437 E0.02594
G1 X202.669 Y35.101 E0.02594
G1 X201.957 Y34.678 E0.02594
G1 X201.301 Y34.175 E0.02594
G1 X200.701 Y33.592 E0.02624
G1 X200.357 Y33.185 E0.01671
G1 X199.882 Y32.496 E0.02624
G1 X199.496 Y31.764 E0.02594
G1 X199.195 Y30.983 E0.02624
G1 X199.050 Y30.461 E0.01700
G1 X198.947 Y29.928 E0.01700
G1 X198.868 Y29.085 E0.02654
G1 X198.890 Y24.171 E0.15410
;WIPE_START
G1 F8640.000
G1 X199.127 Y24.747 E-0.14386
G1 X199.409 Y25.333 E-0.15010
G1 X199.583 Y25.639 E-0.08131
G1 X199.935 Y26.173 E-0.14759
G1 X200.360 Y26.706 E-0.15758
G1 X200.598 Y26.955 E-0.07956
;WIPE_END
G1 E-0.04000 F2100.000
G1 Z0.600 F10800.000
G1 X198.563 Y12.707
G1 Z0.200
G1 E0.80000 F2100.000
G1 F1200.000
G1 X198.912 Y12.707 E0.01096
G1 X198.912 Y21.868 E0.28723
G1 X198.939 Y22.472 E0.01897
G1 X198.976 Y22.797 E0.01024
G1 X199.086 Y23.401 E0.01925
G1 X199.256 Y24.018 E0.02007
G1 X199.474 Y24.599 E0.01945
G1 X199.743 Y25.158 E0.01945
G1 X199.904 Y25.442 E0.01024
G1 X200.242 Y25.954 E0.01925
G1 X200.642 Y26.455 E0.02007
G1 X201.070 Y26.903 E0.01945
G1 X201.528 Y27.304 E0.01908
G1 X202.055 Y27.688 E0.02045
G1 X202.582 Y28.002 E0.01925
G1 X202.873 Y28.151 E0.01024
G1 X203.438 Y28.392 E0.01925
G1 X203.746 Y28.500 E0.01024
G1 X204.344 Y28.665 E0.01945
G1 X204.943 Y28.774 E0.01908
G1 X205.592 Y28.833 E0.02045
G1 X206.213 Y28.833 E0.01945
G1 X206.819 Y28.779 E0.01908
G1 X207.460 Y28.663 E0.02045
G1 X208.059 Y28.498 E0.01945
G1 X208.639 Y28.280 E0.01945
G1 X208.937 Y28.145 E0.01024
G1 X209.467 Y27.860 E0.01887
G1 X209.754 Y27.681 E0.01061
G1 X210.251 Y27.320 E0.01926
G1 X210.501 Y27.110 E0.01024
G1 X210.950 Y26.681 E0.01945
G1 X211.362 Y26.209 E0.01966
G1 X211.727 Y25.707 E0.01945
M73 Q2 S15
G1 X211.901 Y25.431 E0.01024
G1 X212.195 Y24.884 E0.01945
G1 X212.441 Y24.308 E0.01966
G1 X212.635 Y23.711 E0.01966
G1 X212.775 Y23.100 E0.01966
G1 X212.859 Y22.479 E0.01966
G1 X212.886 Y21.868 E0.01918
G1 X212.886 Y12.707 E0.28723
M73 P2 R15
G1 X213.313 Y12.707 E0.01337
G1 X213.312 Y28.898 E0.50764
G1 X213.252 Y29.783 E0.02783
G1 X213.091 Y30.646 E0.02751
G1 X212.931 Y31.199 E0.01805
G1 X212.725 Y31.742 E0.01823
G1 X212.478 Y32.269 E0.01823
G1 X212.192 Y32.769 E0.01805
G1 X211.682 Y33.489 E0.02769
G1 X211.305 Y33.924 E0.01805
G1 X210.895 Y34.328 E0.01805
G1 X210.208 Y34.884 E0.02769
G1 X209.732 Y35.197 E0.01787
G1 X208.955 Y35.605 E0.02751
G1 X208.141 Y35.917 E0.02733
G1 X207.291 Y36.133 E0.02751
G1 X206.726 Y36.218 E0.01793
G1 X205.851 Y36.264 E0.02745
G1 X204.981 Y36.207 E0.02733
G1 X204.124 Y36.049 E0.02733
G1 X203.292 Y35.790 E0.02733
G1 X202.495 Y35.436 E0.02733
G1 X201.746 Y34.991 E0.02733
G1 X201.054 Y34.461 E0.02733
G1 X200.425 Y33.849 E0.02751
G1 X200.057 Y33.414 E0.01787
G1 X199.559 Y32.691 E0.02751
G1 X199.152 Y31.920 E0.02733
G1 X198.837 Y31.102 E0.02751
G1 X198.683 Y30.547 E0.01805
G1 X198.574 Y29.982 E0.01805
G1 X198.491 Y29.102 E0.02770
G1 X198.562 Y12.767 E0.51218
G1 X198.187 Y12.330 F10800.000
;TYPE:External perimeter
G1 F1200.000
G1 X199.289 Y12.330 E0.03455
G1 X199.289 Y21.859 E0.29879
G1 X199.315 Y22.443 E0.01831
G1 X199.349 Y22.742 E0.00945
G1 X199.454 Y23.321 E0.01845
G1 X199.613 Y23.897 E0.01874
G1 X199.821 Y24.450 E0.01852
G1 X200.077 Y24.983 E0.01852
G1 X200.226 Y25.245 E0.00945
G1 X200.550 Y25.736 E0.01845
G1 X200.923 Y26.203 E0.01874
G1 X201.331 Y26.630 E0.01852
G1 X201.767 Y27.011 E0.01816
G1 X202.260 Y27.370 E0.01911
G1 X202.765 Y27.672 E0.01845
G1 X203.033 Y27.809 E0.00945
G1 X203.574 Y28.040 E0.01845
G1 X203.859 Y28.140 E0.00945
G1 X204.428 Y28.297 E0.01852
G1 X204.998 Y28.401 E0.01816
G1 X205.605 Y28.456 E0.01911
G1 X206.196 Y28.456 E0.01852
G1 X206.773 Y28.404 E0.01816
G1 X207.372 Y28.296 E0.01911
G1 X207.942 Y28.139 E0.01852
G1 X208.495 Y27.932 E0.01852
G1 X208.769 Y27.807 E0.00945
G1 X209.277 Y27.534 E0.01808
G1 X209.543 Y27.368 E0.00981
G1 X210.019 Y27.022 E0.01846
G1 X210.250 Y26.829 E0.00945
G1 X210.677 Y26.421 E0.01852
G1 X211.067 Y25.974 E0.01860
G1 X211.415 Y25.496 E0.01852
G1 X211.575 Y25.241 E0.00945
G1 X211.855 Y24.721 E0.01852
G1 X212.088 Y24.175 E0.01860
G1 X212.271 Y23.611 E0.01860
G1 X212.403 Y23.033 E0.01860
G1 X212.483 Y22.445 E0.01860
G1 X212.509 Y21.859 E0.01838
G1 X212.509 Y12.330 E0.29879
G1 X213.690 Y12.330 E0.03702
G1 X213.689 Y28.910 E0.51986
G1 X213.627 Y29.831 E0.02893
G1 X213.458 Y30.733 E0.02879
G1 X213.289 Y31.318 E0.01909
G1 X213.073 Y31.890 E0.01916
G1 X212.812 Y32.442 E0.01916
G1 X212.511 Y32.971 E0.01909
G1 X211.979 Y33.722 E0.02885
G1 X211.580 Y34.182 E0.01909
G1 X211.146 Y34.610 E0.01909
G1 X210.431 Y35.188 E0.02885
G1 X209.924 Y35.522 E0.01903
G1 X209.111 Y35.949 E0.02879
G1 X208.256 Y36.277 E0.02872
G1 X207.366 Y36.503 E0.02879
G1 X206.764 Y36.594 E0.01909
G1 X205.849 Y36.642 E0.02873
G1 X204.935 Y36.582 E0.02872
G1 X204.034 Y36.415 E0.02872
G1 X203.159 Y36.144 E0.02872
G1 X202.322 Y35.772 E0.02872
G1 X201.534 Y35.304 E0.02872
G1 X200.807 Y34.747 E0.02872
G1 X200.148 Y34.107 E0.02879
G1 X199.757 Y33.643 E0.01903
G1 X199.236 Y32.887 E0.02879
G1 X198.808 Y32.077 E0.02872
G1 X198.478 Y31.220 E0.02879
G1 X198.316 Y30.633 E0.01909
G1 X198.200 Y30.035 E0.01909
G1 X198.114 Y29.119 E0.02886
G1 X198.187 Y12.390 E0.52453
G1 X198.534 Y12.530 F10800.000
;WIPE_START
G1 F8640.000
G1 X199.289 Y12.330 E-0.25491
G1 X199.289 Y14.517 E-0.50509
;WIPE_END
G1 E-0.04000 F2100.000
G1 Z0.600 F10800.000
G1 X198.732 Y22.529
G1 Z0.200
G1 E0.80000 F2100.000
;TYPE:Gap fill
;WIDTH:0.125805
G1 F1200.000
G1 X198.749 Y22.832 E0.00209
;WIDTH:0.164314
G1 X198.767 Y23.041 E0.00212
;WIDTH:0.202821
G1 X198.785 Y23.250 E0.00279
;WIDTH:0.242791
G1 X198.804 Y23.465 E0.00360
;WIDTH:0.283197
G1 X198.824 Y23.625 E0.00322
;WIDTH:0.30426
G1 X198.843 Y23.785 E0.00350
G1 X199.021 Y23.901 E0.00461
;WIPE_START
G1 F8640.000
G1 X198.843 Y23.785 E-0.04895
G1 X198.824 Y23.625 E-0.03724
;WIPE_END
G1 E-0.71381 F2100.000
G1 Z0.600 F10800.000
G1 X199.088 Y25.159
G1 Z0.200
G1 E0.80000 F2100.000
;WIDTH:0.223676
M73 Q3 S15
G1 F1200.000
G1 X199.209 Y25.652 E0.00763
;WIPE_START
G1 F8640.000
G1 X199.088 Y25.159 E-0.11728
;WIPE_END
G1 E-0.68272 F2100.000
G1 Z0.600 F10800.000
G1 X211.681 Y28.977
M73 P3 R15
G1 Z0.200
G1 E0.80000 F2100.000
;TYPE:Solid infill
;WIDTH:0.427296
G1 F1200.000
G1 X211.399 Y28.694 E0.01278
G1 X211.087 Y28.926 E0.01242
G1 X211.488 Y29.327 E0.01813
G1 X211.472 Y29.558 E0.00740
G1 X211.426 Y29.808 E0.00814
G1 X210.772 Y29.155 E0.02954
G1 X210.439 Y29.365 E0.01260
G1 X211.337 Y30.263 E0.04061
G1 X211.211 Y30.681 E0.01395
G1 X210.089 Y29.559 E0.05072
G1 X209.736 Y29.749 E0.01283
G1 X211.060 Y31.074 E0.05987
G1 X210.886 Y31.443 E0.01306
G1 X209.362 Y29.919 E0.06889
G1 X208.969 Y30.070 E0.01345
G1 X210.689 Y31.790 E0.07774
G1 X210.465 Y32.109 E0.01247
G1 X208.571 Y30.215 E0.08561
G1 X208.145 Y30.332 E0.01412
G1 X210.236 Y32.423 E0.09451
