; generated by PrusaSlicer 2.3.1+win64 on 2022-12-16 at 12:29:23 UTC

; 

; external perimeters extrusion width = 0.60mm
; perimeters extrusion width = 0.50mm
; infill extrusion width = 0.50mm
; solid infill extrusion width = 0.50mm
; top infill extrusion width = 0.45mm
; first layer extrusion width = 0.42mm

M73 P0 R11
M73 Q0 S11
M201 X1000 Y1000 Z200 E5000 ; sets maximum accelerations, mm/sec^2
M203 X200 Y200 Z12 E120 ; sets maximum feedrates, mm/sec
M204 P1250 R1250 T1250 ; sets acceleration (P, T) and retract acceleration (R), mm/sec^2
M205 X8.00 Y8.00 Z0.40 E4.50 ; sets the jerk limits, mm/sec
M205 S0 T0 ; sets the minimum extruding and travel feed rate, mm/sec
M107
;TYPE:Custom
M862.3 P "MK3S" ; printer model check
M862.1 P0.4 ; nozzle diameter check
M115 U3.9.3 ; tell printer latest fw version
G90 ; use absolute coordinates
M83 ; extruder relative mode
M104 S215 ; set extruder temp
M140 S60 ; set bed temp
M190 S60 ; wait for bed temp
M109 S215 ; wait for extruder temp
G28 W ; home all without mesh bed level
G80 ; mesh bed leveling
G1 Y-3.0 F1000.0 ; go outside print area
G92 E0.0
G1 X60.0 E9.0 F1000.0 ; intro line
G1 X100.0 E12.5 F1000.0 ; intro line
G92 E0.0
M221 S95

; Don't change E values below. Excessive value can damage the printer.

M907 E538 ; set extruder motor current
G21 ; set units to millimeters
G90 ; use absolute coordinates
M83 ; use relative distances for extrusion
M900 K0.05 ; Filament gcode LA 1.5
M900 K30 ; Filament gcode LA 1.0
;LAYER_CHANGE
;Z:0.2
;HEIGHT:0.2
;BEFORE_LAYER_CHANGE
G92 E0.0
;0.2


G1 E-0.80000 F2100.000
G1 Z0.400 F10800.000
;AFTER_LAYER_CHANGE
;0.2
; printing object plastic_middle_back_spacer.stl id:0 copy 0
G1 X210.757 Y29.360
M73 P1 R11
M73 Q1 S11
G1 Z0.200
G1 E0.80000 F2100.000
M204 S1000
;TYPE:Perimeter
;WIDTH:0.42
G1 F1200.000
G1 X210.818 Y28.990 E0.01177
G1 X210.971 Y28.496 E0.01620
G1 X211.130 Y28.156 E0.01175
G1 X211.319 Y27.845 E0.01141
G1 X211.658 Y27.425 E0.01694
G1 X212.056 Y27.073 E0.01666
G1 X212.369 Y26.865 E0.01177
G1 X212.690 Y26.699 E0.01135
G1 X213.028 Y26.568 E0.01135
G1 X213.378 Y26.475 E0.01135
G1 X213.736 Y26.421 E0.01134
G1 X214.099 Y26.406 E0.01141
G1 X214.624 Y26.455 E0.01653
G1 X214.991 Y26.541 E0.01181
G1 X215.332 Y26.663 E0.01135
G1 X215.658 Y26.820 E0.01134
G1 X215.966 Y27.013 E0.01141
G1 X216.382 Y27.359 E0.01694
G1 X216.728 Y27.761 E0.01666
G1 X216.932 Y28.077 E0.01177
G1 X217.094 Y28.401 E0.01135
G1 X217.220 Y28.740 E0.01135
G1 X217.311 Y29.104 E0.01177
G1 X217.368 Y29.618 E0.01620
G1 X217.357 Y29.993 E0.01177
G1 X217.306 Y30.365 E0.01177
G1 X217.163 Y30.875 E0.01662
G1 X216.939 Y31.355 E0.01661
G1 X216.735 Y31.670 E0.01177
G1 X216.507 Y31.951 E0.01135
G1 X216.249 Y32.206 E0.01135
G1 X215.965 Y32.430 E0.01135
G1 X215.659 Y32.622 E0.01134
G1 X215.331 Y32.781 E0.01141
G1 X214.830 Y32.946 E0.01653
G1 X214.459 Y33.012 E0.01181
G1 X214.085 Y33.038 E0.01177
G1 X213.569 Y33.003 E0.01620
G1 X213.202 Y32.926 E0.01177
G1 X212.858 Y32.814 E0.01135
G1 X212.527 Y32.665 E0.01135
G1 X212.215 Y32.482 E0.01135
G1 X211.926 Y32.265 E0.01134
G1 X211.660 Y32.017 E0.01141
G1 X211.326 Y31.609 E0.01653
G1 X211.130 Y31.287 E0.01181
G1 X210.971 Y30.947 E0.01177
G1 X210.818 Y30.453 E0.01620
G1 X210.757 Y30.083 E0.01177
G1 X210.737 Y29.721 E0.01135
G1 X210.754 Y29.420 E0.00947
G1 X211.186 Y29.077 F10800.000
G1 F1200.000
G1 X211.324 Y28.632 E0.01458
G1 X211.463 Y28.335 E0.01030
G1 X211.628 Y28.063 E0.00997
G1 X211.932 Y27.687 E0.01516
G1 X212.287 Y27.373 E0.01486
G1 X212.561 Y27.191 E0.01031
G1 X212.846 Y27.043 E0.01006
G1 X213.145 Y26.927 E0.01006
G1 X213.455 Y26.845 E0.01006
G1 X213.772 Y26.797 E0.01005
G1 X214.090 Y26.784 E0.00997
G1 X214.563 Y26.828 E0.01490
G1 X214.884 Y26.904 E0.01034
G1 X215.186 Y27.011 E0.01006
G1 X215.475 Y27.151 E0.01005
G1 X215.745 Y27.319 E0.00997
G1 X216.116 Y27.628 E0.01516
G1 X216.425 Y27.988 E0.01486
G1 X216.604 Y28.264 E0.01031
G1 X216.748 Y28.551 E0.01006
G1 X216.859 Y28.852 E0.01006
G1 X216.939 Y29.171 E0.01031
G1 X216.990 Y29.633 E0.01458
G1 X216.981 Y29.962 E0.01031
G1 X216.936 Y30.288 E0.01031
G1 X216.809 Y30.743 E0.01484
G1 X216.608 Y31.172 E0.01484
G1 X216.430 Y31.448 E0.01031
G1 X216.227 Y31.697 E0.01006
G1 X215.999 Y31.923 E0.01006
G1 X215.747 Y32.122 E0.01006
G1 X215.475 Y32.292 E0.01005
G1 X215.189 Y32.431 E0.00997
G1 X214.738 Y32.579 E0.01490
G1 X214.413 Y32.637 E0.01034
G1 X214.085 Y32.660 E0.01031
G1 X213.621 Y32.628 E0.01458
G1 X213.299 Y32.561 E0.01031
G1 X212.994 Y32.462 E0.01006
G1 X212.701 Y32.330 E0.01006
G1 X212.425 Y32.167 E0.01006
G1 X212.168 Y31.975 E0.01005
G1 X211.935 Y31.758 E0.00997
G1 X211.634 Y31.390 E0.01491
G1 X211.463 Y31.109 E0.01034
G1 X211.324 Y30.811 E0.01031
G1 X211.186 Y30.366 E0.01458
G1 X211.132 Y30.042 E0.01031
G1 X211.115 Y29.721 E0.01006
G1 X211.132 Y29.401 E0.01006
G1 X211.176 Y29.136 E0.00843
G1 X211.548 Y29.197 F10800.000
;TYPE:External perimeter
G1 F1200.000
G1 X211.676 Y28.769 E0.01403
G1 X211.796 Y28.513 E0.00885
G1 X211.937 Y28.280 E0.00854
G1 X212.205 Y27.948 E0.01337
G1 X212.517 Y27.672 E0.01306
G1 X212.752 Y27.516 E0.00886
G1 X213.001 Y27.387 E0.00877
G1 X213.262 Y27.286 E0.00877
G1 X213.532 Y27.215 E0.00877
G1 X213.808 Y27.173 E0.00876
G1 X214.080 Y27.161 E0.00854
G1 X214.502 Y27.201 E0.01328
G1 X214.777 Y27.266 E0.00887
G1 X215.041 Y27.359 E0.00877
G1 X215.292 Y27.481 E0.00876
G1 X215.523 Y27.625 E0.00854
G1 X215.851 Y27.898 E0.01337
G1 X216.123 Y28.214 E0.01306
G1 X216.276 Y28.451 E0.00886
G1 X216.401 Y28.701 E0.00877
G1 X216.498 Y28.964 E0.00877
G1 X216.567 Y29.238 E0.00886
G1 X216.612 Y29.649 E0.01296
G1 X216.605 Y29.931 E0.00886
G1 X216.566 Y30.211 E0.00886
G1 X216.454 Y30.612 E0.01306
G1 X216.278 Y30.989 E0.01306
G1 X216.124 Y31.226 E0.00886
G1 X215.948 Y31.443 E0.00877
G1 X215.749 Y31.640 E0.00877
G1 X215.529 Y31.813 E0.00877
G1 X215.292 Y31.962 E0.00876
G1 X215.048 Y32.081 E0.00854
G1 X214.645 Y32.213 E0.01328
G1 X214.367 Y32.263 E0.00887
G1 X214.085 Y32.282 E0.00886
G1 X213.672 Y32.254 E0.01296
G1 X213.396 Y32.196 E0.00886
G1 X213.130 Y32.110 E0.00877
G1 X212.875 Y31.995 E0.00877
G1 X212.634 Y31.853 E0.00877
G1 X212.410 Y31.685 E0.00876
G1 X212.211 Y31.500 E0.00853
G1 X211.943 Y31.172 E0.01328
G1 X211.796 Y30.930 E0.00887
G1 X211.676 Y30.674 E0.00886
G1 X211.554 Y30.279 E0.01296
G1 X211.508 Y30.001 E0.00886
G1 X211.492 Y29.721 E0.00877
G1 X211.538 Y29.256 E0.01465
G1 X211.251 Y28.929 F10800.000
;WIPE_START
G1 F8640.000
G1 X211.676 Y28.769 E-0.11706
G1 X211.796 Y28.513 E-0.06521
G1 X211.937 Y28.280 E-0.06286
G1 X212.205 Y27.948 E-0.09847
G1 X212.517 Y27.672 E-0.09621
G1 X212.752 Y27.516 E-0.06523
G1 X213.001 Y27.387 E-0.06457
G1 X213.262 Y27.286 E-0.06457
G1 X213.532 Y27.215 E-0.06457
G1 X213.794 Y27.175 E-0.06125
;WIPE_END
G1 E-0.04000 F2100.000
G1 Z0.600 F10800.000
G1 X210.291 Y29.007
G1 Z0.200
G1 E0.80000 F2100.000
;TYPE:Perimeter
G1 F1200.000
G1 X210.339 Y28.768 E0.00764
G1 X210.465 Y28.366 E0.01322
G1 X210.565 Y28.128 E0.00809
G1 X210.761 Y27.755 E0.01322
G1 X210.996 Y27.405 E0.01321
G1 X211.160 Y27.204 E0.00812
G1 X211.453 Y26.903 E0.01318
G1 X211.778 Y26.634 E0.01321
G1 X211.991 Y26.488 E0.00812
G1 X212.358 Y26.282 E0.01318
G1 X212.746 Y26.116 E0.01322
G1 X212.991 Y26.036 E0.00809
G1 X213.402 Y25.943 E0.01321
G1 X213.821 Y25.894 E0.01321
G1 X214.079 Y25.887 E0.00812
G1 X214.499 Y25.913 E0.01318
G1 X214.914 Y25.985 E0.01321
G1 X215.165 Y26.051 E0.00812
G1 X215.560 Y26.196 E0.01318
G1 X215.938 Y26.382 E0.01322
G1 X216.158 Y26.516 E0.00809
G1 X216.497 Y26.767 E0.01322
G1 X216.807 Y27.053 E0.01322
G1 X216.980 Y27.244 E0.00809
G1 X217.234 Y27.580 E0.01322
G1 X217.446 Y27.935 E0.01294
G1 X217.618 Y28.310 E0.01294
G1 X217.749 Y28.701 E0.01294
G1 X217.837 Y29.105 E0.01294
G1 X217.883 Y29.524 E0.01322
G1 X217.887 Y29.782 E0.00809
G1 X217.857 Y30.202 E0.01322
G1 X217.782 Y30.617 E0.01322
G1 X217.713 Y30.865 E0.00809
G1 X217.562 Y31.268 E0.01349
G1 X217.450 Y31.501 E0.00809
G1 X217.234 Y31.862 E0.01322
G1 X216.985 Y32.192 E0.01294
G1 X216.703 Y32.493 E0.01294
G1 X216.389 Y32.762 E0.01294
G1 X216.042 Y33.000 E0.01322
G1 X215.817 Y33.127 E0.00809
G1 X215.432 Y33.299 E0.01322
G1 X215.031 Y33.429 E0.01321
G1 X214.779 Y33.487 E0.00812
G1 X214.362 Y33.543 E0.01318
G1 X213.941 Y33.555 E0.01322
G1 X213.683 Y33.539 E0.00809
G1 X213.267 Y33.474 E0.01322
G1 X212.868 Y33.368 E0.01294
G1 X212.475 Y33.217 E0.01322
G1 X212.243 Y33.103 E0.00809
G1 X211.883 Y32.883 E0.01322
G1 X211.556 Y32.632 E0.01294
G1 X211.258 Y32.346 E0.01294
G1 X210.992 Y32.031 E0.01294
G1 X210.761 Y31.688 E0.01294
G1 X210.565 Y31.315 E0.01322
G1 X210.465 Y31.077 E0.00809
G1 X210.336 Y30.667 E0.01349
G1 X210.281 Y30.414 E0.00812
G1 X210.228 Y29.997 E0.01318
G1 X210.221 Y29.584 E0.01294
G1 X210.279 Y29.066 E0.01635
G1 X209.909 Y28.992 F10800.000
G1 F1200.000
G1 X209.973 Y28.674 E0.01016
G1 X210.111 Y28.236 E0.01438
G1 X210.223 Y27.967 E0.00915
G1 X210.437 Y27.561 E0.01438
G1 X210.693 Y27.181 E0.01438
G1 X210.878 Y26.953 E0.00918
G1 X211.197 Y26.625 E0.01435
G1 X211.551 Y26.333 E0.01438
G1 X211.792 Y26.167 E0.00918
G1 X212.191 Y25.943 E0.01435
G1 X212.613 Y25.763 E0.01438
G1 X212.891 Y25.673 E0.00915
G1 X213.338 Y25.571 E0.01438
G1 X213.794 Y25.517 E0.01438
G1 X214.086 Y25.509 E0.00918
G1 X214.543 Y25.538 E0.01435
G1 X214.995 Y25.616 E0.01438
G1 X215.278 Y25.691 E0.00918
G1 X215.708 Y25.848 E0.01435
G1 X216.120 Y26.051 E0.01438
G1 X216.369 Y26.203 E0.00915
G1 X216.738 Y26.476 E0.01438
G1 X217.075 Y26.787 E0.01438
G1 X217.271 Y27.003 E0.00915
G1 X217.547 Y27.370 E0.01438
G1 X217.780 Y27.759 E0.01422
G1 X217.969 Y28.171 E0.01422
G1 X218.113 Y28.601 E0.01422
G1 X218.210 Y29.044 E0.01422
G1 X218.259 Y29.500 E0.01438
G1 X218.265 Y29.792 E0.00915
G1 X218.232 Y30.249 E0.01438
G1 X218.150 Y30.701 E0.01438
G1 X218.072 Y30.982 E0.00915
G1 X217.909 Y31.417 E0.01455
G1 X217.782 Y31.680 E0.00915
G1 X217.547 Y32.073 E0.01438
G1 X217.274 Y32.435 E0.01422
G1 X216.964 Y32.766 E0.01422
G1 X216.619 Y33.061 E0.01422
G1 X216.241 Y33.321 E0.01438
G1 X215.987 Y33.464 E0.00915
G1 X215.568 Y33.652 E0.01438
G1 X215.132 Y33.793 E0.01438
G1 X214.846 Y33.858 E0.00918
G1 X214.393 Y33.920 E0.01435
G1 X213.934 Y33.932 E0.01438
G1 X213.643 Y33.914 E0.00915
G1 X213.189 Y33.844 E0.01438
G1 X212.751 Y33.727 E0.01422
M73 Q2 S11
G1 X212.323 Y33.562 E0.01438
G1 X212.061 Y33.433 E0.00915
G1 X211.670 Y33.195 E0.01438
G1 X211.310 Y32.918 E0.01422
G1 X210.982 Y32.605 E0.01422
G1 X210.690 Y32.258 E0.01422
G1 X210.437 Y31.882 E0.01422
G1 X210.223 Y31.476 E0.01438
G1 X210.111 Y31.207 E0.00915
G1 X209.972 Y30.764 E0.01455
G1 X209.909 Y30.478 E0.00918
G1 X209.852 Y30.024 E0.01435
G1 X209.843 Y29.570 E0.01422
G1 X209.898 Y29.051 E0.01638
G1 X209.528 Y28.977 F10800.000
;TYPE:External perimeter
G1 F1200.000
G1 X209.607 Y28.580 E0.01268
G1 X209.756 Y28.107 E0.01555
M73 P2 R11
G1 X209.882 Y27.806 E0.01021
G1 X210.113 Y27.367 E0.01555
G1 X210.390 Y26.956 E0.01555
G1 X210.596 Y26.702 E0.01025
G1 X210.941 Y26.348 E0.01552
G1 X211.323 Y26.032 E0.01555
G1 X211.593 Y25.847 E0.01025
G1 X212.024 Y25.604 E0.01552
G1 X212.480 Y25.409 E0.01555
G1 X212.790 Y25.309 E0.01021
G1 X213.274 Y25.198 E0.01555
G1 X213.766 Y25.141 E0.01555
G1 X214.093 Y25.132 E0.01025
G1 X214.587 Y25.163 E0.01552
G1 X215.076 Y25.247 E0.01555
G1 X215.392 Y25.331 E0.01025
G1 X215.857 Y25.501 E0.01552
G1 X216.302 Y25.720 E0.01555
G1 X216.580 Y25.890 E0.01021
G1 X216.978 Y26.185 E0.01555
G1 X217.343 Y26.521 E0.01555
G1 X217.562 Y26.763 E0.01021
G1 X217.860 Y27.159 E0.01555
G1 X218.114 Y27.583 E0.01549
G1 X218.320 Y28.032 E0.01549
G1 X218.477 Y28.500 E0.01549
G1 X218.583 Y28.983 E0.01549
G1 X218.636 Y29.476 E0.01555
G1 X218.642 Y29.802 E0.01021
G1 X218.606 Y30.297 E0.01555
G1 X218.518 Y30.785 E0.01555
G1 X218.431 Y31.099 E0.01021
G1 X218.256 Y31.565 E0.01561
G1 X218.115 Y31.858 E0.01021
G1 X217.860 Y32.284 E0.01555
G1 X217.563 Y32.679 E0.01549
G1 X217.225 Y33.039 E0.01549
G1 X216.850 Y33.361 E0.01549
G1 X216.441 Y33.641 E0.01555
G1 X216.157 Y33.801 E0.01021
G1 X215.704 Y34.004 E0.01555
G1 X215.232 Y34.157 E0.01555
G1 X214.914 Y34.230 E0.01025
G1 X214.423 Y34.296 E0.01552
G1 X213.927 Y34.310 E0.01555
G1 X213.602 Y34.289 E0.01021
G1 X213.112 Y34.214 E0.01555
G1 X212.634 Y34.087 E0.01549
G1 X212.172 Y33.908 E0.01555
G1 X211.879 Y33.764 E0.01021
G1 X211.456 Y33.506 E0.01555
G1 X211.064 Y33.205 E0.01549
G1 X210.707 Y32.863 E0.01549
G1 X210.389 Y32.485 E0.01549
G1 X210.113 Y32.076 E0.01549
G1 X209.882 Y31.637 E0.01555
G1 X209.756 Y31.336 E0.01021
G1 X209.607 Y30.861 E0.01561
G1 X209.537 Y30.542 E0.01025
G1 X209.475 Y30.051 E0.01552
G1 X209.466 Y29.557 E0.01549
G1 X209.516 Y29.035 E0.01642
G1 X209.900 Y28.830 F10800.000
;WIPE_START
G1 F8640.000
G1 X209.607 Y28.580 E-0.10723
G1 X209.756 Y28.107 E-0.11453
G1 X209.882 Y27.806 E-0.07521
G1 X210.113 Y27.367 E-0.11453
G1 X210.390 Y26.956 E-0.11453
G1 X210.596 Y26.702 E-0.07546
G1 X210.941 Y26.348 E-0.11429
G1 X211.089 Y26.226 E-0.04422
;WIPE_END
G1 E-0.04000 F2100.000
G1 Z0.600 F10800.000
G1 X210.517 Y29.210
G1 Z0.200
G1 E0.80000 F2100.000
;TYPE:Gap fill
;WIDTH:0.17948
G1 F1200.000
G1 X210.593 Y28.833 E0.00437
G1 X210.711 Y28.455 E0.00449
G1 X210.986 Y27.889 E0.00715
G1 X211.208 Y27.562 E0.00449
G1 X211.470 Y27.252 E0.00460
G1 X211.935 Y26.842 E0.00704
G1 X212.235 Y26.646 E0.00408
G1 X212.581 Y26.466 E0.00443
G1 X212.945 Y26.323 E0.00443
G1 X213.322 Y26.224 E0.00443
G1 X213.715 Y26.165 E0.00451
G1 X214.075 Y26.147 E0.00409
G1 X214.661 Y26.201 E0.00669
G1 X215.068 Y26.294 E0.00474
G1 X215.435 Y26.425 E0.00443
G1 X215.786 Y26.595 E0.00442
G1 X216.012 Y26.733 E0.00301
G1 X216.328 Y26.971 E0.00449
G1 X216.558 Y27.172 E0.00346
G1 X216.936 Y27.612 E0.00659
G1 X217.214 Y28.057 E0.00596
G1 X217.375 Y28.406 E0.00437
G1 X217.497 Y28.771 E0.00437
G1 X217.579 Y29.147 E0.00437
G1 X217.622 Y29.540 E0.00449
G1 X217.625 Y29.775 E0.00266
G1 X217.597 Y30.169 E0.00449
G1 X217.525 Y30.558 E0.00449
G1 X217.405 Y30.959 E0.00475
G1 X217.166 Y31.475 E0.00646
G1 X217.017 Y31.716 E0.00322
G1 X216.785 Y32.023 E0.00437
G1 X216.522 Y32.304 E0.00437
G1 X216.230 Y32.554 E0.00437
G1 X215.903 Y32.778 E0.00449
G1 X215.699 Y32.893 E0.00266
G1 X215.338 Y33.055 E0.00449
G1 X214.898 Y33.195 E0.00524
G1 X214.487 Y33.267 E0.00474
G1 X214.090 Y33.294 E0.00453
G1 X213.539 Y33.257 E0.00626
G1 X212.949 Y33.119 E0.00688
G1 X212.369 Y32.874 E0.00715
G1 X212.031 Y32.668 E0.00449
G1 X211.726 Y32.434 E0.00437
G1 X211.468 Y32.190 E0.00403
G1 X211.202 Y31.872 E0.00471
G1 X210.986 Y31.554 E0.00437
G1 X210.802 Y31.204 E0.00449
G1 X210.711 Y30.988 E0.00266
G1 X210.589 Y30.599 E0.00462
G1 X210.539 Y30.369 E0.00267
G1 X210.489 Y29.978 E0.00448
G1 X210.482 Y29.593 E0.00437
G1 X210.509 Y29.270 E0.00369
; stop printing object plastic_middle_back_spacer.stl id:0 copy 0
; printing object plastic_middle_front_spacer.stl id:3 copy 0
;WIPE_START
G1 F8640.000
G1 X210.593 Y28.833 E-0.10264
G1 X210.711 Y28.455 E-0.09136
G1 X210.986 Y27.889 E-0.14538
G1 X211.208 Y27.562 E-0.09131
G1 X211.470 Y27.252 E-0.09361
G1 X211.935 Y26.842 E-0.14315
G1 X212.235 Y26.646 E-0.08289
G1 X212.272 Y26.626 E-0.00966
;WIPE_END
G1 E-0.04000 F2100.000
G1 Z0.600 F10800.000
G1 X221.003 Y27.662
G1 Z0.200
G1 E0.80000 F2100.000
;TYPE:Perimeter
;WIDTH:0.42
G1 F1200.000
G1 X220.951 Y27.279 E0.01212
G1 X220.933 Y26.894 E0.01209
G1 X220.951 Y26.509 E0.01209
G1 X221.003 Y26.127 E0.01209
G1 X221.089 Y25.752 E0.01209
G1 X221.209 Y25.385 E0.01209
G1 X221.362 Y25.031 E0.01209
G1 X221.551 Y24.683 E0.01243
G1 X221.870 Y24.227 E0.01744
G1 X222.132 Y23.930 E0.01243
G1 X222.420 Y23.658 E0.01243
G1 X222.865 Y23.324 E0.01744
G1 X223.207 Y23.123 E0.01243
G1 X223.555 Y22.958 E0.01209
G1 X223.917 Y22.826 E0.01209
G1 X224.290 Y22.727 E0.01209
G1 X224.680 Y22.660 E0.01241
G1 X225.226 Y22.629 E0.01713
G1 X225.631 Y22.651 E0.01272
G1 X226.013 Y22.708 E0.01212
G1 X226.388 Y22.798 E0.01209
G1 X226.753 Y22.922 E0.01209
G1 X227.114 Y23.083 E0.01241
G1 X227.586 Y23.359 E0.01713
G1 X227.911 Y23.602 E0.01272
G1 X228.206 Y23.869 E0.01246
G1 X228.574 Y24.286 E0.01744
G1 X228.801 Y24.611 E0.01243
G1 X228.992 Y24.945 E0.01209
G1 X229.153 Y25.296 E0.01209
G1 X229.281 Y25.659 E0.01209
