; generated by PrusaSlicer 2.3.1+win64 on 2022-12-12 at 13:43:20 UTC

; 

; external perimeters extrusion width = 0.45mm
; perimeters extrusion width = 0.45mm
; infill extrusion width = 0.45mm
; solid infill extrusion width = 0.45mm
; top infill extrusion width = 0.40mm
; first layer extrusion width = 0.42mm

M73 P0 R34
M73 Q0 S34
M201 X1000 Y1000 Z200 E5000 ; sets maximum accelerations, mm/sec^2
M203 X200 Y200 Z12 E120 ; sets maximum feedrates, mm/sec
M204 P1250 R1250 T1250 ; sets acceleration (P, T) and retract acceleration (R), mm/sec^2
M205 X8.00 Y8.00 Z0.40 E4.50 ; sets the jerk limits, mm/sec
M205 S0 T0 ; sets the minimum extruding and travel feed rate, mm/sec
M107
;TYPE:Custom
M862.3 P "MK3S" ; printer model check
M862.1 P0.4 ; nozzle diameter check
M115 U3.9.3 ; tell printer latest fw version
G90 ; use absolute coordinates
M83 ; extruder relative mode
M104 S215 ; set extruder temp
M140 S67 ; set bed temp
M190 S67 ; wait for bed temp
M109 S215 ; wait for extruder temp
G28 W ; home all without mesh bed level
G80 ; mesh bed leveling
G1 Y-3.0 F1000.0 ; go outside print area
G92 E0.0
G1 X60.0 E9.0 F1000.0 ; intro line
G1 X100.0 E12.5 F1000.0 ; intro line
G92 E0.0
M221 S95

; Don't change E values below. Excessive value can damage the printer.

M907 E538 ; set extruder motor current
G21 ; set units to millimeters
G90 ; use absolute coordinates
M83 ; use relative distances for extrusion
M900 K0.05 ; Filament gcode LA 1.5
M900 K30 ; Filament gcode LA 1.0
;LAYER_CHANGE
;Z:0.2
;HEIGHT:0.2
;BEFORE_LAYER_CHANGE
G92 E0.0
;0.2


G1 E-1.20000 F2400.000
G1 Z0.400 F10800.000
;AFTER_LAYER_CHANGE
;0.2
; printing object mag_slider_base.stl id:2 copy 0
G1 X182.035 Y42.354
G1 Z0.200
G1 E1.20000 F2400.000
M204 S1000
;TYPE:Perimeter
;WIDTH:0.42
G1 F1200.000
G1 X195.253 Y42.354 E0.41443
G1 X195.253 Y50.081 E0.24229
G1 X182.035 Y50.081 E0.41443
G1 X182.035 Y42.414 E0.24041
G1 X181.658 Y41.977 F10800.000
G1 F1200.000
G1 X195.630 Y41.977 E0.43807
G1 X195.630 Y50.458 E0.26594
G1 X181.658 Y50.458 E0.43807
G1 X181.658 Y42.037 E0.26406
G1 X181.281 Y41.600 F10800.000
G1 F1200.000
G1 X196.007 Y41.600 E0.46172
G1 X196.007 Y50.836 E0.28958
G1 X181.281 Y50.836 E0.46172
G1 X181.281 Y41.660 E0.28770
G1 X180.904 Y41.223 F10800.000
;TYPE:External perimeter
G1 F1200.000
G1 X196.384 Y41.223 E0.48536
G1 X196.384 Y51.213 E0.31323
G1 X180.904 Y51.213 E0.48536
G1 X180.904 Y41.283 E0.31135
G1 X181.297 Y41.299 F10800.000
;WIPE_START
G1 F8640.000
G1 X185.224 Y41.266 E-1.14000
;WIPE_END
G1 E-0.06000 F2400.000
G1 Z0.600 F10800.000
G1 X195.140 Y43.241
G1 Z0.200
G1 E1.20000 F2400.000
;TYPE:Solid infill
;WIDTH:0.425651
G1 F1200.000
G1 X194.535 Y42.637 E0.02721
G1 X193.994 Y42.637 E0.01723
G1 X194.970 Y43.613 E0.04393
G1 X194.970 Y44.154 E0.01723
G1 X193.453 Y42.637 E0.06829
G1 X192.911 Y42.637 E0.01723
G1 X194.970 Y44.695 E0.09265
G1 X194.970 Y45.237 E0.01723
G1 X192.370 Y42.637 E0.11701
G1 X191.829 Y42.637 E0.01723
G1 X194.970 Y45.778 E0.14137
G1 X194.970 Y46.319 E0.01723
G1 X191.288 Y42.637 E0.16573
G1 X190.746 Y42.637 E0.01723
G1 X194.970 Y46.860 E0.19009
G1 X194.970 Y47.402 E0.01723
G1 X190.205 Y42.637 E0.21445
G1 X189.664 Y42.637 E0.01723
G1 X194.970 Y47.943 E0.23881
G1 X194.970 Y48.484 E0.01723
G1 X189.123 Y42.637 E0.26317
G1 X188.581 Y42.637 E0.01723
G1 X194.970 Y49.025 E0.28754
M73 Q1 S34
G1 X194.970 Y49.567 E0.01723
G1 X188.040 Y42.637 E0.31190
M73 P1 R34
G1 X187.499 Y42.637 E0.01723
G1 X194.661 Y49.799 E0.32233
G1 X194.120 Y49.799 E0.01723
G1 X186.958 Y42.637 E0.32233
G1 X186.416 Y42.637 E0.01723
G1 X193.578 Y49.799 E0.32233
G1 X193.037 Y49.799 E0.01723
G1 X185.875 Y42.637 E0.32233
G1 X185.334 Y42.637 E0.01723
G1 X192.496 Y49.799 E0.32233
G1 X191.954 Y49.799 E0.01723
G1 X184.793 Y42.637 E0.32233
G1 X184.251 Y42.637 E0.01723
G1 X191.413 Y49.799 E0.32233
G1 X190.872 Y49.799 E0.01723
G1 X183.710 Y42.637 E0.32233
G1 X183.169 Y42.637 E0.01723
G1 X190.331 Y49.799 E0.32233
G1 X189.789 Y49.799 E0.01723
G1 X182.627 Y42.637 E0.32233
G1 X182.318 Y42.637 E0.00984
G1 X182.318 Y42.869 E0.00738
G1 X189.248 Y49.799 E0.31189
G1 X188.707 Y49.799 E0.01723
G1 X182.318 Y43.410 E0.28753
G1 X182.318 Y43.951 E0.01723
G1 X188.166 Y49.799 E0.26317
G1 X187.624 Y49.799 E0.01723
G1 X182.318 Y44.492 E0.23881
G1 X182.318 Y45.034 E0.01723
G1 X187.083 Y49.799 E0.21445
G1 X186.542 Y49.799 E0.01723
G1 X182.318 Y45.575 E0.19009
G1 X182.318 Y46.116 E0.01723
G1 X186.001 Y49.799 E0.16573
G1 X185.459 Y49.799 E0.01723
G1 X182.318 Y46.658 E0.14137
G1 X182.318 Y47.199 E0.01723
G1 X184.918 Y49.799 E0.11701
G1 X184.377 Y49.799 E0.01723
G1 X182.318 Y47.740 E0.09265
G1 X182.318 Y48.281 E0.01723
G1 X183.836 Y49.799 E0.06829
G1 X183.294 Y49.799 E0.01723
G1 X182.318 Y48.823 E0.04393
G1 X182.318 Y49.364 E0.01723
G1 X182.923 Y49.968 E0.02720
; stop printing object mag_slider_base.stl id:2 copy 0
; printing object mag_slider_base.stl id:0 copy 0
;WIPE_START
G1 F8640.000
G1 X182.318 Y49.364 E-0.22557
G1 X182.318 Y48.823 E-0.14283
G1 X183.294 Y49.799 E-0.36425
G1 X183.836 Y49.799 E-0.14283
G1 X183.127 Y49.090 E-0.26451
;WIPE_END
G1 E-0.06000 F2400.000
G1 Z0.600 F10800.000
G1 X181.936 Y37.212
G1 Z0.200
G1 E1.20000 F2400.000
;TYPE:Perimeter
;WIDTH:0.42
G1 F1200.000
G1 X181.936 Y29.484 E0.24229
G1 X195.153 Y29.484 E0.41443
G1 X195.153 Y37.212 E0.24229
G1 X181.996 Y37.212 E0.41255
G1 X181.559 Y37.589 F10800.000
G1 F1200.000
G1 X181.559 Y29.107 E0.26594
G1 X195.530 Y29.107 E0.43807
G1 X195.530 Y37.589 E0.26594
G1 X181.619 Y37.589 E0.43619
G1 X181.181 Y37.966 F10800.000
G1 F1200.000
G1 X181.181 Y28.730 E0.28958
G1 X195.907 Y28.730 E0.46172
G1 X195.907 Y37.966 E0.28958
G1 X181.241 Y37.966 E0.45984
G1 X180.804 Y38.343 F10800.000
;TYPE:External perimeter
G1 F1200.000
G1 X180.804 Y28.353 E0.31323
G1 X196.284 Y28.353 E0.48536
G1 X196.284 Y38.343 E0.31323
G1 X180.864 Y38.343 E0.48348
G1 X180.935 Y37.965 F10800.000
;WIPE_START
G1 F8640.000
G1 X180.838 Y34.023 E-1.14000
;WIPE_END
G1 E-0.06000 F2400.000
G1 Z0.600 F10800.000
G1 X195.040 Y30.372
G1 Z0.200
M73 Q2 S34
G1 E1.20000 F2400.000
;TYPE:Solid infill
;WIDTH:0.425651
G1 F1200.000
G1 X194.435 Y29.767 E0.02721
G1 X193.894 Y29.767 E0.01723
G1 X194.870 Y30.743 E0.04393
G1 X194.870 Y31.285 E0.01723
M73 P2 R34
G1 X193.353 Y29.767 E0.06829
G1 X192.812 Y29.767 E0.01723
G1 X194.870 Y31.826 E0.09265
G1 X194.870 Y32.367 E0.01723
G1 X192.270 Y29.767 E0.11701
G1 X191.729 Y29.767 E0.01723
G1 X194.870 Y32.908 E0.14137
G1 X194.870 Y33.450 E0.01723
G1 X191.188 Y29.767 E0.16573
G1 X190.647 Y29.767 E0.01723
G1 X194.870 Y33.991 E0.19009
G1 X194.870 Y34.532 E0.01723
G1 X190.105 Y29.767 E0.21445
G1 X189.564 Y29.767 E0.01723
G1 X194.870 Y35.073 E0.23881
G1 X194.870 Y35.615 E0.01723
G1 X189.023 Y29.767 E0.26317
G1 X188.482 Y29.767 E0.01723
G1 X194.870 Y36.156 E0.28754
G1 X194.870 Y36.697 E0.01723
G1 X187.940 Y29.767 E0.31190
G1 X187.399 Y29.767 E0.01723
G1 X194.561 Y36.929 E0.32233
G1 X194.020 Y36.929 E0.01723
G1 X186.858 Y29.767 E0.32233
G1 X186.316 Y29.767 E0.01723
G1 X193.478 Y36.929 E0.32233
G1 X192.937 Y36.929 E0.01723
G1 X185.775 Y29.767 E0.32233
G1 X185.234 Y29.767 E0.01723
G1 X192.396 Y36.929 E0.32233
G1 X191.855 Y36.929 E0.01723
G1 X184.693 Y29.767 E0.32233
G1 X184.151 Y29.767 E0.01723
G1 X191.313 Y36.929 E0.32233
G1 X190.772 Y36.929 E0.01723
G1 X183.610 Y29.767 E0.32233
G1 X183.069 Y29.767 E0.01723
G1 X190.231 Y36.929 E0.32233
M73 P2 R33
M73 Q2 S33
G1 X189.690 Y36.929 E0.01723
G1 X182.528 Y29.767 E0.32233
G1 X182.218 Y29.767 E0.00984
G1 X182.218 Y29.999 E0.00738
G1 X189.148 Y36.929 E0.31189
G1 X188.607 Y36.929 E0.01723
G1 X182.218 Y30.540 E0.28753
G1 X182.218 Y31.082 E0.01723
G1 X188.066 Y36.929 E0.26317
G1 X187.525 Y36.929 E0.01723
G1 X182.218 Y31.623 E0.23881
G1 X182.218 Y32.164 E0.01723
G1 X186.983 Y36.929 E0.21445
G1 X186.442 Y36.929 E0.01723
G1 X182.218 Y32.705 E0.19009
G1 X182.218 Y33.247 E0.01723
G1 X185.901 Y36.929 E0.16573
G1 X185.359 Y36.929 E0.01723
G1 X182.218 Y33.788 E0.14137
G1 X182.218 Y34.329 E0.01723
G1 X184.818 Y36.929 E0.11701
G1 X184.277 Y36.929 E0.01723
G1 X182.218 Y34.871 E0.09265
G1 X182.218 Y35.412 E0.01723
G1 X183.736 Y36.929 E0.06829
G1 X183.194 Y36.929 E0.01723
G1 X182.218 Y35.953 E0.04393
G1 X182.218 Y36.494 E0.01723
G1 X182.823 Y37.099 E0.02720
; stop printing object mag_slider_base.stl id:0 copy 0
; printing object mag_slider.stl id:1 copy 0
;WIPE_START
G1 F8640.000
G1 X182.218 Y36.494 E-0.22557
G1 X182.218 Y35.953 E-0.14283
G1 X183.194 Y36.929 E-0.36425
G1 X183.736 Y36.929 E-0.14283
G1 X183.027 Y36.220 E-0.26451
;WIPE_END
G1 E-0.06000 F2400.000
G1 Z0.600 F10800.000
G1 X168.085 Y33.549
G1 Z0.200
G1 E1.20000 F2400.000
;TYPE:External perimeter
;WIDTH:0.42
G1 F1200.000
G1 X167.958 Y33.953 E0.01327
G1 X167.811 Y34.220 E0.00956
G1 X167.551 Y34.534 E0.01278
G1 X167.315 Y34.727 E0.00956
G1 X166.957 Y34.921 E0.01277
G1 X166.665 Y35.011 E0.00957
G1 X166.258 Y35.057 E0.01286
G1 X165.850 Y35.011 E0.01286
G1 X165.558 Y34.921 E0.00957
G1 X165.200 Y34.727 E0.01277
G1 X164.964 Y34.534 E0.00956
G1 X164.704 Y34.220 E0.01278
G1 X164.557 Y33.953 E0.00955
G1 X164.434 Y33.564 E0.01280
G1 X164.398 Y33.262 E0.00953
G1 X164.428 Y32.855 E0.01281
G1 X164.509 Y32.560 E0.00959
G1 X164.689 Y32.195 E0.01276
G1 X164.874 Y31.951 E0.00959
G1 X165.177 Y31.680 E0.01276
G1 X165.440 Y31.524 E0.00960
G1 X165.839 Y31.382 E0.01328
G1 X166.247 Y31.335 E0.01287
G1 X166.552 Y31.358 E0.00959
G1 X166.944 Y31.466 E0.01276
G1 X167.218 Y31.602 E0.00959
G1 X167.542 Y31.849 E0.01276
G1 X167.745 Y32.078 E0.00959
G1 X167.954 Y32.431 E0.01287
G1 X168.084 Y32.836 E0.01335
G1 X168.117 Y33.138 E0.00953
G1 X168.090 Y33.489 E0.01104
G1 X168.384 Y33.815 F10800.000
;WIPE_START
G1 F8640.000
G1 X167.958 Y33.953 E-0.12720
G1 X167.811 Y34.220 E-0.08042
G1 X167.551 Y34.534 E-0.10759
G1 X167.315 Y34.727 E-0.08046
G1 X166.957 Y34.921 E-0.10748
G1 X166.665 Y35.011 E-0.08058
G1 X166.258 Y35.057 E-0.10821
G1 X165.850 Y35.011 E-0.10821
G1 X165.558 Y34.921 E-0.08057
G1 X165.200 Y34.727 E-0.10748
G1 X164.964 Y34.534 E-0.08046
G1 X164.792 Y34.326 E-0.07133
;WIPE_END
G1 E-0.06000 F2400.000
G1 Z0.600 F10800.000
G1 X164.483 Y35.115
G1 Z0.200
G1 E1.20000 F2400.000
;TYPE:Perimeter
G1 F1200.000
G1 X164.422 Y35.115 E0.00193
G1 X164.422 Y35.061 E0.00167
G1 X164.437 Y35.077 E0.00068
;WIPE_START
G1 F8640.000
G1 X164.422 Y35.115 E-0.01066
G1 X164.422 Y35.061 E-0.01402
G1 X164.437 Y35.077 E-0.00576
;WIPE_END
G1 E-1.16955 F2400.000
G1 Z0.600 F10800.000
G1 X164.422 Y31.344
G1 Z0.200
G1 E1.20000 F2400.000
G1 F1200.000
G1 X164.422 Y31.277 E0.00210
G1 X164.498 Y31.276 E0.00238
G1 X164.466 Y31.304 E0.00131
;WIPE_START
G1 F8640.000
G1 X164.422 Y31.277 E-0.01381
G1 X164.498 Y31.276 E-0.02001
G1 X164.466 Y31.304 E-0.01099
;WIPE_END
G1 E-1.15519 F2400.000
G1 Z0.600 F10800.000
G1 X168.814 Y31.662
G1 Z0.200
G1 E1.20000 F2400.000
G1 F1200.000
G1 X171.299 Y31.662 E0.07792
G1 X171.299 Y29.332 E0.07307
G1 X177.716 Y29.332 E0.20122
G1 X177.716 Y37.060 E0.24229
G1 X171.299 Y37.060 E0.20122
G1 X171.299 Y34.729 E0.07307
G1 X168.822 Y34.730 E0.07767
G1 X169.003 Y34.400 E0.01181
G1 X169.203 Y33.766 E0.02082
G1 X169.254 Y33.119 E0.02035
G1 X169.195 Y32.599 E0.01641
G1 X168.993 Y31.964 E0.02089
G1 X168.844 Y31.713 E0.00915
;WIPE_START
G1 F8640.000
G1 X171.299 Y31.662 E-0.64788
G1 X171.299 Y29.797 E-0.49212
;WIPE_END
G1 E-0.06000 F2400.000
G1 Z0.600 F10800.000
G1 X170.922 Y35.106
G1 Z0.200
G1 E1.20000 F2400.000
G1 F1200.000
G1 X168.041 Y35.107 E0.09031
G1 X168.438 Y34.646 E0.01906
G1 X168.655 Y34.251 E0.01413
G1 X168.830 Y33.694 E0.01831
G1 X168.875 Y33.126 E0.01787
G1 X168.825 Y32.678 E0.01412
G1 X168.647 Y32.120 E0.01838
G1 X168.357 Y31.631 E0.01783
G1 X168.045 Y31.284 E0.01460
G1 X170.922 Y31.285 E0.09019
G1 X170.922 Y28.955 E0.07306
G1 X178.093 Y28.955 E0.22486
G1 X178.093 Y37.437 E0.26594
G1 X170.922 Y37.437 E0.22486
G1 X170.922 Y35.166 E0.07118
G1 X170.545 Y35.484 F10800.000
G1 F1200.000
G1 X166.990 Y35.484 E0.11147
G1 X166.362 Y35.973 E0.02493
G1 X165.944 Y36.365 E0.01799
G1 X166.102 Y35.609 E0.02422
G1 X164.785 Y35.495 E0.04143
G1 X164.045 Y35.488 E0.02323
G1 X164.045 Y33.487 E0.06277
G1 X164.063 Y33.644 E0.00498
G1 X164.209 Y34.102 E0.01507
G1 X164.391 Y34.433 E0.01182
G1 X164.697 Y34.803 E0.01506
M73 Q3 S33
G1 X164.989 Y35.041 E0.01183
G1 X165.411 Y35.270 E0.01504
G1 X165.772 Y35.382 E0.01185
G1 X166.258 Y35.437 E0.01531
G1 X166.743 Y35.382 E0.01531
G1 X167.104 Y35.270 E0.01185
G1 X167.526 Y35.041 E0.01504
G1 X167.818 Y34.803 E0.01183
G1 X168.124 Y34.433 E0.01506
G1 X168.306 Y34.102 E0.01184
G1 X168.458 Y33.622 E0.01579
G1 X168.496 Y33.132 E0.01539
G1 X168.454 Y32.757 E0.01183
G1 X168.301 Y32.275 E0.01586
M73 P3 R33
G1 X168.051 Y31.854 E0.01535
G1 X167.800 Y31.571 E0.01186
G1 X167.418 Y31.280 E0.01503
G1 X167.080 Y31.112 E0.01186
G1 X166.617 Y30.985 E0.01504
G1 X166.240 Y30.956 E0.01186
G1 X165.754 Y31.012 E0.01535
G1 X165.279 Y31.181 E0.01578
G1 X164.953 Y31.375 E0.01189
G1 X164.596 Y31.694 E0.01503
G1 X164.367 Y31.995 E0.01186
G1 X164.154 Y32.425 E0.01504
G1 X164.055 Y32.790 E0.01186
G1 X164.045 Y32.928 E0.00432
G1 X164.045 Y30.903 E0.06349
G1 X164.785 Y30.897 E0.02323
G1 X166.102 Y30.782 E0.04143
G1 X165.944 Y30.026 E0.02422
G1 X166.362 Y30.419 E0.01799
G1 X166.990 Y30.907 E0.02493
G1 X170.545 Y30.908 E0.11147
G1 X170.545 Y28.578 E0.07306
G1 X178.470 Y28.578 E0.24851
G1 X178.470 Y37.814 E0.28958
G1 X170.545 Y37.814 E0.24851
G1 X170.545 Y35.544 E0.07118
G1 X170.168 Y35.861 F10800.000
;TYPE:External perimeter
G1 F1200.000
G1 X167.119 Y35.861 E0.09558
G1 X166.607 Y36.260 E0.02033
G1 X166.222 Y36.621 E0.01657
G1 X165.909 Y37.018 E0.01586
G1 X165.478 Y37.330 E0.01668
G1 X165.469 Y36.793 E0.01686
G1 X165.646 Y35.948 E0.02706
G1 X164.768 Y35.872 E0.02764
G1 X163.668 Y35.862 E0.03449
G1 X163.668 Y30.529 E0.16723
G1 X164.768 Y30.520 E0.03449
G1 X165.646 Y30.444 E0.02764
G1 X165.469 Y29.599 E0.02706
G1 X165.478 Y29.061 E0.01686
G1 X165.909 Y29.373 E0.01668
G1 X166.222 Y29.770 E0.01586
G1 X166.607 Y30.132 E0.01657
G1 X167.119 Y30.530 E0.02033
G1 X170.168 Y30.531 E0.09558
G1 X170.168 Y28.201 E0.07306
G1 X178.848 Y28.201 E0.27216
G1 X178.848 Y38.191 E0.31323
G1 X170.168 Y38.191 E0.27216
G1 X170.168 Y35.921 E0.07118
G1 X169.998 Y35.498 F10800.000
;WIPE_START
G1 F8640.000
G1 X167.119 Y35.861 E-0.80463
G1 X166.607 Y36.260 E-0.17107
G1 X166.222 Y36.621 E-0.13945
G1 X166.164 Y36.695 E-0.02485
;WIPE_END
G1 E-0.06000 F2400.000
G1 Z0.600 F10800.000
G1 X165.835 Y36.521
G1 Z0.200
G1 E1.20000 F2400.000
;TYPE:Gap fill
;WIDTH:0.189997
G1 F1200.000
G1 X165.686 Y36.950 E0.00557
;WIPE_START
G1 F8640.000
G1 X165.835 Y36.521 E-0.12010
;WIPE_END
G1 E-1.07990 F2400.000
G1 Z0.600 F10800.000
G1 X165.040 Y35.317
G1 Z0.200
G1 E1.20000 F2400.000
;WIDTH:0.168479
G1 F1200.000
G1 X164.661 Y35.179 E0.00421
;WIPE_START
G1 F8640.000
G1 X165.040 Y35.317 E-0.10650
;WIPE_END
G1 E-1.09350 F2400.000
G1 Z0.600 F10800.000
G1 X165.835 Y29.871
G1 Z0.200
G1 E1.20000 F2400.000
;WIDTH:0.189999
G1 F1200.000
G1 X165.686 Y29.441 E0.00557
;WIPE_START
G1 F8640.000
G1 X165.835 Y29.871 E-0.12010
;WIPE_END
G1 E-1.07990 F2400.000
G1 Z0.600 F10800.000
G1 X176.810 Y29.445
G1 Z0.200
G1 E1.20000 F2400.000
;TYPE:Solid infill
;WIDTH:0.434666
G1 F1200.000
G1 X177.433 Y30.069 E0.02873
G1 X177.433 Y30.623 E0.01805
G1 X176.425 Y29.615 E0.04644
G1 X175.871 Y29.615 E0.01805
G1 X177.433 Y31.177 E0.07196
G1 X177.433 Y31.731 E0.01805
G1 X175.317 Y29.615 E0.09748
G1 X174.763 Y29.615 E0.01805
G1 X177.433 Y32.285 E0.12300
G1 X177.433 Y32.839 E0.01805
G1 X174.209 Y29.615 E0.14852
G1 X173.655 Y29.615 E0.01805
G1 X177.433 Y33.393 E0.17404
G1 X177.433 Y33.947 E0.01805
G1 X173.101 Y29.615 E0.19956
G1 X172.547 Y29.615 E0.01805
G1 X177.433 Y34.501 E0.22509
G1 X177.433 Y35.055 E0.01805
G1 X171.993 Y29.615 E0.25061
G1 X171.582 Y29.615 E0.01341
G1 X171.582 Y29.757 E0.00463
G1 X177.433 Y35.609 E0.26958
G1 X177.433 Y36.163 E0.01805
G1 X171.582 Y30.311 E0.26958
G1 X171.582 Y30.865 E0.01805
G1 X177.433 Y36.717 E0.26958
G1 X177.433 Y36.777 E0.00195
G1 X176.939 Y36.777 E0.01610
G1 X171.582 Y31.419 E0.24681
G1 X171.582 Y31.945 E0.01714
G1 X171.554 Y31.945 E0.00091
G1 X176.385 Y36.777 E0.22257
G1 X175.831 Y36.777 E0.01805
