; generated by PrusaSlicer 2.3.1+win64 on 2022-12-05 at 20:57:54 UTC

; 

; external perimeters extrusion width = 0.45mm
; perimeters extrusion width = 0.45mm
; infill extrusion width = 0.45mm
; solid infill extrusion width = 0.45mm
; top infill extrusion width = 0.40mm
; first layer extrusion width = 0.42mm

M73 P0 R37
M73 Q0 S38
M201 X1000 Y1000 Z200 E5000 ; sets maximum accelerations, mm/sec^2
M203 X200 Y200 Z12 E120 ; sets maximum feedrates, mm/sec
M204 P1250 R1250 T1250 ; sets acceleration (P, T) and retract acceleration (R), mm/sec^2
M205 X8.00 Y8.00 Z0.40 E4.50 ; sets the jerk limits, mm/sec
M205 S0 T0 ; sets the minimum extruding and travel feed rate, mm/sec
M107
;TYPE:Custom
M862.3 P "MK3S" ; printer model check
M862.1 P0.4 ; nozzle diameter check
M115 U3.9.3 ; tell printer latest fw version
G90 ; use absolute coordinates
M83 ; extruder relative mode
M104 S215 ; set extruder temp
M140 S67 ; set bed temp
M190 S67 ; wait for bed temp
M109 S215 ; wait for extruder temp
G28 W ; home all without mesh bed level
G80 ; mesh bed leveling
G1 Y-3.0 F1000.0 ; go outside print area
G92 E0.0
G1 X60.0 E9.0 F1000.0 ; intro line
G1 X100.0 E12.5 F1000.0 ; intro line
G92 E0.0
M221 S95

; Don't change E values below. Excessive value can damage the printer.
M907 E430 ; set extruder motor current
G21 ; set units to millimeters
G90 ; use absolute coordinates
M83 ; use relative distances for extrusion
M900 K0.05 ; Filament gcode LA 1.5
M900 K30 ; Filament gcode LA 1.0
;LAYER_CHANGE
;Z:0.2
;HEIGHT:0.2
;BEFORE_LAYER_CHANGE
G92 E0.0
;0.2


G1 E-1.20000 F2400.000
G1 Z0.400 F10800.000
;AFTER_LAYER_CHANGE
;0.2
; printing object one_way_bearing_for_clock_one.stl id:0 copy 0
G1 X194.146 Y30.220
G1 Z0.200
G1 E1.20000 F2400.000
M204 S1000
;TYPE:External perimeter
;WIDTH:0.42
G1 F1200.000
G1 X194.252 Y29.717 E0.01612
G1 X194.380 Y29.234 E0.01569
G1 X194.536 Y28.747 E0.01603
G1 X194.717 Y28.268 E0.01604
G1 X194.923 Y27.800 E0.01604
G1 X195.152 Y27.343 E0.01604
G1 X195.405 Y26.898 E0.01603
G1 X195.675 Y26.476 E0.01571
G1 X196.134 Y25.851 E0.02433
G1 X196.464 Y25.457 E0.01612
G1 X196.813 Y25.083 E0.01604
G1 X197.173 Y24.735 E0.01567
G1 X197.558 Y24.399 E0.01603
G1 X197.960 Y24.083 E0.01604
G1 X198.378 Y23.788 E0.01604
G1 X198.811 Y23.515 E0.01603
G1 X199.248 Y23.271 E0.01571
G1 X199.948 Y22.936 E0.02433
G1 X200.413 Y22.749 E0.01573
G1 X200.898 Y22.583 E0.01607
G1 X201.390 Y22.442 E0.01603
G1 X201.888 Y22.327 E0.01604
G1 X202.392 Y22.238 E0.01604
G1 X202.899 Y22.176 E0.01604
G1 X203.409 Y22.139 E0.01603
G1 X203.910 Y22.130 E0.01571
G1 X204.687 Y22.165 E0.02436
G1 X205.184 Y22.219 E0.01570
G1 X205.701 Y22.304 E0.01643
G1 X206.190 Y22.410 E0.01567
G1 X206.684 Y22.544 E0.01603
G1 X207.170 Y22.703 E0.01604
G1 X207.647 Y22.887 E0.01604
G1 X208.114 Y23.096 E0.01603
G1 X208.560 Y23.323 E0.01571
G1 X209.228 Y23.720 E0.02436
G1 X209.641 Y24.004 E0.01570
G1 X210.048 Y24.315 E0.01607
G1 X210.438 Y24.646 E0.01604
G1 X210.810 Y24.997 E0.01604
G1 X211.163 Y25.366 E0.01603
G1 X211.490 Y25.745 E0.01569
G1 X211.958 Y26.365 E0.02435
G1 X212.240 Y26.794 E0.01608
G1 X212.499 Y27.236 E0.01607
G1 X212.728 Y27.679 E0.01565
G1 X212.941 Y28.145 E0.01607
G1 X213.128 Y28.621 E0.01604
G1 X213.291 Y29.106 E0.01604
G1 X213.428 Y29.599 E0.01603
G1 X213.537 Y30.087 E0.01570
G1 X213.657 Y30.854 E0.02434
G1 X213.704 Y31.365 E0.01608
G1 X213.723 Y31.877 E0.01607
G1 X213.717 Y32.377 E0.01565
G1 X213.684 Y32.888 E0.01606
G1 X213.625 Y33.396 E0.01604
G1 X213.539 Y33.900 E0.01604
G1 X213.428 Y34.399 E0.01603
G1 X213.294 Y34.882 E0.01570
G1 X213.038 Y35.615 E0.02434
G1 X212.838 Y36.087 E0.01608
G1 X212.613 Y36.548 E0.01607
G1 X212.372 Y36.986 E0.01569
G1 X212.102 Y37.420 E0.01603
G1 X211.810 Y37.840 E0.01604
G1 X211.497 Y38.244 E0.01604
G1 X211.163 Y38.632 E0.01603
G1 X210.817 Y38.994 E0.01570
G1 X210.246 Y39.520 E0.02434
G1 X209.847 Y39.841 E0.01608
G1 X209.432 Y40.142 E0.01607
G1 X209.012 Y40.414 E0.01568
G1 X208.569 Y40.670 E0.01603
G1 X208.114 Y40.902 E0.01604
G1 X207.647 Y41.111 E0.01604
G1 X207.170 Y41.295 E0.01603
G1 X206.694 Y41.451 E0.01570
G1 X205.942 Y41.645 E0.02434
G1 X205.438 Y41.741 E0.01608
G1 X204.943 Y41.809 E0.01569
G1 X204.432 Y41.852 E0.01607
G1 X203.919 Y41.869 E0.01608
G1 X203.143 Y41.843 E0.02434
G1 X202.645 Y41.794 E0.01570
G1 X202.139 Y41.719 E0.01603
G1 X201.638 Y41.617 E0.01604
G1 X201.143 Y41.489 E0.01604
G1 X200.654 Y41.335 E0.01607
G1 X200.186 Y41.162 E0.01565
G1 X199.715 Y40.959 E0.01607
G1 X199.256 Y40.732 E0.01608
G1 X198.583 Y40.343 E0.02435
G1 X198.167 Y40.065 E0.01569
G1 X197.757 Y39.760 E0.01603
G1 X197.363 Y39.434 E0.01604
G1 X196.987 Y39.087 E0.01604
G1 X196.628 Y38.721 E0.01607
G1 X196.297 Y38.347 E0.01565
G1 X195.978 Y37.947 E0.01607
G1 X195.680 Y37.531 E0.01604
G1 X195.405 Y37.100 E0.01604
G1 X195.152 Y36.655 E0.01604
G1 X194.923 Y36.198 E0.01603
G1 X194.721 Y35.740 E0.01570
G1 X194.455 Y35.010 E0.02434
G1 X194.311 Y34.517 E0.01612
G1 X194.194 Y34.019 E0.01604
G1 X194.104 Y33.527 E0.01568
G1 X194.038 Y33.020 E0.01603
G1 X193.998 Y32.510 E0.01604
G1 X193.985 Y31.999 E0.01604
G1 X193.998 Y31.488 E0.01603
G1 X194.037 Y30.988 E0.01570
G1 X194.138 Y30.280 E0.02245
G1 X193.841 Y29.962 F10800.000
G1 X193.430 Y30.142
G1 F1200.000
G1 X193.634 Y29.227 E0.02936
G1 X193.947 Y28.258 E0.03196
G1 X194.353 Y27.322 E0.03196
G1 X194.847 Y26.431 E0.03196
G1 X195.424 Y25.590 E0.03196
G1 X196.079 Y24.809 E0.03196
G1 X196.806 Y24.095 E0.03196
G1 X197.599 Y23.454 E0.03196
G1 X198.449 Y22.892 E0.03196
G1 X199.350 Y22.415 E0.03196
G1 X200.292 Y22.026 E0.03196
G1 X201.268 Y21.730 E0.03196
G1 X202.267 Y21.529 E0.03196
G1 X203.281 Y21.425 E0.03196
G1 X203.792 Y21.409 E0.01604
G1 X204.556 Y21.432 E0.02396
G1 X205.568 Y21.549 E0.03192
G1 X206.564 Y21.762 E0.03196
G1 X207.536 Y22.070 E0.03196
G1 X208.474 Y22.470 E0.03196
G1 X209.369 Y22.958 E0.03196
G1 X210.212 Y23.530 E0.03196
G1 X210.997 Y24.181 E0.03196
G1 X211.716 Y24.904 E0.03196
G1 X212.361 Y25.692 E0.03196
G1 X212.928 Y26.539 E0.03196
G1 X213.411 Y27.437 E0.03196
G1 X213.619 Y27.901 E0.01595
G1 X213.890 Y28.619 E0.02405
G1 X214.169 Y29.598 E0.03192
G1 X214.352 Y30.601 E0.03196
G1 X214.437 Y31.617 E0.03196
G1 X214.425 Y32.636 E0.03196
G1 X214.315 Y33.649 E0.03196
G1 X214.108 Y34.647 E0.03196
G1 X213.806 Y35.621 E0.03196
G1 X213.411 Y36.561 E0.03196
G1 X212.928 Y37.459 E0.03196
G1 X212.362 Y38.305 E0.03192
G1 X211.883 Y38.904 E0.02405
G1 X211.543 Y39.282 E0.01595
G1 X210.807 Y39.987 E0.03196
G1 X210.007 Y40.619 E0.03196
G1 X209.149 Y41.170 E0.03196
G1 X208.243 Y41.637 E0.03196
G1 X207.296 Y42.014 E0.03196
G1 X206.317 Y42.299 E0.03196
G1 X205.316 Y42.488 E0.03196
G1 X204.300 Y42.580 E0.03196
G1 X203.281 Y42.573 E0.03196
G1 X202.267 Y42.469 E0.03196
G1 X201.268 Y42.268 E0.03196
G1 X200.292 Y41.972 E0.03196
G1 X199.350 Y41.583 E0.03196
G1 X198.449 Y41.106 E0.03196
G1 X198.017 Y40.835 E0.01599
G1 X197.195 Y40.233 E0.03196
G1 X196.434 Y39.555 E0.03196
G1 X195.742 Y38.806 E0.03196
G1 X195.125 Y37.995 E0.03196
G1 X194.589 Y37.128 E0.03196
G1 X194.139 Y36.213 E0.03196
M73 Q0 S37
G1 X193.779 Y35.259 E0.03196
G1 X193.512 Y34.276 E0.03196
G1 X193.341 Y33.272 E0.03192
G1 X193.277 Y32.507 E0.02405
G1 X193.264 Y31.999 E0.01595
G1 X193.314 Y30.979 E0.03202
G1 X193.419 Y30.200 E0.02464
G1 X193.806 Y30.005 F10800.000
G1 X193.772 Y30.280
;TYPE:Gap fill
;WIDTH:0.385916
G1 F1200.000
G1 X193.983 Y29.322 E0.02798
G1 X194.286 Y28.385 E0.02808
G1 X194.678 Y27.482 E0.02808
G1 X195.154 Y26.621 E0.02808
G1 X195.381 Y26.269 E0.01195
G1 X195.713 Y25.810 E0.01614
G1 X196.019 Y25.425 E0.01404
G1 X196.345 Y25.055 E0.01404
G1 X197.047 Y24.365 E0.02808
G1 X197.812 Y23.745 E0.02808
G1 X198.633 Y23.202 E0.02808
G1 X199.077 Y22.954 E0.01450
G1 X199.505 Y22.744 E0.01359
G1 X199.954 Y22.543 E0.01404
G1 X200.414 Y22.367 E0.01404
G1 X201.356 Y22.080 E0.02808
G1 X202.334 Y21.883 E0.02846
G1 X202.860 Y21.818 E0.01512
G1 X203.389 Y21.781 E0.01511
G1 X203.909 Y21.771 E0.01485
G1 X204.534 Y21.795 E0.01783
G1 X205.509 Y21.906 E0.02798
G1 X206.472 Y22.111 E0.02808
G1 X207.411 Y22.409 E0.02808
G1 X208.316 Y22.794 E0.02808
G1 X208.754 Y23.020 E0.01405
G1 X209.416 Y23.415 E0.02199
G1 X209.855 Y23.716 E0.01516
G1 X210.277 Y24.038 E0.01514
G1 X210.681 Y24.381 E0.01512
G1 X211.060 Y24.739 E0.01486
G1 X211.432 Y25.128 E0.01537
G1 X211.769 Y25.518 E0.01471
G1 X212.248 Y26.154 E0.02269
G1 X212.547 Y26.608 E0.01551
G1 X212.815 Y27.066 E0.01514
G1 X213.053 Y27.526 E0.01476
G1 X213.270 Y28.001 E0.01489
G1 X213.548 Y28.736 E0.02243
G1 X213.816 Y29.680 E0.02798
G1 X213.992 Y30.649 E0.02808
G1 X214.076 Y31.630 E0.02808
G1 X214.064 Y32.614 E0.02808
G1 X213.958 Y33.593 E0.02808
G1 X213.758 Y34.557 E0.02808
G1 X213.635 Y34.994 E0.01295
G1 X213.464 Y35.497 E0.01514
G1 X213.286 Y35.956 E0.01404
G1 X213.085 Y36.405 E0.01404
G1 X212.619 Y37.272 E0.02808
G1 X212.074 Y38.088 E0.02798
G1 X211.426 Y38.876 E0.02909
G1 X211.065 Y39.254 E0.01490
G1 X210.569 Y39.714 E0.01929
G1 X209.796 Y40.324 E0.02808
G1 X208.968 Y40.857 E0.02808
G1 X208.093 Y41.308 E0.02808
G1 X207.179 Y41.672 E0.02808
G1 X206.790 Y41.798 E0.01166
G1 X206.233 Y41.945 E0.01643
G1 X205.266 Y42.129 E0.02808
G1 X204.285 Y42.218 E0.02808
G1 X203.301 Y42.211 E0.02808
G1 X202.321 Y42.112 E0.02808
G1 X201.356 Y41.917 E0.02808
G1 X200.414 Y41.632 E0.02808
G1 X199.504 Y41.257 E0.02808
G1 X199.081 Y41.047 E0.01346
G1 X198.635 Y40.793 E0.01463
G1 X198.217 Y40.533 E0.01404
G1 X197.813 Y40.252 E0.01404
G1 X197.047 Y39.633 E0.02808
G1 X196.344 Y38.944 E0.02808
G1 X196.018 Y38.575 E0.01405
G1 X195.688 Y38.160 E0.01511
G1 X195.154 Y37.378 E0.02702
G1 X194.678 Y36.516 E0.02808
G1 X194.471 Y36.069 E0.01404
G1 X194.288 Y35.612 E0.01404
G1 X194.115 Y35.128 E0.01466
G1 X193.963 Y34.604 E0.01555
G1 X193.843 Y34.097 E0.01487
G1 X193.750 Y33.587 E0.01478
G1 X193.682 Y33.062 E0.01511
G1 X193.637 Y32.488 E0.01641
G1 X193.625 Y31.999 E0.01395
G1 X193.638 Y31.474 E0.01499
G1 X193.679 Y30.955 E0.01485
G1 X193.764 Y30.340 E0.01770
;WIPE_START
G1 F8640.000
G1 X193.983 Y29.322 E-0.27469
G1 X194.286 Y28.385 E-0.25981
G1 X194.678 Y27.482 E-0.25981
G1 X195.154 Y26.621 E-0.25981
G1 X195.331 Y26.347 E-0.08588
;WIPE_END
G1 E-0.06000 F2400.000
G1 Z0.600 F10800.000
G1 X203.795 Y39.193
G1 Z0.200
G1 E1.20000 F2400.000
;TYPE:Perimeter
;WIDTH:0.42
G1 F1200.000
G1 X203.826 Y39.171 E0.00121
G1 X203.895 Y39.178 E0.00216
G1 X203.933 Y39.227 E0.00194
G1 X203.928 Y39.281 E0.00171
G1 X203.891 Y39.322 E0.00176
G1 X203.829 Y39.327 E0.00194
G1 X203.782 Y39.286 E0.00194
G1 X203.774 Y39.248 E0.00121
G1 X203.401 Y39.325 F10800.000
G1 F1200.000
G1 X203.400 Y39.165 E0.00501
G1 X203.439 Y39.051 E0.00380
G1 X203.503 Y38.948 E0.00378
G1 X203.643 Y38.838 E0.00561
G1 X203.753 Y38.798 E0.00364
G1 X203.932 Y38.793 E0.00561
G1 X204.099 Y38.857 E0.00561
G1 X204.230 Y38.979 E0.00561
G1 X204.304 Y39.142 E0.00561
G1 X204.316 Y39.280 E0.00434
G1 X204.275 Y39.435 E0.00502
G1 X204.187 Y39.571 E0.00509
G1 X204.040 Y39.673 E0.00561
G1 X203.866 Y39.711 E0.00560
G1 X203.690 Y39.681 E0.00559
G1 X203.538 Y39.587 E0.00560
G1 X203.452 Y39.477 E0.00438
G1 X203.417 Y39.383 E0.00315
G1 X203.016 Y39.189 F10800.000
G1 F1200.000
G1 X203.031 Y39.077 E0.00355
G1 X203.097 Y38.888 E0.00628
G1 X203.202 Y38.718 E0.00626
G1 X203.280 Y38.635 E0.00355
G1 X203.453 Y38.510 E0.00669
G1 X203.568 Y38.457 E0.00397
G1 X203.690 Y38.424 E0.00396
G1 X203.903 Y38.409 E0.00670
G1 X204.015 Y38.424 E0.00355
G1 X204.218 Y38.491 E0.00669
G1 X204.316 Y38.546 E0.00356
G1 X204.478 Y38.685 E0.00668
G1 X204.549 Y38.774 E0.00357
G1 X204.645 Y38.964 E0.00667
G1 X204.677 Y39.073 E0.00358
G1 X204.695 Y39.285 E0.00665
G1 X204.682 Y39.400 E0.00363
G1 X204.622 Y39.588 E0.00619
G1 X204.522 Y39.761 E0.00627
G1 X204.445 Y39.848 E0.00362
G1 X204.278 Y39.976 E0.00660
G1 X204.174 Y40.027 E0.00364
G1 X203.971 Y40.082 E0.00660
G1 X203.855 Y40.090 E0.00363
G1 X203.645 Y40.063 E0.00665
G1 X203.536 Y40.028 E0.00357
G1 X203.351 Y39.923 E0.00667
G1 X203.265 Y39.849 E0.00356
G1 X203.133 Y39.681 E0.00669
G1 X203.081 Y39.581 E0.00355
G1 X203.027 Y39.388 E0.00628
G1 X203.019 Y39.249 E0.00438
G1 X202.637 Y39.173 F10800.000
G1 F1200.000
G1 X202.663 Y38.988 E0.00586
G1 X202.754 Y38.724 E0.00875
G1 X202.901 Y38.488 E0.00873
G1 X203.029 Y38.351 E0.00586
G1 X203.262 Y38.183 E0.00900
G1 X203.439 Y38.102 E0.00611
G1 X203.627 Y38.051 E0.00610
G1 X203.913 Y38.031 E0.00901
G1 X204.099 Y38.054 E0.00585
G1 X204.371 Y38.144 E0.00900
G1 X204.534 Y38.236 E0.00586
G1 X204.752 Y38.423 E0.00899
G1 X204.868 Y38.570 E0.00587
G1 X204.998 Y38.825 E0.00898
G1 X205.050 Y39.005 E0.00589
G1 X205.073 Y39.290 E0.00896
G1 X205.052 Y39.478 E0.00594
G1 X204.969 Y39.742 E0.00866
G1 X204.829 Y39.983 E0.00875
G1 X204.703 Y40.125 E0.00594
G1 X204.478 Y40.297 E0.00891
G1 X204.308 Y40.381 E0.00594
G1 X204.034 Y40.456 E0.00891
G1 X203.845 Y40.469 E0.00594
G1 X203.561 Y40.433 E0.00896
G1 X203.383 Y40.374 E0.00588
G1 X203.133 Y40.233 E0.00898
G1 X202.991 Y40.111 E0.00587
G1 X202.814 Y39.886 E0.00900
G1 X202.729 Y39.719 E0.00586
G1 X202.652 Y39.451 E0.00875
G1 X202.640 Y39.233 E0.00685
G1 X202.278 Y39.514 F10800.000
;TYPE:External perimeter
G1 F1200.000
G1 X202.258 Y39.157 E0.01121
G1 X202.295 Y38.899 E0.00817
G1 X202.412 Y38.561 E0.01122
G1 X202.601 Y38.257 E0.01121
G1 X202.778 Y38.067 E0.00817
G1 X203.071 Y37.856 E0.01131
G1 X203.310 Y37.746 E0.00825
G1 X203.564 Y37.677 E0.00824
G1 X203.924 Y37.652 E0.01132
G1 X204.182 Y37.684 E0.00816
G1 X204.524 Y37.798 E0.01131
G1 X204.751 Y37.926 E0.00817
G1 X205.025 Y38.160 E0.01130
G1 X205.186 Y38.365 E0.00818
G1 X205.350 Y38.686 E0.01128
G1 X205.422 Y38.937 E0.00820
G1 X205.452 Y39.295 E0.01127
G1 X205.423 Y39.557 E0.00825
G1 X205.316 Y39.895 E0.01113
G1 X205.136 Y40.204 E0.01122
G1 X204.962 Y40.402 E0.00825
G1 X204.678 Y40.619 E0.01122
G1 X204.442 Y40.736 E0.00825
G1 X204.097 Y40.829 E0.01122
G1 X203.834 Y40.847 E0.00825
G1 X203.477 Y40.802 E0.01128
G1 X203.229 Y40.720 E0.00819
G1 X202.916 Y40.543 E0.01129
G1 X202.718 Y40.373 E0.00818
G1 X202.495 Y40.090 E0.01130
G1 X202.376 Y39.858 E0.00817
G1 X202.295 Y39.572 E0.00934
G1 X202.556 Y39.289 F10800.000
;WIPE_START
G1 F8640.000
G1 X202.258 Y39.157 E-0.10983
G1 X202.295 Y38.899 E-0.06874
G1 X202.412 Y38.561 E-0.09446
G1 X202.601 Y38.257 E-0.09431
G1 X202.778 Y38.067 E-0.06877
G1 X203.071 Y37.856 E-0.09516
G1 X203.310 Y37.746 E-0.06948
G1 X203.564 Y37.677 E-0.06939
G1 X203.924 Y37.652 E-0.09524
G1 X204.182 Y37.684 E-0.06870
G1 X204.524 Y37.798 E-0.09515
G1 X204.751 Y37.926 E-0.06877
G1 X205.025 Y38.160 E-0.09508
G1 X205.135 Y38.300 E-0.04693
;WIPE_END
G1 E-0.06000 F2400.000
G1 Z0.600 F10800.000
G1 X202.396 Y35.628
G1 Z0.200
G1 E1.20000 F2400.000
G1 F1200.000
G1 X201.949 Y35.414 E0.01554
G1 X201.663 Y35.238 E0.01055
G1 X201.273 Y34.936 E0.01547
G1 X201.031 Y34.705 E0.01048
G1 X200.811 Y34.454 E0.01047
G1 X200.532 Y34.061 E0.01512
G1 X200.363 Y33.760 E0.01082
G1 X200.226 Y33.457 E0.01041
G1 X200.115 Y33.142 E0.01047
G1 X200.003 Y32.673 E0.01512
G1 X199.958 Y32.331 E0.01082
G1 X199.944 Y31.999 E0.01041
G1 X199.958 Y31.667 E0.01041
G1 X200.000 Y31.338 E0.01041
G1 X200.071 Y31.012 E0.01048
G1 X200.225 Y30.543 E0.01547
G1 X200.364 Y30.237 E0.01054
G1 X200.607 Y29.821 E0.01512
G1 X200.812 Y29.543 E0.01082
G1 X201.031 Y29.293 E0.01041
G1 X201.273 Y29.062 E0.01047
G1 X201.654 Y28.767 E0.01512
G1 X201.947 Y28.585 E0.01082
G1 X202.244 Y28.436 E0.01041
G1 X202.554 Y28.311 E0.01048
G1 X203.028 Y28.177 E0.01547
G1 X203.360 Y28.120 E0.01054
G1 X203.841 Y28.089 E0.01512
G1 X204.186 Y28.103 E0.01082
G1 X204.515 Y28.145 E0.01041
G1 X204.842 Y28.215 E0.01048
G1 X205.310 Y28.370 E0.01547
G1 X205.615 Y28.508 E0.01048
G1 X205.906 Y28.670 E0.01047
G1 X206.300 Y28.948 E0.01512
G1 X206.562 Y29.177 E0.01089
G1 X206.895 Y29.541 E0.01547
G1 X207.094 Y29.809 E0.01048
G1 X207.268 Y30.092 E0.01041
G1 X207.417 Y30.388 E0.01041
G1 X207.542 Y30.698 E0.01048
G1 X207.677 Y31.175 E0.01553
G1 X207.749 Y31.654 E0.01519
G1 X207.765 Y32.001 E0.01088
G1 X207.734 Y32.482 E0.01513
G1 X207.677 Y32.825 E0.01088
G1 X207.546 Y33.289 E0.01513
G1 X207.418 Y33.610 E0.01082
G1 X207.268 Y33.906 E0.01041
G1 X207.093 Y34.191 E0.01048
